;FLAVOR:Marlin
;TIME:7905
;Filament used: 5.01892m
;Layer height: 0.12
;MINX:96.783
;MINY:92.387
;MINZ:0.2
;MAXX:133.96
;MAXY:143.694
;MAXZ:58.88
;TARGET_MACHINE.NAME:Anycubic Kobra
;Generated with Cura_SteamEngine 5.10.1
M140 S60
M105
M190 S60
M104 S200
M105
M109 S200
G21 ;metric values
G90 ;absolute positioning
M82 ;set extruder to absolute mode
M107 ;start with the fan off
M117 Homing X/Y ...
G28 X0 Y0 ;move X/Y to min endstops
M117 Homing Z ...
G28 Z0 ;move Z to min endstops
G1 Z15.0 F240 ;move the platform down 15mm
M117 Heating ...
M104 S[first_layer_temperature]
; set extruder temp
M109 S[first_layer_temperature]
; wait for extruder temp
M117 Start cleaning ...
M420 S1 ; Enable Bed Levelling Mesh
G92 E0 ;zero the extruded length
M413 S0 ; disable power loss recovery - may reduce blobbing and avoid unexpected recovery
; M500 ; store eeprom settings
M117 Intro line ...
G1 Z2.0 F3000 ; Move Z Axis up little to prevent scratching of Heat Bed
G1 X0.1 Y20 Z[first_layer_height] F5000.0 ; Move to start position
G1 X0.1 Y200.0 Z[first_layer_height] F1500.0 E15 ; Draw the first line
G1 X0.4 Y200.0 Z[first_layer_height] F5000.0 ; Move to side a little
G1 X0.4 Y20 Z0.3[first_layer_height] F1500.0 E30 ; Draw the second line
G92 E0 ; Reset Extruder
G1 X5 Y20 Z0.3 F240 ; Move over to prevent blob squish
G92 E0 ; Reset Extruder
M420 S1 ; Enable Bed Levelling Mesh
M117 Printing...
M82 ;absolute extrusion mode
G92 E0
G92 E0
G1 F2700 E-1
;LAYER_COUNT:490
;LAYER:0
M107
M204 S2000
M205 X10 Y10
G0 F3000 X103.977 Y96.563 Z0.2
M204 S1000
M205 X8 Y8
;TYPE:SKIRT
G1 F2700 E0
G1 F2400 X105.582 Y94.869 E0.07762
G1 X106.069 Y94.37 E0.10081
G1 X106.5 Y93.999 E0.11972
G1 X106.991 Y93.698 E0.13888
G1 X107.561 Y93.467 E0.15933
G1 X108.325 Y93.238 E0.18586
G1 X110.334 Y92.676 E0.25524
G1 X110.99 Y92.502 E0.27782
G1 X111.581 Y92.398 E0.29778
G1 X112.086 Y92.387 E0.31458
G1 X112.82 Y92.498 E0.33927
G1 X113.77 Y92.746 E0.37192
G1 X115.546 Y93.243 E0.43326
G1 X116.396 Y93.5 E0.4628
G1 X116.917 Y93.726 E0.48169
G1 X117.397 Y94.032 E0.50062
G1 X117.781 Y94.366 E0.51755
G1 X118.339 Y94.938 E0.54412
G1 X119.778 Y96.458 E0.61374
G1 X120.276 Y97 E0.63822
G1 X120.588 Y97.398 E0.65504
G1 X120.83 Y97.811 E0.67096
G1 X122.079 Y100.417 E0.76708
G1 X123.342 Y102.871 E0.85888
G1 X124.643 Y105.233 E0.94857
G1 X126.024 Y107.579 E1.03911
G1 X127.485 Y109.908 E1.13055
G1 X128.989 Y112.165 E1.22076
G1 X131.07 Y115.146 E1.34168
G1 X131.857 Y116.512 E1.39411
G1 X132.517 Y117.916 E1.44571
G1 X133.046 Y119.335 E1.49608
G1 X133.359 Y120.457 E1.53482
G1 X133.563 Y121.328 E1.56458
G1 X133.704 Y122.083 E1.59012
G1 X133.863 Y123.15 E1.626
G1 X133.935 Y124.29 E1.664
G1 X133.96 Y125.551 E1.70595
G1 X133.859 Y127.145 E1.75907
G1 X133.729 Y128.071 E1.79017
G1 X133.609 Y128.73 E1.81245
G1 X133.353 Y129.816 E1.84956
G1 X133.06 Y130.855 E1.88546
G1 X132.489 Y132.368 E1.93925
G1 X131.89 Y133.642 E1.98607
G1 X131.391 Y134.563 E2.02091
G1 X130.788 Y135.512 E2.05831
G1 X130.217 Y136.314 E2.09106
G1 X129.464 Y137.225 E2.13037
G1 X128.864 Y137.889 E2.16013
G1 X128.074 Y138.688 E2.1975
G1 X126.962 Y139.65 E2.24641
G1 X125.926 Y140.407 E2.28908
G1 X125.256 Y140.848 E2.31576
G1 X124.714 Y141.177 E2.33685
G1 X123.932 Y141.607 E2.36653
G1 X123.174 Y141.978 E2.3946
G1 X122.224 Y142.401 E2.42919
G1 X121.142 Y142.777 E2.46729
G1 X120.011 Y143.121 E2.50661
G1 X118.804 Y143.376 E2.54764
G1 X118.006 Y143.508 E2.57454
G1 X116.916 Y143.645 E2.61108
G1 X115.646 Y143.694 E2.65335
G1 X114.538 Y143.694 E2.6902
G1 X113.634 Y143.622 E2.72036
G1 X112.603 Y143.488 E2.75494
G1 X111.914 Y143.37 E2.77819
G1 X110.732 Y143.121 E2.81837
G1 X109.558 Y142.762 E2.8592
G1 X108.494 Y142.39 E2.89669
G1 X107.104 Y141.771 E2.9473
G1 X105.762 Y141.028 E2.99832
G1 X104.704 Y140.327 E3.04053
G1 X104.091 Y139.878 E3.06581
G1 X103.196 Y139.167 E3.10382
G1 X102.305 Y138.325 E3.1446
G1 X101.744 Y137.748 E3.17136
G1 X101.042 Y136.966 E3.20632
G1 X100.355 Y136.059 E3.24416
G1 X99.88 Y135.374 E3.27188
G1 X99.275 Y134.422 E3.3094
G1 X98.54 Y133.017 E3.36214
G1 X98.119 Y132.015 E3.39829
G1 X97.795 Y131.139 E3.42935
G1 X97.461 Y130.109 E3.46537
G1 X97.1 Y128.568 E3.51801
G1 X96.93 Y127.384 E3.55779
G1 X96.817 Y126.268 E3.5951
G1 X96.783 Y124.687 E3.6477
G1 X96.852 Y123.597 E3.68402
G1 X96.987 Y122.308 E3.72713
G1 X97.148 Y121.452 E3.7561
G1 X97.492 Y119.996 E3.80586
G1 X97.895 Y118.783 E3.84837
G1 X98.714 Y116.145 E3.94024
G1 X99.452 Y113.509 E4.03129
G1 X100.113 Y110.859 E4.12213
G1 X100.694 Y108.218 E4.21207
G1 X101.211 Y105.501 E4.30406
G1 X101.798 Y101.825 E4.42787
G1 X102.072 Y100.83 E4.4622
G1 X102.598 Y99.03 E4.52457
G1 X102.829 Y98.285 E4.55051
G1 X103.04 Y97.782 E4.56865
G1 X103.438 Y97.153 E4.59341
G1 X103.977 Y96.563 E4.61999
M204 S2000
M205 X10 Y10
G0 F3000 X104.267 Y96.838
M204 S1000
M205 X8 Y8
G1 F2400 X105.868 Y95.148 E4.69742
G1 X106.333 Y94.671 E4.71957
G1 X106.713 Y94.338 E4.73638
G1 X107.141 Y94.069 E4.75319
G1 X107.711 Y93.838 E4.77365
G1 X108.433 Y93.623 E4.79871
G1 X110.437 Y93.063 E4.86791
G1 X111.093 Y92.889 E4.89049
G1 X111.59 Y92.798 E4.90729
G1 X112.095 Y92.787 E4.92409
G1 X112.719 Y92.885 E4.9451
G1 X113.662 Y93.131 E4.97751
G1 X115.431 Y93.626 E5.03861
G1 X116.24 Y93.868 E5.0667
G1 X116.705 Y94.065 E5.08349
G1 X117.134 Y94.334 E5.10033
G1 X117.518 Y94.668 E5.11726
G1 X118.049 Y95.213 E5.14257
G1 X119.484 Y96.729 E5.212
G1 X119.961 Y97.247 E5.23542
G1 X120.273 Y97.645 E5.25224
G1 X120.469 Y97.984 E5.26526
G1 X121.723 Y100.6 E5.36175
G1 X122.986 Y103.054 E5.45355
G1 X124.298 Y105.436 E5.544
G1 X125.685 Y107.792 E5.63493
G1 X127.152 Y110.13 E5.72673
G1 X128.656 Y112.387 E5.81694
G1 X129.247 Y113.222 E5.85096
G1 X130.723 Y115.346 E5.93699
G1 X131.51 Y116.712 E5.98943
G1 X132.142 Y118.056 E6.03882
G1 X132.671 Y119.475 E6.08919
G1 X132.97 Y120.548 E6.12624
G1 X133.17 Y121.401 E6.15538
G1 X133.308 Y122.142 E6.18045
G1 X133.467 Y123.209 E6.21633
G1 X133.535 Y124.298 E6.25262
G1 X133.561 Y125.526 E6.29347
G1 X133.463 Y127.089 E6.34556
G1 X133.335 Y127.999 E6.37613
G1 X133.215 Y128.658 E6.3984
G1 X132.968 Y129.708 E6.43428
G1 X132.686 Y130.714 E6.46903
G1 X132.127 Y132.198 E6.52177
G1 X131.538 Y133.452 E6.56785
G1 X131.053 Y134.349 E6.60177
G1 X130.462 Y135.28 E6.63845
G1 X129.891 Y136.082 E6.67119
G1 X129.167 Y136.957 E6.70897
G1 X128.58 Y137.608 E6.73812
G1 X127.812 Y138.385 E6.77446
G1 X126.7 Y139.347 E6.82336
G1 X125.706 Y140.073 E6.8643
G1 X125.049 Y140.506 E6.89047
G1 X124.521 Y140.826 E6.91101
G1 X123.739 Y141.256 E6.94069
G1 X123.011 Y141.613 E6.96766
G1 X122.093 Y142.023 E7.0011
G1 X121.026 Y142.394 E7.03867
G1 X119.895 Y142.738 E7.07799
G1 X118.738 Y142.981 E7.11731
G1 X117.956 Y143.111 E7.14368
G1 X116.9 Y143.245 E7.17908
G1 X115.646 Y143.294 E7.22082
G1 X114.57 Y143.295 E7.25661
G1 X113.686 Y143.225 E7.2861
G1 X112.655 Y143.091 E7.32068
G1 X111.996 Y142.979 E7.34291
G1 X110.849 Y142.738 E7.3819
G1 X109.69 Y142.384 E7.4222
G1 X108.626 Y142.012 E7.45969
G1 X107.298 Y141.421 E7.50804
G1 X105.956 Y140.678 E7.55906
G1 X104.94 Y140.004 E7.59961
G1 X104.34 Y139.565 E7.62434
G1 X103.471 Y138.876 E7.66122
G1 X102.592 Y138.046 E7.70143
G1 X102.031 Y137.469 E7.7282
G1 X101.361 Y136.724 E7.76152
G1 X100.684 Y135.831 E7.7988
G1 X100.218 Y135.159 E7.826
G1 X99.613 Y134.207 E7.86351
G1 X98.909 Y132.862 E7.914
G1 X98.494 Y131.876 E7.94959
G1 X98.175 Y131.015 E7.98012
G1 X97.85 Y130.018 E8.015
G1 X97.496 Y128.511 E8.06649
G1 X97.328 Y127.343 E8.10574
G1 X97.217 Y126.259 E8.14198
G1 X97.182 Y124.712 E8.19345
G1 X97.25 Y123.639 E8.22921
G1 X97.385 Y122.35 E8.27231
G1 X97.537 Y121.544 E8.29959
G1 X97.872 Y120.122 E8.34818
G1 X98.275 Y118.909 E8.3907
G1 X99.096 Y116.264 E8.48281
G1 X99.837 Y113.617 E8.57423
G1 X100.504 Y110.945 E8.66583
G1 X101.085 Y108.304 E8.75577
G1 X101.604 Y105.576 E8.84813
G1 X102.184 Y101.931 E8.97089
G1 X102.456 Y100.942 E9.00501
G1 X102.98 Y99.148 E9.06717
G1 X103.211 Y98.403 E9.09311
G1 X103.408 Y97.938 E9.10991
G1 X103.733 Y97.423 E9.13016
G1 X104.267 Y96.838 E9.15651
M204 S2000
M205 X10 Y10
G1 F2700 E8.15651
G0 F3000 X106.415 Y99.514
M204 S1000
M205 X8 Y8
G1 F2700 E9.15651
G1 F2400 X108.727 Y97.073 E9.26833
G1 X111.927 Y96.176 E9.37887
G1 X115.127 Y97.073 E9.4894
G1 X117.439 Y99.514 E9.60123
G1 X118.336 Y102.587 E9.7077
G1 X117.44 Y105.788 E9.81826
G1 X115.129 Y108.099 E9.92696
G1 X111.928 Y108.995 E10.03752
G1 X108.855 Y108.097 E10.144
G1 X106.416 Y105.658 E10.25872
G1 X105.518 Y102.586 E10.36518
G1 X106.415 Y99.514 E10.47162
M204 S2000
M205 X10 Y10
G0 F3000 X106.772 Y99.719
M204 S1000
M205 X8 Y8
G1 F2400 X108.942 Y97.428 E10.57657
G1 X111.927 Y96.591 E10.67968
G1 X114.912 Y97.428 E10.78279
G1 X117.082 Y99.719 E10.88775
G1 X117.92 Y102.59 E10.98722
G1 X117.083 Y105.579 E11.09046
G1 X114.92 Y107.742 E11.1922
G1 X111.931 Y108.579 E11.29544
G1 X109.066 Y107.742 E11.39471
G1 X106.771 Y105.447 E11.50266
G1 X105.935 Y102.586 E11.6018
G1 X106.772 Y99.719 E11.70114
M204 S2000
M205 X10 Y10
G0 F3000 X107.129 Y99.924
M204 S1000
M205 X8 Y8
G1 F2400 X109.156 Y97.783 E11.7992
G1 X111.927 Y97.007 E11.89491
G1 X114.698 Y97.783 E11.99062
G1 X116.725 Y99.924 E12.08868
G1 X117.504 Y102.592 E12.18112
G1 X116.726 Y105.37 E12.27708
G1 X114.711 Y107.385 E12.37185
G1 X111.934 Y108.163 E12.46777
G1 X109.277 Y107.387 E12.55984
G1 X107.126 Y105.236 E12.66101
G1 X106.352 Y102.586 E12.75284
G1 X107.129 Y99.924 E12.84507
M204 S2000
M205 X10 Y10
G1 F2700 E11.84507
G0 F3000 X114.721 Y116.409
M204 S1000
M205 X8 Y8
G1 F2700 E12.84507
G1 F2400 X115.418 Y116.213 E12.86915
G1 X116.17 Y116.429 E12.89517
G1 X116.295 Y116.424 E12.89934
G1 X116.37 Y116.374 E12.90233
G1 X116.465 Y116.273 E12.90694
G1 X117.161 Y116.078 E12.93099
G1 X117.857 Y116.273 E12.95503
G1 X118.364 Y116.809 E12.97957
G1 X118.56 Y117.479 E13.00278
G1 X118.366 Y118.174 E13.02678
G1 X117.858 Y118.683 E13.0507
G1 X117.163 Y118.877 E13.0747
G1 X116.421 Y118.659 E13.10042
G1 X116.297 Y118.663 E13.10455
G1 X116.224 Y118.709 E13.10742
G1 X116.114 Y118.818 E13.11257
G1 X115.418 Y119.013 E13.13661
G1 X114.75 Y118.817 E13.15976
G1 X114.214 Y118.281 E13.18498
G1 X114.018 Y117.614 E13.2081
G1 X114.214 Y116.945 E13.23128
G1 X114.721 Y116.409 E13.25582
M204 S2000
M205 X10 Y10
G0 F3000 X114.936 Y116.764
M204 S1000
M205 X8 Y8
G1 F2400 X115.416 Y116.629 E13.27241
G1 X116.059 Y116.814 E13.29466
G1 X116.277 Y116.835 E13.30195
G1 X116.487 Y116.777 E13.30919
G1 X116.661 Y116.649 E13.31638
G1 X116.681 Y116.628 E13.31734
G1 X117.161 Y116.493 E13.33393
G1 X117.642 Y116.628 E13.35054
G1 X118.008 Y117.015 E13.36826
G1 X118.144 Y117.483 E13.38447
G1 X118.01 Y117.965 E13.40111
G1 X117.648 Y118.327 E13.41813
G1 X117.167 Y118.461 E13.43474
G1 X116.534 Y118.275 E13.45669
G1 X116.317 Y118.253 E13.46394
G1 X116.106 Y118.31 E13.47121
G1 X115.942 Y118.425 E13.47787
G1 X115.906 Y118.461 E13.47957
G1 X115.422 Y118.597 E13.49629
G1 X114.961 Y118.462 E13.51226
G1 X114.569 Y118.07 E13.5307
G1 X114.435 Y117.613 E13.54654
G1 X114.57 Y117.151 E13.56255
G1 X114.936 Y116.764 E13.58027
M204 S2000
M205 X10 Y10
G0 F3000 X115.15 Y117.12
M204 S1000
M205 X8 Y8
G1 F2400 X115.415 Y117.045 E13.58943
G1 X115.949 Y117.198 E13.6079
G1 X116.228 Y117.237 E13.61727
G1 X116.508 Y117.196 E13.62668
G1 X116.764 Y117.079 E13.63605
G1 X116.871 Y116.99 E13.64068
G1 X117.161 Y116.909 E13.65069
G1 X117.428 Y116.984 E13.65991
G1 X117.65 Y117.219 E13.67067
G1 X117.728 Y117.485 E13.67989
G1 X117.653 Y117.756 E13.68924
G1 X117.439 Y117.97 E13.6993
G1 X117.169 Y118.045 E13.70862
G1 X116.647 Y117.892 E13.72672
G1 X116.367 Y117.851 E13.73613
G1 X116.088 Y117.89 E13.7455
G1 X115.831 Y118.006 E13.75488
G1 X115.712 Y118.1 E13.75992
G1 X115.424 Y118.181 E13.76987
G1 X115.172 Y118.107 E13.77861
G1 X114.924 Y117.859 E13.79027
G1 X114.852 Y117.613 E13.7988
G1 X114.927 Y117.355 E13.80773
G1 X115.15 Y117.12 E13.81851
M204 S2000
M205 X10 Y10
G1 F2700 E12.81851
G0 F3000 X119.635 Y118.82
M204 S1000
M205 X8 Y8
G1 F2700 E13.81851
G1 F2400 X120.142 Y118.284 E13.84305
G1 X120.838 Y118.089 E13.86709
G1 X121.534 Y118.284 E13.89113
G1 X122.041 Y118.82 E13.91567
G1 X122.245 Y119.519 E13.93989
G1 X122.316 Y119.622 E13.94405
G1 X122.384 Y119.656 E13.94658
G1 X122.713 Y119.747 E13.95793
G1 X123.22 Y120.283 E13.98247
G1 X123.416 Y120.953 E14.00569
G1 X123.236 Y121.598 E14.02796
G1 X123.242 Y121.723 E14.03212
G1 X123.375 Y121.845 E14.03812
G1 X123.648 Y121.922 E14.04756
G1 X124.155 Y122.457 E14.07207
G1 X124.351 Y123.127 E14.09529
G1 X124.157 Y123.823 E14.11932
G1 X123.65 Y124.33 E14.14317
G1 X122.953 Y124.525 E14.16724
G1 X122.285 Y124.329 E14.1904
G1 X121.749 Y123.793 E14.21561
G1 X121.553 Y123.126 E14.23873
G1 X121.743 Y122.478 E14.26119
G1 X121.739 Y122.353 E14.26535
G1 X121.608 Y122.23 E14.27133
G1 X121.302 Y122.139 E14.28195
G1 X121.177 Y122.143 E14.28611
G1 X121.104 Y122.189 E14.28898
G1 X120.629 Y122.663 E14.3113
G1 X119.933 Y122.858 E14.33534
G1 X119.265 Y122.662 E14.35849
G1 X118.729 Y122.126 E14.3837
G1 X118.533 Y121.459 E14.40682
G1 X118.729 Y120.79 E14.43001
G1 X119.236 Y120.255 E14.45453
G1 X119.436 Y120.199 E14.46143
G1 X119.539 Y120.129 E14.46558
G1 X119.574 Y119.95 E14.47164
G1 X119.439 Y119.489 E14.48762
G1 X119.635 Y118.82 E14.51081
M204 S2000
M205 X10 Y10
G0 F3000 X119.991 Y119.026
M204 S1000
M205 X8 Y8
G1 F2400 X120.357 Y118.639 E14.52852
G1 X120.838 Y118.504 E14.54514
G1 X121.319 Y118.639 E14.56175
G1 X121.684 Y119.026 E14.57945
G1 X121.861 Y119.631 E14.60041
G1 X121.959 Y119.826 E14.60767
G1 X122.12 Y119.973 E14.61492
G1 X122.277 Y120.041 E14.62061
G1 X122.498 Y120.102 E14.62824
G1 X122.863 Y120.488 E14.64591
G1 X123 Y120.957 E14.66216
G1 X122.851 Y121.491 E14.6806
G1 X122.832 Y121.708 E14.68784
G1 X122.891 Y121.918 E14.6951
G1 X123.022 Y122.093 E14.70237
G1 X123.267 Y122.23 E14.71171
G1 X123.433 Y122.276 E14.71744
G1 X123.799 Y122.663 E14.73515
G1 X123.935 Y123.131 E14.75136
G1 X123.8 Y123.614 E14.76804
G1 X123.441 Y123.973 E14.78493
G1 X122.957 Y124.109 E14.80165
G1 X122.496 Y123.974 E14.81763
G1 X122.104 Y123.582 E14.83606
G1 X121.97 Y123.126 E14.85187
G1 X122.127 Y122.591 E14.87042
G1 X122.149 Y122.373 E14.8777
G1 X122.092 Y122.163 E14.88494
G1 X121.964 Y121.986 E14.89221
G1 X121.722 Y121.847 E14.90149
G1 X121.416 Y121.756 E14.91211
G1 X121.199 Y121.733 E14.91937
G1 X120.988 Y121.789 E14.92663
G1 X120.821 Y121.906 E14.93341
G1 X120.42 Y122.306 E14.95225
G1 X119.937 Y122.442 E14.96894
G1 X119.476 Y122.307 E14.98491
G1 X119.084 Y121.915 E15.00335
G1 X118.95 Y121.458 E15.01919
G1 X119.085 Y120.996 E15.0352
G1 X119.451 Y120.61 E15.05289
G1 X119.543 Y120.584 E15.05607
G1 X119.739 Y120.488 E15.06333
G1 X119.888 Y120.329 E15.07058
G1 X119.97 Y120.127 E15.07783
G1 X119.958 Y119.838 E15.08745
G1 X119.856 Y119.489 E15.09954
G1 X119.991 Y119.026 E15.11558
M204 S2000
M205 X10 Y10
G0 F3000 X120.348 Y119.23
M204 S1000
M205 X8 Y8
G1 F2400 X120.571 Y118.995 E15.12636
G1 X120.838 Y118.92 E15.13558
G1 X121.105 Y118.995 E15.14481
G1 X121.327 Y119.23 E15.15556
G1 X121.477 Y119.743 E15.17334
G1 X121.593 Y120 E15.18271
G1 X121.777 Y120.214 E15.1921
G1 X122.013 Y120.369 E15.20149
G1 X122.17 Y120.427 E15.20706
G1 X122.285 Y120.459 E15.21103
G1 X122.506 Y120.693 E15.22173
G1 X122.584 Y120.959 E15.23095
G1 X122.466 Y121.383 E15.24559
G1 X122.429 Y121.663 E15.25499
G1 X122.472 Y121.942 E15.26438
G1 X122.591 Y122.198 E15.27377
G1 X122.777 Y122.41 E15.28315
G1 X123.014 Y122.562 E15.29251
G1 X123.159 Y122.615 E15.29764
G1 X123.219 Y122.632 E15.29972
G1 X123.441 Y122.867 E15.31047
G1 X123.519 Y123.133 E15.31969
G1 X123.443 Y123.405 E15.32908
G1 X123.232 Y123.616 E15.33901
G1 X122.959 Y123.693 E15.34844
G1 X122.707 Y123.619 E15.35718
G1 X122.459 Y123.371 E15.36884
G1 X122.387 Y123.126 E15.37734
G1 X122.511 Y122.703 E15.392
G1 X122.551 Y122.424 E15.40137
G1 X122.512 Y122.144 E15.41078
G1 X122.396 Y121.887 E15.42015
G1 X122.213 Y121.672 E15.42954
G1 X121.977 Y121.517 E15.43894
G1 X121.836 Y121.463 E15.44396
G1 X121.53 Y121.372 E15.45458
G1 X121.251 Y121.331 E15.46395
G1 X120.971 Y121.369 E15.47335
G1 X120.714 Y121.484 E15.48272
G1 X120.539 Y121.623 E15.49015
G1 X120.212 Y121.949 E15.50551
G1 X119.939 Y122.026 E15.51494
