;FLAVOR:Marlin
;TIME:7931
;Filament used: 5.03441m
;Layer height: 0.12
;MINX:83.541
;MINY:95.272
;MINZ:0.2
;MAXX:115.535
;MAXY:141.396
;MAXZ:58.88
;TARGET_MACHINE.NAME:Anycubic Kobra
;Generated with Cura_SteamEngine 5.10.1
M140 S60
M105
M190 S60
M104 S200
M105
M109 S200
G21 ;metric values
G90 ;absolute positioning
M82 ;set extruder to absolute mode
M107 ;start with the fan off
M117 Homing X/Y ...
G28 X0 Y0 ;move X/Y to min endstops
M117 Homing Z ...
G28 Z0 ;move Z to min endstops
G1 Z15.0 F240 ;move the platform down 15mm
M117 Heating ...
M104 S[first_layer_temperature]
; set extruder temp
M109 S[first_layer_temperature]
; wait for extruder temp
M117 Start cleaning ...
M420 S1 ; Enable Bed Levelling Mesh
G92 E0 ;zero the extruded length
M413 S0 ; disable power loss recovery - may reduce blobbing and avoid unexpected recovery
; M500 ; store eeprom settings
M117 Intro line ...
G1 Z2.0 F3000 ; Move Z Axis up little to prevent scratching of Heat Bed
G1 X0.1 Y20 Z[first_layer_height] F5000.0 ; Move to start position
G1 X0.1 Y200.0 Z[first_layer_height] F1500.0 E15 ; Draw the first line
G1 X0.4 Y200.0 Z[first_layer_height] F5000.0 ; Move to side a little
G1 X0.4 Y20 Z0.3[first_layer_height] F1500.0 E30 ; Draw the second line
G92 E0 ; Reset Extruder
G1 X5 Y20 Z0.3 F240 ; Move over to prevent blob squish
G92 E0 ; Reset Extruder
M420 S1 ; Enable Bed Levelling Mesh
M117 Printing...
M82 ;absolute extrusion mode
G92 E0
G92 E0
G1 F2700 E-1
;LAYER_COUNT:490
;LAYER:0
M107
M204 S2000
M205 X10 Y10
G0 F3000 X92.035 Y96.492 Z0.2
M204 S1000
M205 X8 Y8
;TYPE:SKIRT
G1 F2700 E0
G1 F2400 X92.49 Y96.217 E0.01768
G1 X95.797 Y95.29 E0.13191
G1 X96.273 Y95.272 E0.14776
G1 X99.644 Y96.217 E0.2642
G1 X100.054 Y96.445 E0.2798
G1 X102.515 Y99.043 E0.39883
G1 X102.687 Y99.314 E0.4095
G1 X103.644 Y102.592 E0.52308
G1 X103.664 Y103.081 E0.53936
G1 X102.708 Y106.495 E0.65728
G1 X102.504 Y106.845 E0.67075
G1 X99.956 Y109.393 E0.7906
G1 X100.897 Y109.454 E0.82196
G1 X101.565 Y109.524 E0.8443
G1 X102.227 Y109.624 E0.86657
G1 X102.884 Y109.751 E0.88883
G1 X103.538 Y109.904 E0.91117
G1 X104.183 Y110.086 E0.93346
G1 X104.819 Y110.293 E0.9557
G1 X105.449 Y110.528 E0.97807
G1 X106.065 Y110.788 E1.00031
G1 X106.656 Y111.067 E1.02204
G1 X107.264 Y111.386 E1.04488
G1 X107.844 Y111.721 E1.06716
G1 X108.41 Y112.082 E1.08948
G1 X108.96 Y112.465 E1.11178
G1 X109.492 Y112.87 E1.13401
G1 X110.009 Y113.298 E1.15634
G1 X110.506 Y113.747 E1.17861
G1 X110.996 Y114.229 E1.20148
G1 X111.454 Y114.719 E1.22378
G1 X111.888 Y115.226 E1.24598
G1 X112.296 Y115.74 E1.26781
G1 X112.697 Y116.295 E1.29058
G1 X113.056 Y116.836 E1.31218
G1 X113.413 Y117.43 E1.33523
G1 X113.735 Y118.018 E1.35752
G1 X114.031 Y118.618 E1.37978
G1 X114.302 Y119.232 E1.4021
G1 X114.547 Y119.853 E1.4243
G1 X114.762 Y120.473 E1.44613
G1 X114.959 Y121.13 E1.46894
G1 X115.116 Y121.746 E1.49008
G1 X115.257 Y122.42 E1.51299
G1 X115.371 Y123.096 E1.53579
G1 X115.454 Y123.761 E1.55808
G1 X115.508 Y124.412 E1.57981
G1 X115.535 Y125.056 E1.60124
G1 X115.535 Y125.771 E1.62502
G1 X115.504 Y126.439 E1.64727
G1 X115.446 Y127.106 E1.66953
G1 X115.36 Y127.771 E1.69184
G1 X115.247 Y128.433 E1.71417
G1 X115.105 Y129.086 E1.7364
G1 X114.938 Y129.735 E1.75869
G1 X114.754 Y130.344 E1.77985
G1 X114.521 Y131.008 E1.80325
G1 X114.273 Y131.633 E1.82562
G1 X113.998 Y132.242 E1.84784
G1 X113.698 Y132.843 E1.87018
G1 X113.375 Y133.43 E1.89247
G1 X113.027 Y133.999 E1.91465
G1 X112.655 Y134.558 E1.93698
G1 X112.268 Y135.09 E1.95887
G1 X111.842 Y135.622 E1.98153
G1 X111.414 Y136.118 E2.00332
G1 X110.955 Y136.606 E2.02561
G1 X110.474 Y137.076 E2.04797
G1 X109.976 Y137.521 E2.07019
G1 X109.46 Y137.948 E2.09246
G1 X108.953 Y138.333 E2.11364
G1 X108.374 Y138.735 E2.13708
G1 X107.808 Y139.092 E2.15934
G1 X107.227 Y139.428 E2.18166
G1 X106.632 Y139.737 E2.20396
G1 X106.027 Y140.021 E2.22619
G1 X105.408 Y140.28 E2.24851
G1 X104.78 Y140.512 E2.27077
G1 X104.142 Y140.719 E2.29308
G1 X103.494 Y140.9 E2.31546
G1 X102.844 Y141.05 E2.33765
G1 X102.185 Y141.176 E2.35996
G1 X101.521 Y141.273 E2.38228
G1 X100.856 Y141.341 E2.40452
G1 X100.186 Y141.383 E2.42684
G1 X99.517 Y141.396 E2.4491
G1 X98.845 Y141.381 E2.47146
G1 X98.179 Y141.338 E2.49365
G1 X97.511 Y141.268 E2.51599
G1 X96.848 Y141.168 E2.53829
G1 X96.191 Y141.041 E2.56055
G1 X95.537 Y140.888 E2.58289
G1 X94.892 Y140.706 E2.60518
G1 X94.257 Y140.499 E2.62739
G1 X93.627 Y140.264 E2.64976
G1 X93.011 Y140.004 E2.672
G1 X92.419 Y139.725 E2.69376
G1 X91.811 Y139.406 E2.7166
G1 X91.23 Y139.07 E2.73892
G1 X90.666 Y138.71 E2.76118
G1 X90.116 Y138.326 E2.78349
G1 X89.586 Y137.923 E2.80563
G1 X89.066 Y137.494 E2.82805
G1 X88.57 Y137.045 E2.85031
G1 X88.08 Y136.563 E2.87317
G1 X87.624 Y136.074 E2.89541
G1 X87.185 Y135.565 E2.91776
G1 X86.771 Y135.04 E2.94
G1 X86.377 Y134.497 E2.96231
G1 X86.034 Y133.979 E2.98298
G1 X85.67 Y133.376 E3.0064
G1 X85.343 Y132.777 E3.0291
G1 X85.044 Y132.174 E3.05149
G1 X84.774 Y131.561 E3.07377
G1 X84.529 Y130.938 E3.09603
G1 X84.315 Y130.321 E3.11775
G1 X84.116 Y129.662 E3.14065
G1 X83.959 Y129.046 E3.16179
G1 X83.816 Y128.371 E3.18474
G1 X83.705 Y127.696 E3.20749
G1 X83.622 Y127.033 E3.22972
G1 X83.567 Y126.378 E3.25158
G1 X83.541 Y125.734 E3.27302
G1 X83.541 Y125.021 E3.29673
G1 X83.57 Y124.368 E3.31847
G1 X83.63 Y123.686 E3.34124
G1 X83.716 Y123.022 E3.36351
G1 X83.828 Y122.359 E3.38587
G1 X83.97 Y121.706 E3.4081
G1 X84.137 Y121.056 E3.43042
G1 X84.328 Y120.43 E3.45219
G1 X84.555 Y119.784 E3.47496
G1 X84.803 Y119.162 E3.49724
G1 X85.077 Y118.548 E3.5196
G1 X85.376 Y117.951 E3.54181
G1 X85.701 Y117.361 E3.56421
G1 X86.049 Y116.793 E3.58637
G1 X86.422 Y116.232 E3.60877
G1 X86.807 Y115.705 E3.63048
G1 X87.233 Y115.17 E3.65323
G1 X87.661 Y114.674 E3.67502
G1 X88.097 Y114.21 E3.69619
G1 X88.6 Y113.72 E3.71955
G1 X89.1 Y113.269 E3.74194
G1 X89.616 Y112.844 E3.76418
G1 X90.123 Y112.459 E3.78535
G1 X90.702 Y112.057 E3.8088
G1 X91.266 Y111.701 E3.83098
G1 X91.848 Y111.364 E3.85335
G1 X92.443 Y111.055 E3.87565
G1 X93.049 Y110.771 E3.89791
G1 X93.668 Y110.512 E3.92022
G1 X94.702 Y110.129 E3.9569
G1 X92.563 Y109.506 E4.031
G1 X92.221 Y109.304 E4.04421
G1 X89.634 Y106.717 E4.16589
G1 X89.432 Y106.375 E4.1791
G1 X88.49 Y103.151 E4.29082
G1 X88.471 Y102.657 E4.30726
G1 X89.431 Y99.369 E4.42119
G1 X89.579 Y99.085 E4.43184
G1 X92.035 Y96.492 E4.55063
M204 S2000
M205 X10 Y10
G0 F3000 X92.615 Y97.042
M204 S1000
M205 X8 Y8
G1 F2400 X92.706 Y96.987 E4.55416
G1 X96.013 Y96.06 E4.66839
G1 X96.121 Y96.06 E4.67199
G1 X99.428 Y96.987 E4.78622
G1 X99.519 Y97.042 E4.78975
G1 X101.935 Y99.593 E4.90661
G1 X102.876 Y102.816 E5.01829
G1 X102.877 Y102.926 E5.02194
G1 X101.938 Y106.279 E5.13776
G1 X99.475 Y108.742 E5.25361
G1 X98.441 Y109.032 E5.28933
G1 X97.447 Y109.13 E5.32255
G1 X96.773 Y109.23 E5.34521
G1 X96.161 Y109.347 E5.36593
G1 X95.445 Y109.514 E5.39039
G1 X92.787 Y108.738 E5.48248
G1 X90.2 Y106.151 E5.60417
G1 X89.258 Y102.927 E5.71588
G1 X89.258 Y102.815 E5.71961
G1 X90.199 Y99.593 E5.83125
G1 X92.615 Y97.042 E5.94811
M204 S2000
M205 X10 Y10
G1 F2700 E4.94811
G0 F3000 X95.655 Y110.221
G0 X95.761 Y110.672
M204 S1000
M205 X8 Y8
G1 F2700 E5.94811
G1 F2400 X96.381 Y110.528 E5.96928
G1 X97.007 Y110.408 E5.99048
G1 X97.637 Y110.315 E6.01166
G1 X98.27 Y110.249 E6.03283
G1 X98.906 Y110.209 E6.05402
G1 X99.542 Y110.196 E6.07518
G1 X100.179 Y110.209 E6.09637
G1 X100.814 Y110.25 E6.11753
G1 X101.447 Y110.316 E6.1387
G1 X102.077 Y110.41 E6.15989
G1 X102.702 Y110.529 E6.18105
G1 X103.322 Y110.674 E6.20223
G1 X103.935 Y110.846 E6.2234
G1 X104.541 Y111.043 E6.2446
G1 X105.138 Y111.265 E6.26578
G1 X105.724 Y111.512 E6.28693
G1 X106.3 Y111.783 E6.3081
G1 X106.864 Y112.078 E6.32927
G1 X107.415 Y112.397 E6.35045
G1 X107.953 Y112.738 E6.37164
G1 X108.476 Y113.102 E6.39283
G1 X108.982 Y113.487 E6.41398
G1 X109.473 Y113.892 E6.43515
G1 X109.946 Y114.319 E6.45634
G1 X110.412 Y114.775 E6.47803
G1 X110.847 Y115.24 E6.4992
G1 X111.262 Y115.723 E6.52038
G1 X111.648 Y116.21 E6.54105
G1 X112.031 Y116.737 E6.56272
G1 X112.37 Y117.248 E6.58312
G1 X112.711 Y117.814 E6.60509
G1 X113.017 Y118.372 E6.62626
G1 X113.299 Y118.942 E6.64741
G1 X113.558 Y119.525 E6.66863
G1 X113.791 Y120.117 E6.68979
G1 X113.996 Y120.703 E6.71044
G1 X114.183 Y121.328 E6.73214
G1 X114.34 Y121.944 E6.75328
G1 X114.469 Y122.552 E6.77395
G1 X114.577 Y123.196 E6.79567
G1 X114.656 Y123.827 E6.81682
G1 X114.708 Y124.446 E6.83748
G1 X114.735 Y125.09 E6.85892
G1 X114.735 Y125.735 E6.88037
G1 X114.706 Y126.371 E6.90155
G1 X114.652 Y127.005 E6.92271
G1 X114.572 Y127.637 E6.9439
G1 X114.465 Y128.264 E6.96506
G1 X114.331 Y128.886 E6.98622
G1 X114.172 Y129.503 E7.00741
G1 X113.988 Y130.112 E7.02857
G1 X113.777 Y130.714 E7.04979
G1 X113.543 Y131.305 E7.07093
G1 X113.282 Y131.886 E7.09211
G1 X112.998 Y132.457 E7.11332
G1 X112.691 Y133.014 E7.13448
G1 X112.361 Y133.557 E7.15561
G1 X112.008 Y134.088 E7.17682
G1 X111.643 Y134.59 E7.19746
G1 X111.236 Y135.1 E7.21917
G1 X110.831 Y135.57 E7.2398
G1 X110.395 Y136.034 E7.26098
G1 X109.94 Y136.48 E7.28217
G1 X109.466 Y136.905 E7.30334
G1 X108.976 Y137.31 E7.32449
G1 X108.469 Y137.695 E7.34566
G1 X107.946 Y138.059 E7.36685
G1 X107.408 Y138.4 E7.38804
G1 X106.857 Y138.718 E7.4092
G1 X106.292 Y139.013 E7.4304
G1 X105.717 Y139.283 E7.45153
G1 X105.13 Y139.53 E7.47271
G1 X104.533 Y139.752 E7.49389
G1 X103.927 Y139.949 E7.51509
G1 X103.314 Y140.12 E7.53625
G1 X102.694 Y140.264 E7.55742
G1 X102.068 Y140.384 E7.57862
G1 X101.439 Y140.477 E7.59977
G1 X100.806 Y140.543 E7.62094
G1 X100.17 Y140.583 E7.64213
G1 X99.534 Y140.596 E7.66329
G1 X98.897 Y140.583 E7.68448
G1 X98.262 Y140.542 E7.70565
G1 X97.629 Y140.476 E7.72682
G1 X96.998 Y140.382 E7.74803
G1 X96.373 Y140.263 E7.7692
G1 X95.753 Y140.118 E7.79037
G1 X95.14 Y139.946 E7.81155
G1 X94.535 Y139.749 E7.83271
G1 X93.938 Y139.527 E7.8539
G1 X93.352 Y139.28 E7.87505
G1 X92.775 Y139.009 E7.89625
G1 X92.211 Y138.714 E7.91742
G1 X91.66 Y138.396 E7.93858
G1 X91.123 Y138.054 E7.95975
G1 X90.6 Y137.69 E7.98095
G1 X90.094 Y137.305 E8.00209
G1 X89.602 Y136.9 E8.02329
G1 X89.13 Y136.474 E8.04444
G1 X88.664 Y136.017 E8.06615
G1 X88.23 Y135.552 E8.0873
G1 X87.813 Y135.069 E8.10852
G1 X87.419 Y134.57 E8.12967
G1 X87.045 Y134.055 E8.15084
G1 X86.702 Y133.537 E8.1715
G1 X86.372 Y132.992 E8.1927
G1 X86.059 Y132.421 E8.21435
G1 X85.776 Y131.85 E8.23555
G1 X85.518 Y131.267 E8.25675
G1 X85.285 Y130.676 E8.27788
G1 X85.081 Y130.089 E8.29855
G1 X84.892 Y129.464 E8.32027
G1 X84.735 Y128.848 E8.34141
G1 X84.606 Y128.24 E8.36208
G1 X84.499 Y127.596 E8.3838
G1 X84.42 Y126.965 E8.40495
G1 X84.367 Y126.346 E8.42561
G1 X84.341 Y125.702 E8.44705
G1 X84.341 Y125.057 E8.4685
G1 X84.369 Y124.421 E8.48968
G1 X84.424 Y123.787 E8.51084
G1 X84.504 Y123.156 E8.532
G1 X84.61 Y122.528 E8.55318
G1 X84.744 Y121.906 E8.57434
G1 X84.903 Y121.289 E8.59553
G1 X85.088 Y120.68 E8.6167
G1 X85.299 Y120.079 E8.63789
G1 X85.533 Y119.488 E8.65903
G1 X85.793 Y118.906 E8.68023
G1 X86.077 Y118.337 E8.70138
G1 X86.384 Y117.778 E8.72259
G1 X86.715 Y117.235 E8.74375
G1 X87.068 Y116.704 E8.76495
G1 X87.433 Y116.203 E8.78557
G1 X87.839 Y115.692 E8.80728
G1 X88.245 Y115.222 E8.82793
G1 X88.681 Y114.758 E8.84911
G1 X89.136 Y114.314 E8.87026
G1 X89.609 Y113.887 E8.89145
G1 X90.1 Y113.482 E8.91262
G1 X90.607 Y113.097 E8.93379
G1 X91.13 Y112.733 E8.95499
G1 X91.667 Y112.393 E8.97613
G1 X92.218 Y112.074 E8.9973
G1 X92.783 Y111.779 E9.0185
G1 X93.359 Y111.509 E9.03966
G1 X93.946 Y111.262 E9.06084
G1 X94.543 Y111.04 E9.08203
G1 X95.148 Y110.843 E9.10319
G1 X95.761 Y110.672 E9.12436
M204 S2000
M205 X10 Y10
G0 F3000 X95.671 Y110.282
M204 S1000
M205 X8 Y8
G1 F2400 X96.306 Y110.135 E9.14603
G1 X96.949 Y110.012 E9.16781
G1 X97.596 Y109.917 E9.18956
G1 X98.245 Y109.85 E9.21126
G1 X98.898 Y109.809 E9.23302
G1 X99.55 Y109.796 E9.25471
G1 X100.205 Y109.81 E9.2765
G1 X100.855 Y109.852 E9.29817
G1 X101.506 Y109.92 E9.31994
G1 X102.152 Y110.017 E9.34166
G1 X102.793 Y110.14 E9.36337
G1 X103.43 Y110.289 E9.38513
G1 X104.059 Y110.466 E9.40686
G1 X104.68 Y110.668 E9.42858
G1 X105.293 Y110.896 E9.45034
G1 X105.894 Y111.15 E9.47204
G1 X106.485 Y111.429 E9.49377
G1 X107.064 Y111.732 E9.51551
G1 X107.629 Y112.059 E9.53722
G1 X108.181 Y112.41 E9.55898
G1 X108.718 Y112.784 E9.58074
G1 X109.237 Y113.178 E9.60242
G1 X109.741 Y113.595 E9.62417
G1 X110.226 Y114.033 E9.64591
G1 X110.704 Y114.502 E9.66818
G1 X111.15 Y114.979 E9.6899
G1 X111.575 Y115.475 E9.71163
G1 X111.972 Y115.975 E9.73286
G1 X112.364 Y116.516 E9.75508
G1 X112.713 Y117.042 E9.77608
G1 X113.062 Y117.622 E9.79859
G1 X113.376 Y118.195 E9.82032
G1 X113.665 Y118.78 E9.84203
G1 X113.93 Y119.379 E9.86381
G1 X114.169 Y119.985 E9.88548
G1 X114.379 Y120.588 E9.90671
G1 X114.571 Y121.229 E9.92897
G1 X114.728 Y121.845 E9.95011
G1 X114.863 Y122.486 E9.9719
G1 X114.974 Y123.146 E9.99416
G1 X115.055 Y123.794 E10.01588
G1 X115.108 Y124.429 E10.03708
G1 X115.135 Y125.073 E10.05851
G1 X115.135 Y125.753 E10.08113
G1 X115.105 Y126.405 E10.10284
G1 X115.049 Y127.055 E10.12454
G1 X114.966 Y127.704 E10.1463
G1 X114.856 Y128.348 E10.16803
G1 X114.718 Y128.986 E10.18974
G1 X114.555 Y129.619 E10.21148
G1 X114.371 Y130.228 E10.23264
G1 X114.149 Y130.861 E10.25495
G1 X113.908 Y131.469 E10.2767
G1 X113.64 Y132.064 E10.29841
G1 X113.348 Y132.65 E10.32018
G1 X113.033 Y133.222 E10.3419
G1 X112.694 Y133.778 E10.36356
G1 X112.332 Y134.323 E10.38532
G1 X111.956 Y134.84 E10.40659
G1 X111.539 Y135.361 E10.42878
G1 X111.123 Y135.844 E10.44998
G1 X110.675 Y136.32 E10.47172
G1 X110.207 Y136.778 E10.4935
G1 X109.721 Y137.213 E10.5152
G1 X109.218 Y137.629 E10.53691
G1 X108.711 Y138.014 E10.55808
G1 X108.16 Y138.397 E10.5804
G1 X107.608 Y138.746 E10.60212
G1 X107.042 Y139.073 E10.62386
G1 X106.462 Y139.375 E10.64561
G1 X105.872 Y139.652 E10.66729
G1 X105.269 Y139.905 E10.68904
G1 X104.657 Y140.132 E10.71075
G1 X104.034 Y140.334 E10.73253
G1 X103.404 Y140.51 E10.75429
G1 X102.769 Y140.657 E10.77597
G1 X102.127 Y140.78 E10.79771
G1 X101.48 Y140.875 E10.81946
G1 X100.831 Y140.942 E10.84116
G1 X100.178 Y140.983 E10.86292
G1 X99.526 Y140.996 E10.88461
G1 X98.871 Y140.982 E10.9064
G1 X98.221 Y140.94 E10.92807
G1 X97.57 Y140.872 E10.94984
G1 X96.923 Y140.775 E10.9716
G1 X96.282 Y140.652 E10.9933
G1 X95.645 Y140.503 E11.01506
G1 X95.016 Y140.326 E11.0368
G1 X94.396 Y140.124 E11.05848
G1 X93.783 Y139.896 E11.08024
G1 X93.182 Y139.642 E11.10194
G1 X92.59 Y139.363 E11.12371
G1 X92.011 Y139.06 E11.14544
G1 X91.445 Y138.733 E11.16718
G1 X90.895 Y138.382 E11.18888
G1 X90.358 Y138.008 E11.21065
G1 X89.84 Y137.614 E11.2323
G1 X89.334 Y137.197 E11.2541
G1 X88.85 Y136.76 E11.27579
G1 X88.372 Y136.29 E11.29809
G1 X87.927 Y135.813 E11.31979
G1 X87.499 Y135.317 E11.34158
G1 X87.095 Y134.805 E11.36327
G1 X86.711 Y134.276 E11.38501
G1 X86.368 Y133.758 E11.40567
G1 X86.021 Y133.184 E11.42798
G1 X85.701 Y132.599 E11.45016
G1 X85.41 Y132.012 E11.47195
G1 X85.146 Y131.414 E11.49369
G1 X84.907 Y130.807 E11.51539
G1 X84.698 Y130.205 E11.53658
G1 X84.504 Y129.563 E11.55889
G1 X84.347 Y128.947 E11.58003
G1 X84.211 Y128.306 E11.60183
G1 X84.102 Y127.646 E11.62408
G1 X84.021 Y126.999 E11.64576
G1 X83.967 Y126.362 E11.66703
G1 X83.941 Y125.718 E11.68846
G1 X83.941 Y125.039 E11.71105
G1 X83.97 Y124.386 E11.73279
G1 X84.027 Y123.737 E11.75446
G1 X84.11 Y123.089 E11.77619
G1 X84.219 Y122.444 E11.79794
G1 X84.357 Y121.806 E11.81965
G1 X84.52 Y121.173 E11.84139
G1 X84.711 Y120.547 E11.86316
G1 X84.927 Y119.932 E11.88484
G1 X85.168 Y119.325 E11.90656
G1 X85.435 Y118.727 E11.92835
G1 X85.726 Y118.144 E11.95002
G1 X86.042 Y117.57 E11.97181
G1 X86.382 Y117.014 E11.99349
G1 X86.745 Y116.468 E12.01529
G1 X87.12 Y115.954 E12.03646
G1 X87.536 Y115.431 E12.05868
G1 X87.953 Y114.948 E12.07991
G1 X88.389 Y114.484 E12.10108
G1 X88.868 Y114.017 E12.12333
G1 X89.354 Y113.578 E12.14512
G1 X89.858 Y113.163 E12.16683
G1 X90.365 Y112.778 E12.18801
G1 X90.916 Y112.395 E12.21032
G1 X91.467 Y112.047 E12.232
G1 X92.033 Y111.719 E12.25376
G1 X92.613 Y111.417 E12.27551
G1 X93.204 Y111.14 E12.29722
G1 X93.807 Y110.887 E12.31896
G1 X94.419 Y110.66 E12.34067
G1 X95.041 Y110.458 E12.36243
