;FLAVOR:Marlin
;TIME:7923
;Filament used: 5.03466m
;Layer height: 0.12
;MINX:121.874
;MINY:84.221
;MINZ:0.2
;MAXX:153.867
;MAXY:130.349
;MAXZ:58.88
;TARGET_MACHINE.NAME:Anycubic Kobra
;Generated with Cura_SteamEngine 5.10.1
M140 S60
M105
M190 S60
M104 S200
M105
M109 S200
G21 ;metric values
G90 ;absolute positioning
M82 ;set extruder to absolute mode
M107 ;start with the fan off
M117 Homing X/Y ...
G28 X0 Y0 ;move X/Y to min endstops
M117 Homing Z ...
G28 Z0 ;move Z to min endstops
G1 Z15.0 F240 ;move the platform down 15mm
M117 Heating ...
M104 S[first_layer_temperature]
; set extruder temp
M109 S[first_layer_temperature]
; wait for extruder temp
M117 Start cleaning ...
M420 S1 ; Enable Bed Levelling Mesh
G92 E0 ;zero the extruded length
M413 S0 ; disable power loss recovery - may reduce blobbing and avoid unexpected recovery
; M500 ; store eeprom settings
M117 Intro line ...
G1 Z2.0 F3000 ; Move Z Axis up little to prevent scratching of Heat Bed
G1 X0.1 Y20 Z[first_layer_height] F5000.0 ; Move to start position
G1 X0.1 Y200.0 Z[first_layer_height] F1500.0 E15 ; Draw the first line
G1 X0.4 Y200.0 Z[first_layer_height] F5000.0 ; Move to side a little
G1 X0.4 Y20 Z0.3[first_layer_height] F1500.0 E30 ; Draw the second line
G92 E0 ; Reset Extruder
G1 X5 Y20 Z0.3 F240 ; Move over to prevent blob squish
G92 E0 ; Reset Extruder
M420 S1 ; Enable Bed Levelling Mesh
M117 Printing...
M82 ;absolute extrusion mode
G92 E0
G92 E0
G1 F2700 E-1
;LAYER_COUNT:490
;LAYER:0
M107
M204 S2000
M205 X10 Y10
G0 F3000 X127.938 Y88.034 Z0.2
M204 S1000
M205 X8 Y8
;TYPE:SKIRT
G1 F2700 E0
G1 F2400 X130.394 Y85.441 E0.11879
G1 X130.849 Y85.166 E0.13647
G1 X134.156 Y84.239 E0.2507
G1 X134.632 Y84.221 E0.26655
G1 X138.003 Y85.166 E0.38299
G1 X138.413 Y85.394 E0.39859
G1 X140.874 Y87.992 E0.51761
G1 X141.046 Y88.263 E0.52829
G1 X142.003 Y91.541 E0.64187
G1 X142.023 Y92.03 E0.65815
G1 X141.067 Y95.444 E0.77606
G1 X140.863 Y95.794 E0.78954
G1 X138.4 Y98.257 E0.90539
G1 X138.271 Y98.346 E0.9106
G1 X139.231 Y98.406 E0.94259
G1 X139.897 Y98.477 E0.96487
G1 X140.557 Y98.577 E0.98707
G1 X141.219 Y98.703 E1.00949
G1 X141.871 Y98.857 E1.03177
G1 X142.516 Y99.039 E1.05406
G1 X143.153 Y99.246 E1.07634
G1 X143.779 Y99.48 E1.09856
G1 X144.398 Y99.74 E1.1209
G1 X144.99 Y100.02 E1.14268
G1 X145.597 Y100.339 E1.16548
G1 X146.178 Y100.675 E1.18781
G1 X146.741 Y101.033 E1.21
G1 X147.278 Y101.406 E1.23174
G1 X147.826 Y101.823 E1.25465
G1 X148.342 Y102.251 E1.27695
G1 X148.839 Y102.7 E1.29922
G1 X149.329 Y103.182 E1.32208
G1 X149.785 Y103.671 E1.34432
G1 X150.223 Y104.18 E1.36666
G1 X150.637 Y104.705 E1.38889
G1 X151.03 Y105.249 E1.41121
G1 X151.39 Y105.793 E1.43291
G1 X151.746 Y106.382 E1.4558
G1 X152.068 Y106.97 E1.4781
G1 X152.364 Y107.571 E1.50038
G1 X152.634 Y108.183 E1.52263
G1 X152.88 Y108.807 E1.54494
G1 X153.093 Y109.423 E1.56662
G1 X153.287 Y110.065 E1.58892
G1 X153.449 Y110.699 E1.61069
G1 X153.59 Y111.373 E1.63359
G1 X153.704 Y112.051 E1.65646
G1 X153.786 Y112.712 E1.67861
G1 X153.841 Y113.367 E1.70047
G1 X153.867 Y114.01 E1.72188
G1 X153.867 Y114.724 E1.74562
G1 X153.838 Y115.375 E1.7673
G1 X153.779 Y116.049 E1.7898
G1 X153.693 Y116.724 E1.81243
G1 X153.58 Y117.386 E1.83477
G1 X153.438 Y118.039 E1.857
G1 X153.271 Y118.687 E1.87925
G1 X153.076 Y119.329 E1.90157
G1 X152.853 Y119.963 E1.92392
G1 X152.605 Y120.582 E1.9461
G1 X152.331 Y121.194 E1.9684
G1 X152.032 Y121.794 E1.9907
G1 X151.707 Y122.384 E2.0131
G1 X151.359 Y122.952 E2.03526
G1 X150.992 Y123.505 E2.05733
G1 X150.592 Y124.05 E2.07982
G1 X150.175 Y124.575 E2.10212
G1 X149.747 Y125.07 E2.12388
G1 X149.288 Y125.558 E2.14617
G1 X148.807 Y126.028 E2.16853
G1 X148.31 Y126.473 E2.19072
G1 X147.792 Y126.901 E2.21307
G1 X147.257 Y127.306 E2.23539
G1 X146.706 Y127.687 E2.25767
G1 X146.141 Y128.044 E2.2799
G1 X145.56 Y128.38 E2.30222
G1 X144.965 Y128.689 E2.32452
G1 X144.357 Y128.974 E2.34685
G1 X143.74 Y129.232 E2.3691
G1 X143.113 Y129.464 E2.39133
G1 X142.474 Y129.671 E2.41367
G1 X141.83 Y129.85 E2.43591
G1 X141.183 Y130.002 E2.45801
G1 X140.517 Y130.128 E2.48056
G1 X139.855 Y130.225 E2.50281
G1 X139.188 Y130.294 E2.52511
G1 X138.521 Y130.335 E2.54734
G1 X137.848 Y130.349 E2.56973
G1 X137.18 Y130.333 E2.59195
G1 X136.51 Y130.291 E2.61428
G1 X135.842 Y130.22 E2.63662
G1 X135.184 Y130.12 E2.65876
G1 X134.522 Y129.994 E2.68117
G1 X133.87 Y129.84 E2.70345
G1 X133.225 Y129.658 E2.72574
G1 X132.587 Y129.451 E2.74805
G1 X131.964 Y129.217 E2.77019
G1 X131.342 Y128.957 E2.79261
G1 X130.751 Y128.677 E2.81436
G1 X130.144 Y128.358 E2.83717
G1 X129.563 Y128.022 E2.85949
G1 X129 Y127.664 E2.88168
G1 X128.463 Y127.291 E2.90343
G1 X127.915 Y126.874 E2.92633
G1 X127.399 Y126.446 E2.94863
G1 X126.902 Y125.997 E2.97091
G1 X126.412 Y125.515 E2.99377
G1 X125.956 Y125.026 E3.01601
G1 X125.518 Y124.518 E3.03832
G1 X125.103 Y123.991 E3.06063
G1 X124.711 Y123.448 E3.0829
G1 X124.351 Y122.904 E3.1046
G1 X123.995 Y122.315 E3.12749
G1 X123.673 Y121.727 E3.14979
G1 X123.377 Y121.126 E3.17207
G1 X123.107 Y120.514 E3.19432
G1 X122.861 Y119.89 E3.21662
G1 X122.648 Y119.274 E3.2383
G1 X122.454 Y118.632 E3.26061
G1 X122.292 Y117.998 E3.28237
G1 X122.151 Y117.324 E3.30528
G1 X122.037 Y116.646 E3.32814
G1 X121.955 Y115.985 E3.3503
G1 X121.9 Y115.33 E3.37216
G1 X121.874 Y114.687 E3.39356
G1 X121.874 Y113.973 E3.41731
G1 X121.903 Y113.322 E3.43898
G1 X121.962 Y112.648 E3.46149
G1 X122.048 Y111.973 E3.48412
G1 X122.161 Y111.311 E3.50646
G1 X122.303 Y110.658 E3.52868
G1 X122.47 Y110.01 E3.55094
G1 X122.665 Y109.368 E3.57326
G1 X122.888 Y108.734 E3.59561
G1 X123.136 Y108.115 E3.61779
G1 X123.41 Y107.503 E3.64009
G1 X123.71 Y106.902 E3.66243
G1 X124.034 Y106.315 E3.68473
G1 X124.382 Y105.745 E3.70694
G1 X124.754 Y105.185 E3.7293
G1 X125.139 Y104.658 E3.75101
G1 X125.566 Y104.122 E3.7738
G1 X125.994 Y103.627 E3.79557
G1 X126.453 Y103.139 E3.81785
G1 X126.934 Y102.669 E3.84022
G1 X127.431 Y102.224 E3.86241
G1 X127.949 Y101.796 E3.88476
G1 X128.484 Y101.391 E3.90707
G1 X129.035 Y101.01 E3.92936
G1 X129.6 Y100.653 E3.95158
G1 X130.181 Y100.317 E3.97391
G1 X130.776 Y100.008 E3.99621
G1 X131.383 Y99.723 E4.01851
G1 X132 Y99.465 E4.04075
G1 X133.05 Y99.077 E4.07798
G1 X130.922 Y98.455 E4.15172
G1 X130.58 Y98.253 E4.16493
G1 X127.993 Y95.666 E4.28662
G1 X127.791 Y95.324 E4.29983
G1 X126.849 Y92.1 E4.41154
G1 X126.83 Y91.606 E4.42799
G1 X127.79 Y88.318 E4.54191
G1 X127.938 Y88.034 E4.55256
M204 S2000
M205 X10 Y10
G0 F3000 X128.558 Y88.542
M204 S1000
M205 X8 Y8
G1 F2400 X130.974 Y85.991 E4.66942
G1 X131.065 Y85.936 E4.67296
G1 X134.372 Y85.009 E4.78719
G1 X134.48 Y85.009 E4.79078
G1 X137.787 Y85.936 E4.90501
G1 X137.878 Y85.991 E4.90855
G1 X140.294 Y88.542 E5.02541
G1 X141.235 Y91.765 E5.13708
G1 X141.236 Y91.875 E5.14074
G1 X140.297 Y95.228 E5.25655
G1 X137.834 Y97.691 E5.3724
G1 X136.791 Y97.983 E5.40843
G1 X135.78 Y98.083 E5.44222
G1 X135.164 Y98.174 E5.46293
G1 X134.497 Y98.299 E5.4855
G1 X133.801 Y98.463 E5.50928
G1 X131.146 Y97.687 E5.60128
G1 X128.559 Y95.1 E5.72297
G1 X127.617 Y91.876 E5.83468
G1 X127.617 Y91.764 E5.83841
G1 X128.558 Y88.542 E5.95005
M204 S2000
M205 X10 Y10
G1 F2700 E4.95005
G0 F3000 X132.713 Y99.558
G0 X132.875 Y99.993
M204 S1000
M205 X8 Y8
G1 F2700 E5.95005
G1 F2400 X133.481 Y99.796 E5.97124
G1 X134.094 Y99.625 E5.99241
G1 X134.706 Y99.481 E6.01332
G1 X135.34 Y99.361 E6.03478
G1 X135.969 Y99.268 E6.05593
G1 X136.603 Y99.201 E6.07713
G1 X137.238 Y99.162 E6.09829
G1 X137.874 Y99.149 E6.11945
G1 X138.511 Y99.162 E6.14064
G1 X139.147 Y99.202 E6.16184
G1 X139.779 Y99.269 E6.18298
G1 X140.409 Y99.363 E6.20416
G1 X141.035 Y99.481 E6.22535
G1 X141.655 Y99.627 E6.24654
G1 X142.268 Y99.799 E6.26771
G1 X142.873 Y99.996 E6.28887
G1 X143.469 Y100.218 E6.31003
G1 X144.056 Y100.464 E6.3312
G1 X144.633 Y100.736 E6.35241
G1 X145.197 Y101.031 E6.37358
G1 X145.748 Y101.349 E6.39474
G1 X146.285 Y101.691 E6.41592
G1 X146.808 Y102.054 E6.43709
G1 X147.316 Y102.439 E6.45829
G1 X147.806 Y102.845 E6.47946
G1 X148.279 Y103.271 E6.50063
G1 X148.745 Y103.728 E6.52234
G1 X149.179 Y104.193 E6.54349
G1 X149.595 Y104.675 E6.56467
G1 X149.989 Y105.175 E6.58584
G1 X150.364 Y105.691 E6.60706
G1 X150.706 Y106.207 E6.62765
G1 X151.044 Y106.767 E6.6494
G1 X151.35 Y107.324 E6.67054
G1 X151.632 Y107.895 E6.69172
G1 X151.89 Y108.477 E6.7129
G1 X152.124 Y109.069 E6.73407
G1 X152.327 Y109.655 E6.75469
G1 X152.516 Y110.28 E6.77641
G1 X152.67 Y110.881 E6.79705
G1 X152.802 Y111.505 E6.81826
G1 X152.91 Y112.149 E6.83998
G1 X152.988 Y112.78 E6.86113
G1 X153.041 Y113.399 E6.88179
G1 X153.067 Y114.042 E6.90319
G1 X153.067 Y114.688 E6.92468
G1 X153.039 Y115.323 E6.94582
G1 X152.985 Y115.949 E6.96672
G1 X152.905 Y116.59 E6.9882
G1 X152.798 Y117.217 E7.00936
G1 X152.664 Y117.839 E7.03052
G1 X152.505 Y118.455 E7.05168
G1 X152.32 Y119.065 E7.07288
G1 X152.11 Y119.666 E7.09406
G1 X151.875 Y120.256 E7.11518
G1 X151.615 Y120.838 E7.13638
G1 X151.331 Y121.408 E7.15756
G1 X151.024 Y121.967 E7.17877
G1 X150.693 Y122.51 E7.19993
G1 X150.346 Y123.033 E7.2208
G1 X149.965 Y123.553 E7.24224
G1 X149.569 Y124.053 E7.26346
G1 X149.164 Y124.522 E7.28407
G1 X148.728 Y124.986 E7.30524
G1 X148.273 Y125.432 E7.32643
G1 X147.8 Y125.857 E7.34758
G1 X147.309 Y126.263 E7.36877
G1 X146.801 Y126.648 E7.38997
G1 X146.278 Y127.011 E7.41115
G1 X145.741 Y127.352 E7.43231
G1 X145.19 Y127.67 E7.45347
G1 X144.625 Y127.965 E7.47466
G1 X144.048 Y128.236 E7.49587
G1 X143.462 Y128.482 E7.51701
G1 X142.865 Y128.704 E7.53819
G1 X142.26 Y128.901 E7.55935
G1 X141.647 Y129.072 E7.58052
G1 X141.035 Y129.216 E7.60143
G1 X140.401 Y129.336 E7.62289
G1 X139.771 Y129.429 E7.64407
G1 X139.138 Y129.496 E7.66524
G1 X138.503 Y129.535 E7.6864
G1 X137.866 Y129.549 E7.7076
G1 X137.23 Y129.535 E7.72875
G1 X136.594 Y129.495 E7.74995
G1 X135.961 Y129.428 E7.77112
G1 X135.332 Y129.334 E7.79227
G1 X134.706 Y129.216 E7.81346
G1 X134.086 Y129.07 E7.83465
G1 X133.473 Y128.898 E7.85582
G1 X132.867 Y128.701 E7.87702
G1 X132.272 Y128.479 E7.89814
G1 X131.684 Y128.233 E7.91934
G1 X131.108 Y127.961 E7.94052
G1 X130.544 Y127.666 E7.96169
G1 X129.993 Y127.348 E7.98285
G1 X129.456 Y127.006 E8.00403
G1 X128.933 Y126.643 E8.0252
G1 X128.425 Y126.258 E8.0464
G1 X127.935 Y125.852 E8.06757
G1 X127.462 Y125.426 E8.08874
G1 X126.996 Y124.969 E8.11045
G1 X126.562 Y124.504 E8.13161
G1 X126.146 Y124.022 E8.15278
G1 X125.751 Y123.522 E8.17398
G1 X125.377 Y123.006 E8.19517
G1 X125.035 Y122.49 E8.21576
G1 X124.697 Y121.931 E8.23749
G1 X124.391 Y121.373 E8.25865
G1 X124.109 Y120.802 E8.27984
G1 X123.851 Y120.22 E8.30101
G1 X123.617 Y119.628 E8.32218
G1 X123.414 Y119.042 E8.34281
G1 X123.225 Y118.417 E8.36453
G1 X123.071 Y117.816 E8.38516
G1 X122.939 Y117.192 E8.40638
G1 X122.831 Y116.548 E8.42809
G1 X122.753 Y115.917 E8.44924
G1 X122.7 Y115.298 E8.4699
G1 X122.674 Y114.655 E8.49131
G1 X122.674 Y114.009 E8.51279
G1 X122.702 Y113.374 E8.53393
G1 X122.756 Y112.748 E8.55483
G1 X122.836 Y112.107 E8.57632
G1 X122.943 Y111.48 E8.59747
G1 X123.077 Y110.858 E8.61864
G1 X123.236 Y110.242 E8.6398
G1 X123.421 Y109.632 E8.661
G1 X123.631 Y109.031 E8.68217
G1 X123.866 Y108.441 E8.70329
G1 X124.126 Y107.859 E8.7245
G1 X124.41 Y107.288 E8.74571
G1 X124.717 Y106.731 E8.76686
G1 X125.048 Y106.187 E8.78804
G1 X125.4 Y105.657 E8.8092
G1 X125.765 Y105.156 E8.82982
G1 X126.172 Y104.644 E8.85157
G1 X126.577 Y104.175 E8.87218
G1 X127.013 Y103.711 E8.89336
G1 X127.468 Y103.265 E8.91455
G1 X127.941 Y102.84 E8.9357
G1 X128.432 Y102.434 E8.95689
G1 X128.94 Y102.049 E8.97809
G1 X129.463 Y101.686 E8.99926
G1 X130 Y101.345 E9.02042
G1 X130.551 Y101.027 E9.04158
G1 X131.116 Y100.732 E9.06278
G1 X131.692 Y100.461 E9.08395
G1 X132.279 Y100.215 E9.10512
G1 X132.875 Y99.993 E9.12628
M204 S2000
M205 X10 Y10
G0 F3000 X132.751 Y99.613
M204 S1000
M205 X8 Y8
G1 F2400 X133.374 Y99.411 E9.14806
G1 X134.002 Y99.236 E9.16974
G1 X134.632 Y99.088 E9.19127
G1 X135.281 Y98.965 E9.21324
G1 X135.927 Y98.87 E9.23495
G1 X136.578 Y98.802 E9.25672
G1 X137.23 Y98.762 E9.27845
G1 X137.882 Y98.749 E9.30014
G1 X138.536 Y98.763 E9.3219
G1 X139.189 Y98.804 E9.34366
G1 X139.838 Y98.873 E9.36537
G1 X140.483 Y98.97 E9.38706
G1 X141.127 Y99.092 E9.40886
G1 X141.763 Y99.242 E9.43059
G1 X142.392 Y99.419 E9.45233
G1 X143.013 Y99.621 E9.47405
G1 X143.624 Y99.849 E9.49574
G1 X144.227 Y100.102 E9.51749
G1 X144.804 Y100.374 E9.5387
G1 X145.397 Y100.685 E9.56098
G1 X145.963 Y101.012 E9.58272
G1 X146.513 Y101.362 E9.6044
G1 X147.05 Y101.735 E9.62615
G1 X147.571 Y102.131 E9.64791
G1 X148.074 Y102.548 E9.66964
G1 X148.559 Y102.985 E9.69136
G1 X149.037 Y103.455 E9.71365
G1 X149.482 Y103.932 E9.73535
G1 X149.909 Y104.427 E9.75709
G1 X150.313 Y104.94 E9.77881
G1 X150.697 Y105.47 E9.80058
G1 X151.048 Y106 E9.82172
G1 X151.395 Y106.574 E9.84403
G1 X151.709 Y107.147 E9.86576
G1 X151.998 Y107.733 E9.8875
G1 X152.262 Y108.33 E9.90921
G1 X152.502 Y108.938 E9.93095
G1 X152.71 Y109.539 E9.9521
G1 X152.899 Y110.164 E9.97382
G1 X153.061 Y110.798 E9.99558
G1 X153.196 Y111.439 E10.01737
G1 X153.307 Y112.1 E10.03966
G1 X153.387 Y112.746 E10.06131
G1 X153.441 Y113.383 E10.08257
G1 X153.467 Y114.026 E10.10398
G1 X153.467 Y114.706 E10.1266
G1 X153.438 Y115.357 E10.14827
G1 X153.382 Y115.999 E10.1697
G1 X153.299 Y116.657 E10.19176
G1 X153.189 Y117.301 E10.21349
G1 X153.051 Y117.939 E10.2352
G1 X152.888 Y118.571 E10.25691
G1 X152.698 Y119.197 E10.27867
G1 X152.482 Y119.814 E10.30041
G1 X152.24 Y120.419 E10.32208
G1 X151.973 Y121.016 E10.34384
G1 X151.682 Y121.601 E10.36557
G1 X151.366 Y122.175 E10.38736
G1 X151.026 Y122.731 E10.40904
G1 X150.669 Y123.269 E10.43051
G1 X150.279 Y123.801 E10.45245
G1 X149.872 Y124.314 E10.47423
G1 X149.456 Y124.796 E10.49541
G1 X149.008 Y125.272 E10.51715
G1 X148.54 Y125.73 E10.53893
G1 X148.055 Y126.165 E10.5606
G1 X147.551 Y126.582 E10.58235
G1 X147.029 Y126.977 E10.60413
G1 X146.492 Y127.349 E10.62585
G1 X145.941 Y127.698 E10.64755
G1 X145.375 Y128.025 E10.66929
G1 X144.795 Y128.327 E10.69104
G1 X144.203 Y128.605 E10.71279
G1 X143.601 Y128.857 E10.7345
G1 X142.989 Y129.084 E10.75621
G1 X142.367 Y129.286 E10.77796
G1 X141.739 Y129.461 E10.79964
G1 X141.109 Y129.609 E10.82117
G1 X140.459 Y129.732 E10.84317
G1 X139.813 Y129.827 E10.86489
G1 X139.163 Y129.895 E10.88662
G1 X138.512 Y129.935 E10.90832
G1 X137.857 Y129.949 E10.93011
G1 X137.205 Y129.934 E10.9518
G1 X136.552 Y129.893 E10.97356
G1 X135.902 Y129.824 E10.9953
G1 X135.258 Y129.727 E11.01696
G1 X134.614 Y129.605 E11.03876
G1 X133.978 Y129.455 E11.0605
G1 X133.349 Y129.278 E11.08223
G1 X132.727 Y129.076 E11.10398
G1 X132.118 Y128.848 E11.12561
G1 X131.513 Y128.595 E11.14742
G1 X130.937 Y128.323 E11.16861
G1 X130.344 Y128.012 E11.19088
G1 X129.778 Y127.685 E11.21262
G1 X129.228 Y127.335 E11.2343
G1 X128.691 Y126.962 E11.25605
G1 X128.17 Y126.566 E11.27781
G1 X127.667 Y126.149 E11.29955
G1 X127.182 Y125.712 E11.32126
G1 X126.704 Y125.242 E11.34355
G1 X126.259 Y124.765 E11.36525
G1 X125.832 Y124.27 E11.38699
G1 X125.427 Y123.757 E11.40873
G1 X125.044 Y123.227 E11.43048
G1 X124.693 Y122.697 E11.45163
G1 X124.346 Y122.123 E11.47393
G1 X124.032 Y121.55 E11.49567
G1 X123.743 Y120.964 E11.5174
G1 X123.479 Y120.367 E11.53911
G1 X123.239 Y119.759 E11.56085
G1 X123.031 Y119.158 E11.582
G1 X122.842 Y118.533 E11.60372
G1 X122.68 Y117.899 E11.62548
G1 X122.545 Y117.258 E11.64727
G1 X122.434 Y116.597 E11.66956
G1 X122.354 Y115.951 E11.69121
G1 X122.3 Y115.314 E11.71248
G1 X122.274 Y114.671 E11.73388
G1 X122.274 Y113.991 E11.7565
G1 X122.303 Y113.34 E11.77817
G1 X122.359 Y112.698 E11.79961
G1 X122.442 Y112.04 E11.82166
G1 X122.552 Y111.396 E11.84339
G1 X122.69 Y110.758 E11.86511
G1 X122.853 Y110.126 E11.88681
G1 X123.043 Y109.5 E11.90857
G1 X123.259 Y108.883 E11.93031
G1 X123.501 Y108.278 E11.95199
G1 X123.768 Y107.681 E11.97374
G1 X124.06 Y107.095 E11.99552
G1 X124.375 Y106.523 E12.01723
G1 X124.715 Y105.966 E12.03894
G1 X125.077 Y105.421 E12.0607
G1 X125.452 Y104.907 E12.08186
G1 X125.869 Y104.383 E12.10414
G1 X126.285 Y103.901 E12.12531
G1 X126.733 Y103.425 E12.14705
G1 X127.201 Y102.967 E12.16883
G1 X127.686 Y102.532 E12.1905
G1 X128.19 Y102.115 E12.21226
