;FLAVOR:Marlin
;TIME:2457
;Filament used: 1.37398m
;Layer height: 0.12
;MINX:92.4
;MINY:92.4
;MINZ:0.2
;MAXX:137.6
;MAXY:137.6
;MAXZ:2.72
;TARGET_MACHINE.NAME:Anycubic Kobra
;Generated with Cura_SteamEngine 5.10.1
M140 S60
M105
M190 S60
M104 S200
M105
M109 S200
G21 ;metric values
G90 ;absolute positioning
M82 ;set extruder to absolute mode
M107 ;start with the fan off
M117 Homing X/Y ...
G28 X0 Y0 ;move X/Y to min endstops
M117 Homing Z ...
G28 Z0 ;move Z to min endstops
G1 Z15.0 F240 ;move the platform down 15mm
M117 Heating ...
M104 S[first_layer_temperature]
; set extruder temp
M109 S[first_layer_temperature]
; wait for extruder temp
M117 Start cleaning ...
M420 S1 ; Enable Bed Levelling Mesh
G92 E0 ;zero the extruded length
M413 S0 ; disable power loss recovery - may reduce blobbing and avoid unexpected recovery
; M500 ; store eeprom settings
M117 Intro line ...
G1 Z2.0 F3000 ; Move Z Axis up little to prevent scratching of Heat Bed
G1 X0.1 Y20 Z[first_layer_height] F5000.0 ; Move to start position
G1 X0.1 Y200.0 Z[first_layer_height] F1500.0 E15 ; Draw the first line
G1 X0.4 Y200.0 Z[first_layer_height] F5000.0 ; Move to side a little
G1 X0.4 Y20 Z0.3[first_layer_height] F1500.0 E30 ; Draw the second line
G92 E0 ; Reset Extruder
G1 X5 Y20 Z0.3 F240 ; Move over to prevent blob squish
G92 E0 ; Reset Extruder
M420 S1 ; Enable Bed Levelling Mesh
M117 Printing...
M82 ;absolute extrusion mode
G92 E0
G92 E0
G1 F2700 E-1
;LAYER_COUNT:22
;LAYER:0
M107
M204 S2000
M205 X10 Y10
G0 F3000 X93.54 Y93.392 Z0.2
M204 S1000
M205 X8 Y8
;TYPE:SKIRT
G1 F2700 E0
G1 F2400 X93.984 Y93.034 E0.01897
G1 X94.477 Y92.753 E0.03784
G1 X95.009 Y92.552 E0.05676
G1 X95.566 Y92.438 E0.07567
G1 X96.24 Y92.401 E0.09812
G1 X133.345 Y92.4 E1.33224
G1 X134.043 Y92.41 E1.35546
G1 X134.64 Y92.47 E1.37541
G1 X135.19 Y92.616 E1.39434
G1 X135.654 Y92.818 E1.41117
G1 X136.135 Y93.12 E1.43006
G1 X136.608 Y93.539 E1.45108
G1 X136.963 Y93.981 E1.46993
G1 X137.246 Y94.475 E1.48887
G1 X137.447 Y95.006 E1.50775
G1 X137.562 Y95.563 E1.52667
G1 X137.599 Y96.24 E1.54922
G1 X137.6 Y133.314 E2.78231
G1 X137.59 Y134.041 E2.80649
G1 X137.53 Y134.638 E2.82644
G1 X137.384 Y135.187 E2.84534
G1 X137.153 Y135.707 E2.86426
G1 X136.844 Y136.183 E2.88314
G1 X136.462 Y136.607 E2.90212
G1 X136.071 Y136.927 E2.91893
G1 X135.528 Y137.245 E2.93985
G1 X135.057 Y137.429 E2.95667
G1 X134.449 Y137.561 E2.97737
G1 X134.005 Y137.598 E2.99219
G1 X96.655 Y137.6 E4.23445
G1 X95.957 Y137.59 E4.25767
G1 X95.36 Y137.53 E4.27763
G1 X94.81 Y137.384 E4.29655
G1 X94.346 Y137.182 E4.31338
G1 X93.865 Y136.88 E4.33227
G1 X93.392 Y136.461 E4.35329
G1 X93.037 Y136.019 E4.37215
G1 X92.754 Y135.525 E4.39108
G1 X92.553 Y134.994 E4.40997
G1 X92.446 Y134.5 E4.42678
G1 X92.401 Y133.745 E4.45193
G1 X92.4 Y96.62 E5.68672
G1 X92.41 Y95.955 E5.70884
G1 X92.471 Y95.358 E5.7288
G1 X92.617 Y94.808 E5.74772
G1 X92.819 Y94.344 E5.76455
G1 X93.159 Y93.812 E5.78555
G1 X93.54 Y93.392 E5.80441
M204 S2000
M205 X10 Y10
G0 F3000 X93.794 Y93.701
M204 S1000
M205 X8 Y8
G1 F2400 X94.185 Y93.38 E5.82124
G1 X94.622 Y93.126 E5.83805
G1 X95.093 Y92.943 E5.85486
G1 X95.588 Y92.837 E5.8717
G1 X96.24 Y92.801 E5.89341
G1 X133.339 Y92.8 E7.12733
G1 X134.037 Y92.81 E7.15055
G1 X134.54 Y92.857 E7.16735
G1 X135.03 Y92.983 E7.18418
G1 X135.494 Y93.185 E7.20101
G1 X135.92 Y93.457 E7.21782
G1 X136.298 Y93.792 E7.23462
G1 X136.618 Y94.183 E7.25143
G1 X136.873 Y94.62 E7.26825
G1 X137.056 Y95.091 E7.28506
G1 X137.163 Y95.585 E7.30187
G1 X137.199 Y96.24 E7.32369
G1 X137.2 Y133.308 E8.55658
G1 X137.19 Y134.035 E8.58076
G1 X137.143 Y134.538 E8.59756
G1 X137.017 Y135.028 E8.61439
G1 X136.816 Y135.492 E8.63121
G1 X136.544 Y135.918 E8.64802
G1 X136.209 Y136.297 E8.66484
G1 X135.818 Y136.617 E8.68165
G1 X135.382 Y136.872 E8.69845
G1 X134.911 Y137.056 E8.71527
G1 X134.416 Y137.162 E8.7321
G1 X133.972 Y137.199 E8.74692
G1 X96.661 Y137.2 E9.98789
G1 X95.963 Y137.19 E10.01111
G1 X95.46 Y137.143 E10.02791
G1 X94.97 Y137.017 E10.04474
G1 X94.506 Y136.815 E10.06157
G1 X94.08 Y136.543 E10.07838
G1 X93.702 Y136.208 E10.09518
G1 X93.382 Y135.817 E10.11199
G1 X93.127 Y135.38 E10.12881
G1 X92.944 Y134.909 E10.14562
G1 X92.837 Y134.415 E10.16243
G1 X92.801 Y133.745 E10.18475
G1 X92.8 Y96.626 E11.41933
G1 X92.81 Y95.961 E11.44145
G1 X92.858 Y95.458 E11.45826
G1 X92.984 Y94.968 E11.47509
G1 X93.186 Y94.504 E11.49192
G1 X93.458 Y94.078 E11.50873
G1 X93.794 Y93.701 E11.52552
M204 S2000
M205 X10 Y10
G1 F2700 E10.52552
;MESH:chess-tile.stl
G0 F3000 X96.424 Y95.335
G0 X133.8 Y133.8
M204 S1000
M205 X8 Y8
;TYPE:WALL-OUTER
G1 F2700 E11.52552
G1 F1500 X133.8 Y96.2 E12.77611
G1 X96.2 Y96.2 E14.02669
G1 X96.2 Y133.8 E15.27727
G1 X133.8 Y133.8 E16.52785
M204 S2000
M205 X10 Y10
G0 F3000 X133.8 Y133.6
G0 X133.4 Y133.4
M204 S1000
M205 X8 Y8
;TYPE:WALL-INNER
G1 F1500 X133.4 Y96.6 E17.75182
G1 X96.6 Y96.6 E18.97579
G1 X96.6 Y133.4 E20.19977
G1 X133.4 Y133.4 E21.42374
M204 S2000
M205 X10 Y10
G0 F3000 X133 Y133
M204 S1000
M205 X8 Y8
G1 F1500 X133 Y97 E22.62111
G1 X97 Y97 E23.81847
G1 X97 Y133 E25.01583
G1 X133 Y133 E26.2132
M204 S2000
M205 X10 Y10
G0 F3000 X132.62 Y132.62
M204 S1000
M205 X8 Y8
;TYPE:SKIN
G1 F1500 X132.62 Y97.38 E27.38529
G1 X97.38 Y97.38 E28.55737
G1 X97.38 Y132.62 E29.72946
G1 X132.62 Y132.62 E30.90155
M204 S2000
M205 X10 Y10
G0 F3000 X132.087 Y97.58
M204 S1000
M205 X8 Y8
G1 F1500 X132.421 Y97.914 E30.91726
M204 S2000
M205 X10 Y10
G0 F3000 X132.421 Y98.479
M204 S1000
M205 X8 Y8
G1 F1500 X131.521 Y97.58 E30.95957
M204 S2000
M205 X10 Y10
G0 F3000 X130.955 Y97.58
M204 S1000
M205 X8 Y8
G1 F1500 X132.421 Y99.045 E31.0285
M204 S2000
M205 X10 Y10
G0 F3000 X132.421 Y99.611
M204 S1000
M205 X8 Y8
G1 F1500 X130.39 Y97.58 E31.12403
M204 S2000
M205 X10 Y10
G0 F3000 X129.824 Y97.58
M204 S1000
M205 X8 Y8
G1 F1500 X132.421 Y100.177 E31.24619
M204 S2000
M205 X10 Y10
G0 F3000 X132.421 Y100.742
M204 S1000
M205 X8 Y8
G1 F1500 X129.258 Y97.58 E31.39494
M204 S2000
M205 X10 Y10
G0 F3000 X128.693 Y97.58
M204 S1000
M205 X8 Y8
G1 F1500 X132.421 Y101.308 E31.5703
M204 S2000
M205 X10 Y10
G0 F3000 X132.421 Y101.874
M204 S1000
M205 X8 Y8
G1 F1500 X128.127 Y97.58 E31.77227
M204 S2000
M205 X10 Y10
G0 F3000 X127.561 Y97.58
M204 S1000
M205 X8 Y8
G1 F1500 X132.421 Y102.439 E32.00085
M204 S2000
M205 X10 Y10
G0 F3000 X132.421 Y103.005
M204 S1000
M205 X8 Y8
G1 F1500 X126.996 Y97.58 E32.25602
M204 S2000
M205 X10 Y10
G0 F3000 X126.43 Y97.58
M204 S1000
M205 X8 Y8
G1 F1500 X132.421 Y103.571 E32.53782
M204 S2000
M205 X10 Y10
G0 F3000 X132.421 Y104.136
M204 S1000
M205 X8 Y8
G1 F1500 X125.864 Y97.58 E32.84622
M204 S2000
M205 X10 Y10
G0 F3000 X125.299 Y97.58
M204 S1000
M205 X8 Y8
G1 F1500 X132.421 Y104.702 E33.18122
M204 S2000
M205 X10 Y10
G0 F3000 X132.421 Y105.268
M204 S1000
M205 X8 Y8
G1 F1500 X124.733 Y97.58 E33.54284
M204 S2000
M205 X10 Y10
G0 F3000 X124.167 Y97.58
M204 S1000
M205 X8 Y8
G1 F1500 X132.421 Y105.833 E33.93106
M204 S2000
M205 X10 Y10
G0 F3000 X132.421 Y106.399
M204 S1000
M205 X8 Y8
G1 F1500 X123.602 Y97.58 E34.34587
M204 S2000
M205 X10 Y10
G0 F3000 X123.036 Y97.58
M204 S1000
M205 X8 Y8
G1 F1500 X132.421 Y106.965 E34.78732
M204 S2000
M205 X10 Y10
G0 F3000 X132.421 Y107.53
M204 S1000
M205 X8 Y8
G1 F1500 X122.47 Y97.58 E35.25536
M204 S2000
M205 X10 Y10
G0 F3000 X121.905 Y97.58
M204 S1000
M205 X8 Y8
G1 F1500 X132.421 Y108.096 E35.75
M204 S2000
M205 X10 Y10
G0 F3000 X132.421 Y108.662
M204 S1000
M205 X8 Y8
G1 F1500 X121.339 Y97.58 E36.27126
M204 S2000
M205 X10 Y10
G0 F3000 X120.773 Y97.58
M204 S1000
M205 X8 Y8
G1 F1500 X132.421 Y109.227 E36.81912
M204 S2000
M205 X10 Y10
G0 F3000 X132.421 Y109.793
M204 S1000
M205 X8 Y8
G1 F1500 X120.207 Y97.58 E37.39361
M204 S2000
M205 X10 Y10
G0 F3000 X119.642 Y97.58
M204 S1000
M205 X8 Y8
G1 F1500 X132.421 Y110.359 E37.99469
M204 S2000
M205 X10 Y10
G0 F3000 X132.421 Y110.925
M204 S1000
M205 X8 Y8
G1 F1500 X119.076 Y97.58 E38.6224
M204 S2000
M205 X10 Y10
G0 F3000 X118.51 Y97.58
M204 S1000
M205 X8 Y8
G1 F1500 X132.421 Y111.49 E39.27671
M204 S2000
M205 X10 Y10
G0 F3000 X132.421 Y112.056
M204 S1000
M205 X8 Y8
G1 F1500 X117.945 Y97.58 E39.95762
M204 S2000
M205 X10 Y10
G0 F3000 X117.379 Y97.58
M204 S1000
M205 X8 Y8
G1 F1500 X132.421 Y112.622 E40.66515
M204 S2000
M205 X10 Y10
G0 F3000 X132.421 Y113.187
M204 S1000
M205 X8 Y8
G1 F1500 X116.813 Y97.58 E41.39927
M204 S2000
M205 X10 Y10
G0 F3000 X116.248 Y97.58
M204 S1000
M205 X8 Y8
G1 F1500 X132.421 Y113.753 E42.16
M204 S2000
M205 X10 Y10
G0 F3000 X132.421 Y114.319
M204 S1000
M205 X8 Y8
G1 F1500 X115.682 Y97.58 E42.94735
M204 S2000
M205 X10 Y10
G0 F3000 X115.116 Y97.58
M204 S1000
M205 X8 Y8
G1 F1500 X132.421 Y114.884 E43.76131
M204 S2000
M205 X10 Y10
G0 F3000 X132.421 Y115.45
M204 S1000
M205 X8 Y8
G1 F1500 X114.551 Y97.58 E44.60186
M204 S2000
M205 X10 Y10
G0 F3000 X113.985 Y97.58
M204 S1000
M205 X8 Y8
G1 F1500 X132.421 Y116.016 E45.46903
M204 S2000
M205 X10 Y10
G0 F3000 X132.421 Y116.581
M204 S1000
M205 X8 Y8
G1 F1500 X113.419 Y97.58 E46.3628
M204 S2000
M205 X10 Y10
G0 F3000 X112.854 Y97.58
M204 S1000
M205 X8 Y8
G1 F1500 X132.421 Y117.147 E47.28317
M204 S2000
M205 X10 Y10
G0 F3000 X132.421 Y117.713
M204 S1000
M205 X8 Y8
G1 F1500 X112.288 Y97.58 E48.23017
M204 S2000
M205 X10 Y10
G0 F3000 X111.722 Y97.58
M204 S1000
M205 X8 Y8
G1 F1500 X132.421 Y118.278 E49.20376
M204 S2000
M205 X10 Y10
G0 F3000 X132.421 Y118.844
M204 S1000
M205 X8 Y8
G1 F1500 X111.156 Y97.58 E50.20398
M204 S2000
M205 X10 Y10
G0 F3000 X110.591 Y97.58
M204 S1000
M205 X8 Y8
G1 F1500 X132.421 Y119.41 E51.23079
M204 S2000
M205 X10 Y10
G0 F3000 X132.421 Y119.976
M204 S1000
M205 X8 Y8
G1 F1500 X110.025 Y97.58 E52.28423
M204 S2000
M205 X10 Y10
G0 F3000 X109.459 Y97.58
M204 S1000
M205 X8 Y8
G1 F1500 X132.421 Y120.541 E53.36427
M204 S2000
M205 X10 Y10
G0 F3000 X132.421 Y121.107
M204 S1000
M205 X8 Y8
G1 F1500 X108.894 Y97.58 E54.47091
M204 S2000
M205 X10 Y10
G0 F3000 X108.328 Y97.58
M204 S1000
M205 X8 Y8
G1 F1500 X132.421 Y121.673 E55.60417
M204 S2000
M205 X10 Y10
G0 F3000 X132.421 Y122.238
M204 S1000
M205 X8 Y8
G1 F1500 X107.762 Y97.58 E56.76403
M204 S2000
M205 X10 Y10
G0 F3000 X107.197 Y97.58
M204 S1000
M205 X8 Y8
G1 F1500 X132.421 Y122.804 E57.95049
M204 S2000
M205 X10 Y10
G0 F3000 X132.421 Y123.37
M204 S1000
M205 X8 Y8
G1 F1500 X106.631 Y97.58 E59.16357
M204 S2000
M205 X10 Y10
G0 F3000 X106.065 Y97.58
M204 S1000
M205 X8 Y8
G1 F1500 X132.421 Y123.935 E60.40325
M204 S2000
M205 X10 Y10
G0 F3000 X132.421 Y124.501
M204 S1000
M205 X8 Y8
G1 F1500 X105.5 Y97.58 E61.66954
M204 S2000
M205 X10 Y10
G0 F3000 X104.934 Y97.58
M204 S1000
M205 X8 Y8
G1 F1500 X132.421 Y125.067 E62.96244
M204 S2000
M205 X10 Y10
G0 F3000 X132.421 Y125.632
M204 S1000
M205 X8 Y8
G1 F1500 X104.368 Y97.58 E64.28194
M204 S2000
M205 X10 Y10
G0 F3000 X103.803 Y97.58
M204 S1000
M205 X8 Y8
G1 F1500 X132.421 Y126.198 E65.62805
M204 S2000
M205 X10 Y10
G0 F3000 X132.421 Y126.764
M204 S1000
M205 X8 Y8
G1 F1500 X103.237 Y97.58 E67.00077
M204 S2000
M205 X10 Y10
G0 F3000 X102.671 Y97.58
M204 S1000
M205 X8 Y8
G1 F1500 X132.421 Y127.329 E68.4001
M204 S2000
M205 X10 Y10
G0 F3000 X132.421 Y127.895
M204 S1000
M205 X8 Y8
G1 F1500 X102.106 Y97.58 E69.82602
M204 S2000
M205 X10 Y10
G0 F3000 X101.54 Y97.58
M204 S1000
M205 X8 Y8
G1 F1500 X132.421 Y128.461 E71.27857
M204 S2000
M205 X10 Y10
G0 F3000 X132.421 Y129.026
M204 S1000
M205 X8 Y8
G1 F1500 X100.974 Y97.58 E72.75772
M204 S2000
M205 X10 Y10
G0 F3000 X100.408 Y97.58
M204 S1000
M205 X8 Y8
G1 F1500 X132.421 Y129.592 E74.26349
M204 S2000
M205 X10 Y10
G0 F3000 X132.421 Y130.158
M204 S1000
M205 X8 Y8
G1 F1500 X99.843 Y97.58 E75.79586
M204 S2000
M205 X10 Y10
G0 F3000 X99.277 Y97.58
M204 S1000
M205 X8 Y8
G1 F1500 X132.421 Y130.724 E77.35485
M204 S2000
M205 X10 Y10
G0 F3000 X132.421 Y131.289
M204 S1000
M205 X8 Y8
G1 F1500 X98.711 Y97.58 E78.94044
M204 S2000
M205 X10 Y10
G0 F3000 X98.146 Y97.58
M204 S1000
M205 X8 Y8
G1 F1500 X132.421 Y131.855 E80.55263
M204 S2000
M205 X10 Y10
G0 F3000 X132.42 Y132.42
M204 S1000
M205 X8 Y8
G1 F1500 X97.58 Y97.58 E82.1914
M204 S2000
M205 X10 Y10
G0 F3000 X97.58 Y98.146
M204 S1000
M205 X8 Y8
G1 F1500 X131.854 Y132.42 E83.80354
M204 S2000
M205 X10 Y10
G0 F3000 X131.289 Y132.42
M204 S1000
M205 X8 Y8
G1 F1500 X97.58 Y98.711 E85.38911
M204 S2000
M205 X10 Y10
G0 F3000 X97.58 Y99.277
M204 S1000
M205 X8 Y8
G1 F1500 X130.723 Y132.42 E86.94805
M204 S2000
M205 X10 Y10
G0 F3000 X130.157 Y132.42
M204 S1000
M205 X8 Y8
G1 F1500 X97.58 Y99.843 E88.48038
M204 S2000
M205 X10 Y10
G0 F3000 X97.58 Y100.408
M204 S1000
M205 X8 Y8
G1 F1500 X129.591 Y132.42 E89.9861
M204 S2000
M205 X10 Y10
G0 F3000 X129.026 Y132.42
M204 S1000
M205 X8 Y8
G1 F1500 X97.58 Y100.974 E91.46522
M204 S2000
M205 X10 Y10
G0 F3000 X97.58 Y101.54
M204 S1000
M205 X8 Y8
G1 F1500 X128.46 Y132.42 E92.91772
M204 S2000
M205 X10 Y10
G0 F3000 X127.894 Y132.42
M204 S1000
M205 X8 Y8
G1 F1500 X97.58 Y102.106 E94.3436
M204 S2000
M205 X10 Y10
G0 F3000 X97.58 Y102.671
M204 S1000
M205 X8 Y8
G1 F1500 X127.329 Y132.42 E95.7429
M204 S2000
M205 X10 Y10
G0 F3000 X126.763 Y132.42
M204 S1000
M205 X8 Y8
G1 F1500 X97.58 Y103.237 E97.11558
M204 S2000
M205 X10 Y10
G0 F3000 X97.58 Y103.803
M204 S1000
M205 X8 Y8
G1 F1500 X126.197 Y132.42 E98.46164
M204 S2000
M205 X10 Y10
G0 F3000 X125.632 Y132.42
M204 S1000
M205 X8 Y8
G1 F1500 X97.58 Y104.368 E99.78112
M204 S2000
M205 X10 Y10
G0 F3000 X97.58 Y104.934
M204 S1000
M205 X8 Y8
G1 F1500 X125.066 Y132.42 E101.07397
M204 S2000
M205 X10 Y10
G0 F3000 X124.5 Y132.42
M204 S1000
M205 X8 Y8
G1 F1500 X97.58 Y105.5 E102.34021
M204 S2000
M205 X10 Y10
G0 F3000 X97.58 Y106.065
M204 S1000
M205 X8 Y8
G1 F1500 X123.935 Y132.42 E103.57987
M204 S2000
M205 X10 Y10
G0 F3000 X123.369 Y132.42
M204 S1000
M205 X8 Y8
G1 F1500 X97.58 Y106.631 E104.7929
M204 S2000
M205 X10 Y10
G0 F3000 X97.58 Y107.197
M204 S1000
M205 X8 Y8
G1 F1500 X122.803 Y132.42 E105.97932
M204 S2000
M205 X10 Y10
G0 F3000 X122.238 Y132.42
M204 S1000
M205 X8 Y8
G1 F1500 X97.58 Y107.762 E107.13915
M204 S2000
M205 X10 Y10
G0 F3000 X97.58 Y108.328
M204 S1000
M205 X8 Y8
G1 F1500 X121.672 Y132.42 E108.27237
M204 S2000
M205 X10 Y10
G0 F3000 X121.106 Y132.42
M204 S1000
M205 X8 Y8
G1 F1500 X97.58 Y108.894 E109.37896
M204 S2000
M205 X10 Y10
G0 F3000 X97.58 Y109.459
M204 S1000
M205 X8 Y8
G1 F1500 X120.54 Y132.42 E110.45895
M204 S2000
M205 X10 Y10
G0 F3000 X119.975 Y132.42
M204 S1000
M205 X8 Y8
G1 F1500 X97.58 Y110.025 E111.51234
M204 S2000
M205 X10 Y10
G0 F3000 X97.58 Y110.591
M204 S1000
M205 X8 Y8
G1 F1500 X119.409 Y132.42 E112.53911
M204 S2000
M205 X10 Y10
G0 F3000 X118.843 Y132.42
M204 S1000
M205 X8 Y8
G1 F1500 X97.58 Y111.156 E113.53928
M204 S2000
M205 X10 Y10
G0 F3000 X97.58 Y111.722
M204 S1000
M205 X8 Y8
G1 F1500 X118.278 Y132.42 E114.51285
M204 S2000
M205 X10 Y10
G0 F3000 X117.712 Y132.42
M204 S1000
M205 X8 Y8
G1 F1500 X97.58 Y112.288 E115.4598
M204 S2000
M205 X10 Y10
G0 F3000 X97.58 Y112.854
M204 S1000
M205 X8 Y8
G1 F1500 X117.146 Y132.42 E116.38012
M204 S2000
M205 X10 Y10
G0 F3000 X116.581 Y132.42
M204 S1000
M205 X8 Y8
G1 F1500 X97.58 Y113.419 E117.27387
M204 S2000
M205 X10 Y10
G0 F3000 X97.58 Y113.985
M204 S1000
M205 X8 Y8
G1 F1500 X116.015 Y132.42 E118.141
M204 S2000
M205 X10 Y10
G0 F3000 X115.449 Y132.42
M204 S1000
M205 X8 Y8
G1 F1500 X97.58 Y114.551 E118.9815
M204 S2000
M205 X10 Y10
G0 F3000 X97.58 Y115.116
M204 S1000
M205 X8 Y8
G1 F1500 X114.884 Y132.42 E119.79543
M204 S2000
M205 X10 Y10
G0 F3000 X114.318 Y132.42
M204 S1000
M205 X8 Y8
G1 F1500 X97.58 Y115.682 E120.58273
M204 S2000
M205 X10 Y10
G0 F3000 X97.58 Y116.248
M204 S1000
M205 X8 Y8
G1 F1500 X113.752 Y132.42 E121.34341
M204 S2000
M205 X10 Y10
G0 F3000 X113.187 Y132.42
M204 S1000
M205 X8 Y8
G1 F1500 X97.58 Y116.813 E122.07752
M204 S2000
M205 X10 Y10
G0 F3000 X97.58 Y117.379
M204 S1000
M205 X8 Y8
G1 F1500 X112.621 Y132.42 E122.785
M204 S2000
M205 X10 Y10
G0 F3000 X112.055 Y132.42
M204 S1000
M205 X8 Y8
G1 F1500 X97.58 Y117.945 E123.46586
M204 S2000
M205 X10 Y10
G0 F3000 X97.58 Y118.51
M204 S1000
M205 X8 Y8
G1 F1500 X111.49 Y132.42 E124.12014
M204 S2000
M205 X10 Y10
G0 F3000 X110.924 Y132.42
M204 S1000
M205 X8 Y8
G1 F1500 X97.58 Y119.076 E124.7478
M204 S2000
M205 X10 Y10
