;FLAVOR:Marlin
;TIME:4640
;Filament used: 2.95619m
;Layer height: 0.12
;MINX:97.02
;MINY:97.004
;MINZ:0.2
;MAXX:132.98
;MAXY:132.996
;MAXZ:44.72
;TARGET_MACHINE.NAME:Anycubic Kobra
;Generated with Cura_SteamEngine 5.10.1
M140 S60
M105
M190 S60
M104 S200
M105
M109 S200
G21 ;metric values
G90 ;absolute positioning
M82 ;set extruder to absolute mode
M107 ;start with the fan off
M117 Homing X/Y ...
G28 X0 Y0 ;move X/Y to min endstops
M117 Homing Z ...
G28 Z0 ;move Z to min endstops
G1 Z15.0 F240 ;move the platform down 15mm
M117 Heating ...
M104 S[first_layer_temperature]
; set extruder temp
M109 S[first_layer_temperature]
; wait for extruder temp
M117 Start cleaning ...
M420 S1 ; Enable Bed Levelling Mesh
G92 E0 ;zero the extruded length
M413 S0 ; disable power loss recovery - may reduce blobbing and avoid unexpected recovery
; M500 ; store eeprom settings
M117 Intro line ...
G1 Z2.0 F3000 ; Move Z Axis up little to prevent scratching of Heat Bed
G1 X0.1 Y20 Z[first_layer_height] F5000.0 ; Move to start position
G1 X0.1 Y200.0 Z[first_layer_height] F1500.0 E15 ; Draw the first line
G1 X0.4 Y200.0 Z[first_layer_height] F5000.0 ; Move to side a little
G1 X0.4 Y20 Z0.3[first_layer_height] F1500.0 E30 ; Draw the second line
G92 E0 ; Reset Extruder
G1 X5 Y20 Z0.3 F240 ; Move over to prevent blob squish
G92 E0 ; Reset Extruder
M420 S1 ; Enable Bed Levelling Mesh
M117 Printing...
M82 ;absolute extrusion mode
G92 E0
G92 E0
G1 F2700 E-1
;LAYER_COUNT:372
;LAYER:0
M107
M204 S2000
M205 X10 Y10
G0 F3000 X101.911 Y102.653 Z0.2
M204 S1000
M205 X8 Y8
;TYPE:SKIRT
G1 F2700 E0
G1 F2400 X102.934 Y101.657 E0.04749
G1 X103.919 Y100.838 E0.09009
G1 X104.457 Y100.433 E0.11249
G1 X105.315 Y99.839 E0.1472
G1 X106.267 Y99.281 E0.1839
G1 X107.379 Y98.7 E0.22563
G1 X108.426 Y98.264 E0.26335
G1 X109.429 Y97.895 E0.2989
G1 X110.587 Y97.569 E0.33891
G1 X111.357 Y97.393 E0.36518
G1 X112.445 Y97.192 E0.40198
G1 X113.56 Y97.077 E0.43926
G1 X114.75 Y97.004 E0.47892
G1 X115.678 Y97.019 E0.50979
G1 X116.355 Y97.063 E0.53235
G1 X117.69 Y97.205 E0.577
G1 X118.695 Y97.39 E0.61099
G1 X119.374 Y97.546 E0.63416
G1 X120.179 Y97.77 E0.66196
G1 X120.91 Y98.007 E0.68752
G1 X121.62 Y98.278 E0.71279
G1 X122.686 Y98.729 E0.75129
G1 X123.765 Y99.299 E0.79188
G1 X124.644 Y99.812 E0.82573
G1 X125.872 Y100.663 E0.87542
G1 X126.815 Y101.447 E0.91621
G1 X127.387 Y101.966 E0.9419
G1 X128.082 Y102.65 E0.97433
G1 X129.123 Y103.852 E1.02722
G1 X129.807 Y104.8 E1.0661
G1 X130.159 Y105.331 E1.08729
G1 X130.601 Y106.061 E1.11567
G1 X130.981 Y106.759 E1.1421
G1 X131.235 Y107.272 E1.16114
G1 X131.731 Y108.388 E1.20176
G1 X132.126 Y109.517 E1.24155
G1 X132.417 Y110.501 E1.27568
G1 X132.685 Y111.747 E1.31807
G1 X132.842 Y112.69 E1.34986
G1 X132.98 Y114.274 E1.40274
G1 X132.98 Y115.741 E1.45154
G1 X132.856 Y117.237 E1.50147
G1 X132.677 Y118.29 E1.53699
G1 X132.415 Y119.528 E1.57908
G1 X132.094 Y120.582 E1.61572
G1 X131.728 Y121.617 E1.65224
G1 X131.222 Y122.756 E1.69369
G1 X130.907 Y123.383 E1.71703
G1 X130.512 Y124.094 E1.74408
G1 X130.143 Y124.694 E1.76751
G1 X129.79 Y125.225 E1.78872
G1 X129.087 Y126.197 E1.82862
G1 X128.172 Y127.255 E1.87514
G1 X127.015 Y128.395 E1.92916
G1 X126.079 Y129.162 E1.96941
G1 X125.517 Y129.584 E1.99279
G1 X124.618 Y130.204 E2.02911
G1 X123.734 Y130.718 E2.06312
G1 X122.525 Y131.351 E2.10851
G1 X121.838 Y131.639 E2.13329
G1 X120.571 Y132.105 E2.17819
G1 X119.413 Y132.431 E2.2182
G1 X118.643 Y132.607 E2.24447
G1 X117.556 Y132.808 E2.28124
G1 X116.457 Y132.922 E2.31798
G1 X115.25 Y132.996 E2.3582
G1 X114.322 Y132.981 E2.38907
G1 X113.644 Y132.937 E2.41167
G1 X112.182 Y132.779 E2.46058
G1 X111.237 Y132.596 E2.4926
G1 X110.631 Y132.455 E2.51329
G1 X109.822 Y132.23 E2.54122
G1 X109.091 Y131.994 E2.56677
G1 X108.477 Y131.762 E2.5886
G1 X107.305 Y131.264 E2.63095
G1 X106.235 Y130.701 E2.67117
G1 X105.356 Y130.188 E2.70502
G1 X104.128 Y129.337 E2.75471
G1 X103.185 Y128.553 E2.7955
G1 X102.613 Y128.034 E2.82119
G1 X101.873 Y127.304 E2.85576
G1 X100.896 Y126.174 E2.90544
G1 X100.19 Y125.197 E2.94553
G1 X99.769 Y124.557 E2.97101
G1 X99.397 Y123.937 E2.99506
G1 X99.077 Y123.351 E3.01727
G1 X98.702 Y122.596 E3.04531
G1 X98.267 Y121.615 E3.081
G1 X97.864 Y120.447 E3.1221
G1 X97.577 Y119.478 E3.15571
G1 X97.315 Y118.253 E3.19737
G1 X97.158 Y117.31 E3.22917
G1 X97.02 Y115.726 E3.28205
G1 X97.02 Y114.268 E3.33055
G1 X97.145 Y112.762 E3.38081
G1 X97.323 Y111.71 E3.4163
G1 X97.585 Y110.472 E3.45838
G1 X97.906 Y109.418 E3.49503
G1 X98.272 Y108.383 E3.53154
G1 X98.781 Y107.238 E3.57322
G1 X99.097 Y106.609 E3.59663
G1 X99.488 Y105.907 E3.62336
G1 X99.861 Y105.299 E3.64708
G1 X100.288 Y104.663 E3.67256
G1 X100.921 Y103.795 E3.70829
G1 X101.911 Y102.653 E3.75856
M204 S2000
M205 X10 Y10
G0 F3000 X102.19 Y102.94
M204 S1000
M205 X8 Y8
G1 F2400 X103.213 Y101.944 E3.80605
G1 X104.16 Y101.158 E3.84698
G1 X104.698 Y100.753 E3.86938
G1 X105.543 Y100.168 E3.90356
G1 X106.452 Y99.636 E3.93859
G1 X107.564 Y99.055 E3.98032
G1 X108.564 Y98.639 E4.01634
G1 X109.537 Y98.28 E4.05084
G1 X110.677 Y97.959 E4.09023
G1 X111.43 Y97.786 E4.11593
G1 X112.486 Y97.59 E4.15165
G1 X113.585 Y97.476 E4.1884
G1 X114.744 Y97.404 E4.22702
G1 X115.652 Y97.418 E4.25723
G1 X116.313 Y97.461 E4.27926
G1 X117.648 Y97.603 E4.32391
G1 X118.605 Y97.78 E4.35628
G1 X119.284 Y97.936 E4.37945
G1 X120.056 Y98.15 E4.4061
G1 X120.768 Y98.381 E4.43099
G1 X121.464 Y98.646 E4.45576
G1 X122.499 Y99.083 E4.49313
G1 X123.564 Y99.645 E4.53318
G1 X124.416 Y100.141 E4.56597
G1 X125.644 Y100.992 E4.61566
G1 X126.546 Y101.743 E4.6547
G1 X127.106 Y102.251 E4.67985
G1 X127.801 Y102.935 E4.71228
G1 X128.799 Y104.086 E4.76295
G1 X129.474 Y105.021 E4.80131
G1 X129.817 Y105.538 E4.82194
G1 X130.25 Y106.252 E4.84972
G1 X130.623 Y106.937 E4.87566
G1 X130.87 Y107.435 E4.89415
G1 X131.353 Y108.52 E4.93365
G1 X131.748 Y109.649 E4.97343
G1 X132.026 Y110.585 E5.00591
G1 X132.29 Y111.813 E5.04768
G1 X132.447 Y112.756 E5.07948
G1 X132.58 Y114.274 E5.13016
G1 X132.581 Y115.708 E5.17786
G1 X132.457 Y117.204 E5.22778
G1 X132.286 Y118.207 E5.26163
G1 X132.032 Y119.411 E5.30255
G1 X131.711 Y120.465 E5.3392
G1 X131.362 Y121.455 E5.37411
G1 X130.865 Y122.576 E5.4149
G1 X130.557 Y123.189 E5.43771
G1 X130.171 Y123.885 E5.46418
G1 X129.81 Y124.473 E5.48713
G1 X129.466 Y124.991 E5.50781
G1 X128.784 Y125.935 E5.54655
G1 X127.869 Y126.993 E5.59307
G1 X126.761 Y128.086 E5.64484
G1 X125.839 Y128.842 E5.68449
G1 X125.29 Y129.255 E5.70734
G1 X124.417 Y129.858 E5.74263
G1 X123.548 Y130.364 E5.77608
G1 X122.37 Y130.982 E5.82032
G1 X121.683 Y131.27 E5.8451
G1 X120.463 Y131.72 E5.88835
G1 X119.323 Y132.041 E5.92774
G1 X118.57 Y132.214 E5.95344
G1 X117.514 Y132.41 E5.98916
G1 X116.432 Y132.523 E6.02534
G1 X115.256 Y132.596 E6.06453
G1 X114.348 Y132.582 E6.09474
G1 X113.687 Y132.539 E6.11677
G1 X112.258 Y132.386 E6.16457
G1 X111.328 Y132.206 E6.19608
G1 X110.722 Y132.065 E6.21677
G1 X109.944 Y131.849 E6.24362
G1 X109.232 Y131.62 E6.2685
G1 X108.633 Y131.394 E6.28979
G1 X107.491 Y130.91 E6.33105
G1 X106.436 Y130.355 E6.3707
G1 X105.584 Y129.859 E6.40349
G1 X104.356 Y129.008 E6.45318
G1 X103.454 Y128.257 E6.49222
G1 X102.894 Y127.749 E6.51736
G1 X102.176 Y127.042 E6.55088
G1 X101.199 Y125.912 E6.60056
G1 X100.524 Y124.977 E6.63892
G1 X100.112 Y124.351 E6.66384
G1 X99.748 Y123.745 E6.68736
G1 X99.435 Y123.173 E6.70904
G1 X99.068 Y122.434 E6.73649
G1 X98.633 Y121.453 E6.77218
G1 X98.247 Y120.333 E6.81158
G1 X97.968 Y119.394 E6.84416
G1 X97.71 Y118.187 E6.88521
G1 X97.553 Y117.244 E6.91701
G1 X97.42 Y115.726 E6.96769
G1 X97.419 Y114.301 E7.01509
G1 X97.544 Y112.795 E7.06535
G1 X97.714 Y111.793 E7.09915
G1 X97.968 Y110.589 E7.14008
G1 X98.289 Y109.535 E7.17672
G1 X98.638 Y108.545 E7.21164
G1 X99.138 Y107.418 E7.25264
G1 X99.447 Y106.803 E7.27554
G1 X99.829 Y106.116 E7.30168
G1 X100.193 Y105.522 E7.32485
G1 X100.611 Y104.898 E7.34983
G1 X101.223 Y104.057 E7.38443
G1 X102.19 Y102.94 E7.43357
M204 S2000
M205 X10 Y10
G0 F3000 X102.469 Y103.226
M204 S1000
M205 X8 Y8
G1 F2400 X103.468 Y102.252 E7.47997
G1 X104.401 Y101.478 E7.52029
G1 X104.939 Y101.073 E7.54269
G1 X105.771 Y100.497 E7.57635
G1 X106.638 Y99.99 E7.60975
G1 X107.718 Y99.424 E7.65031
G1 X108.703 Y99.014 E7.68579
G1 X109.645 Y98.665 E7.7192
G1 X110.767 Y98.349 E7.75797
G1 X111.503 Y98.179 E7.7831
G1 X112.528 Y97.988 E7.81778
G1 X113.61 Y97.875 E7.85396
G1 X114.738 Y97.804 E7.89155
G1 X115.626 Y97.817 E7.92109
G1 X116.271 Y97.859 E7.94259
G1 X117.606 Y98.001 E7.98724
G1 X118.515 Y98.17 E8.01799
G1 X119.194 Y98.326 E8.04116
G1 X119.933 Y98.531 E8.06667
G1 X120.626 Y98.755 E8.09089
G1 X121.309 Y99.015 E8.1152
G1 X122.312 Y99.437 E8.15139
G1 X123.363 Y99.991 E8.19091
G1 X124.188 Y100.47 E8.22264
G1 X125.388 Y101.3 E8.27117
G1 X126.277 Y102.039 E8.30962
G1 X126.825 Y102.536 E8.33422
G1 X127.52 Y103.22 E8.36666
G1 X128.475 Y104.32 E8.41511
G1 X129.141 Y105.242 E8.45294
G1 X129.475 Y105.745 E8.47302
G1 X129.899 Y106.444 E8.50021
G1 X130.265 Y107.115 E8.52563
G1 X130.505 Y107.598 E8.54357
G1 X130.975 Y108.652 E8.58195
G1 X131.37 Y109.781 E8.62174
G1 X131.635 Y110.669 E8.65256
G1 X131.895 Y111.879 E8.69372
G1 X132.052 Y112.822 E8.72552
G1 X132.18 Y114.275 E8.77403
G1 X132.182 Y115.675 E8.8206
G1 X132.058 Y117.171 E8.87052
G1 X131.895 Y118.125 E8.90271
G1 X131.649 Y119.294 E8.94245
G1 X131.328 Y120.348 E8.97909
G1 X130.996 Y121.293 E9.01241
G1 X130.508 Y122.396 E9.05252
G1 X130.207 Y122.995 E9.07482
G1 X129.83 Y123.676 E9.10071
G1 X129.477 Y124.252 E9.12318
G1 X129.142 Y124.757 E9.14334
G1 X128.481 Y125.673 E9.18091
G1 X127.566 Y126.731 E9.22743
G1 X126.507 Y127.777 E9.27694
G1 X125.599 Y128.522 E9.316
G1 X125.062 Y128.926 E9.33835
G1 X124.216 Y129.512 E9.37258
G1 X123.362 Y130.01 E9.40546
G1 X122.215 Y130.613 E9.44856
G1 X121.544 Y130.895 E9.47277
G1 X120.355 Y131.335 E9.51494
G1 X119.233 Y131.651 E9.55371
G1 X118.497 Y131.821 E9.57883
G1 X117.472 Y132.012 E9.61351
G1 X116.39 Y132.125 E9.64969
G1 X115.262 Y132.196 E9.68728
G1 X114.374 Y132.183 E9.71682
G1 X113.729 Y132.141 E9.73832
G1 X112.334 Y131.993 E9.78498
G1 X111.419 Y131.816 E9.81598
G1 X110.813 Y131.675 E9.83667
G1 X110.066 Y131.468 E9.86245
G1 X109.373 Y131.246 E9.88665
G1 X108.789 Y131.026 E9.90741
G1 X107.677 Y130.556 E9.94756
G1 X106.637 Y130.009 E9.98665
G1 X105.812 Y129.53 E10.01838
G1 X104.612 Y128.7 E10.06691
G1 X103.723 Y127.961 E10.10536
G1 X103.175 Y127.464 E10.12996
G1 X102.457 Y126.757 E10.16348
G1 X101.523 Y125.678 E10.21094
G1 X100.858 Y124.757 E10.24873
G1 X100.455 Y124.145 E10.2731
G1 X100.099 Y123.553 E10.29607
G1 X99.793 Y122.995 E10.31724
G1 X99.433 Y122.271 E10.34413
G1 X99.011 Y121.323 E10.37865
G1 X98.63 Y120.219 E10.41749
G1 X98.359 Y119.31 E10.44904
G1 X98.105 Y118.121 E10.48948
G1 X97.948 Y117.178 E10.52127
G1 X97.82 Y115.725 E10.56979
G1 X97.818 Y114.334 E10.61605
G1 X97.943 Y112.828 E10.66632
G1 X98.105 Y111.875 E10.69847
G1 X98.351 Y110.706 E10.7382
G1 X98.672 Y109.652 E10.77485
G1 X99.004 Y108.707 E10.80816
G1 X99.495 Y107.598 E10.8485
G1 X99.797 Y106.997 E10.87087
G1 X100.17 Y106.325 E10.89643
G1 X100.525 Y105.745 E10.91905
G1 X100.935 Y105.133 E10.94355
G1 X101.526 Y104.318 E10.97704
G1 X102.469 Y103.226 E11.02502
M204 S2000
M205 X10 Y10
G1 F2700 E10.02502
G0 F3000 X108.42 Y108.288
M204 S1000
M205 X8 Y8
G1 F2700 E11.02502
G1 F2400 X109.021 Y107.748 E11.0519
G1 X109.773 Y107.175 E11.08334
G1 X110.639 Y106.674 E11.11662
G1 X111.372 Y106.33 E11.14355
G1 X112.271 Y105.993 E11.17548
G1 X113.411 Y105.727 E11.21442
G1 X114.387 Y105.621 E11.24707
G1 X115.175 Y105.603 E11.27328
G1 X115.963 Y105.651 E11.29954
G1 X116.749 Y105.765 E11.32596
G1 X117.536 Y105.949 E11.35284
G1 X118.255 Y106.184 E11.378
G1 X118.978 Y106.486 E11.40406
G1 X119.879 Y106.953 E11.43781
G1 X120.672 Y107.506 E11.46997
G1 X121.276 Y108.003 E11.49598
G1 X121.843 Y108.557 E11.52235
G1 X122.496 Y109.313 E11.55558
G1 X123.043 Y110.136 E11.58844
G1 X123.415 Y110.811 E11.61408
G1 X123.742 Y111.545 E11.6408
G1 X123.996 Y112.279 E11.66664
G1 X124.246 Y113.249 E11.69995
G1 X124.365 Y114.198 E11.73176
G1 X124.399 Y115 E11.75846
G1 X124.358 Y115.988 E11.79135
G1 X124.196 Y116.944 E11.8236
G1 X123.997 Y117.719 E11.85022
G1 X123.742 Y118.455 E11.87612
G1 X123.415 Y119.189 E11.90285
G1 X123.045 Y119.864 E11.92845
G1 X122.612 Y120.513 E11.9544
G1 X122.115 Y121.141 E11.98104
G1 X121.58 Y121.712 E12.00706
G1 X120.98 Y122.251 E12.03389
G1 X120.227 Y122.825 E12.06538
G1 X119.361 Y123.326 E12.09866
G1 X118.628 Y123.67 E12.12559
G1 X117.729 Y124.007 E12.15752
G1 X116.589 Y124.273 E12.19645
G1 X115.613 Y124.379 E12.22911
G1 X114.825 Y124.397 E12.25532
G1 X114.037 Y124.349 E12.28158
G1 X113.251 Y124.235 E12.308
G1 X112.464 Y124.051 E12.33488
G1 X111.744 Y123.816 E12.36007
G1 X111.022 Y123.514 E12.3861
G1 X110.121 Y123.047 E12.41985
G1 X109.328 Y122.494 E12.45201
G1 X108.722 Y121.995 E12.47812
G1 X108.157 Y121.443 E12.50439
G1 X107.504 Y120.687 E12.53761
G1 X106.957 Y119.864 E12.57048
G1 X106.584 Y119.187 E12.59619
G1 X106.258 Y118.455 E12.62284
G1 X106.003 Y117.719 E12.64875
G1 X105.754 Y116.751 E12.68199
G1 X105.635 Y115.8 E12.71387
G1 X105.601 Y115 E12.7405
G1 X105.642 Y114.012 E12.77339
G1 X105.804 Y113.056 E12.80564
G1 X106.004 Y112.279 E12.83233
G1 X106.258 Y111.545 E12.85816
G1 X106.588 Y110.805 E12.88511
G1 X106.958 Y110.131 E12.91068
G1 X107.388 Y109.487 E12.93644
G1 X107.885 Y108.859 E12.96308
G1 X108.42 Y108.288 E12.9891
M204 S2000
M205 X10 Y10
G0 F3000 X108.703 Y108.57
M204 S1000
M205 X8 Y8
G1 F2400 X109.267 Y108.064 E13.0143
G1 X109.999 Y107.506 E13.04492
G1 X110.822 Y107.03 E13.07654
G1 X111.523 Y106.701 E13.10229
G1 X112.393 Y106.375 E13.13319
G1 X113.472 Y106.123 E13.17005
G1 X114.416 Y106.02 E13.20163
G1 X115.172 Y106.004 E13.22678
G1 X115.916 Y106.048 E13.25157
G1 X116.683 Y106.16 E13.27735
G1 X117.425 Y106.334 E13.3027
G1 X118.116 Y106.559 E13.32687
G1 X118.809 Y106.848 E13.35184
G1 X119.671 Y107.295 E13.38414
G1 X120.431 Y107.825 E13.41496
G1 X121.015 Y108.306 E13.44012
G1 X121.548 Y108.828 E13.46493
G1 X122.178 Y109.557 E13.49698
G1 X122.696 Y110.337 E13.52812
G1 X123.062 Y111 E13.55331
G1 X123.366 Y111.684 E13.57821
G1 X123.615 Y112.401 E13.60345
G1 X123.852 Y113.322 E13.63508
G1 X123.967 Y114.241 E13.66589
G1 X123.998 Y114.989 E13.69079
G1 X123.959 Y115.951 E13.72281
G1 X123.804 Y116.863 E13.75358
G1 X123.615 Y117.599 E13.77885
G1 X123.366 Y118.316 E13.8041
G1 X123.059 Y119.006 E13.82921
G1 X122.697 Y119.665 E13.85422
G1 X122.285 Y120.281 E13.87887
G1 X121.809 Y120.883 E13.9044
G1 X121.297 Y121.43 E13.92932
G1 X120.733 Y121.936 E13.95452
G1 X120.001 Y122.494 E13.98513
G1 X119.178 Y122.97 E14.01675
G1 X118.477 Y123.299 E14.04251
G1 X117.607 Y123.625 E14.07341
G1 X116.528 Y123.877 E14.11026
G1 X115.584 Y123.98 E14.14185
G1 X114.828 Y123.996 E14.167
G1 X114.084 Y123.952 E14.19179
G1 X113.317 Y123.84 E14.21757
G1 X112.575 Y123.666 E14.24291
G1 X111.884 Y123.441 E14.26709
G1 X111.191 Y123.152 E14.29206
G1 X110.329 Y122.705 E14.32435
G1 X109.569 Y122.175 E14.35517
G1 X108.985 Y121.694 E14.38034
G1 X108.452 Y121.172 E14.40515
G1 X107.822 Y120.443 E14.4372
G1 X107.304 Y119.663 E14.46834
G1 X106.938 Y119 E14.49353
G1 X106.634 Y118.316 E14.51842
G1 X106.385 Y117.599 E14.54367
G1 X106.148 Y116.678 E14.5753
G1 X106.033 Y115.759 E14.6061
G1 X106.002 Y115.011 E14.631
G1 X106.041 Y114.049 E14.66302
G1 X106.196 Y113.137 E14.69379
G1 X106.385 Y112.401 E14.71907
G1 X106.634 Y111.684 E14.74431
G1 X106.941 Y110.994 E14.76943
G1 X107.303 Y110.335 E14.79444
G1 X107.715 Y109.719 E14.81909
G1 X108.191 Y109.117 E14.84461
G1 X108.703 Y108.57 E14.86953
M204 S2000
M205 X10 Y10
G0 F3000 X108.985 Y108.854
M204 S1000
M205 X8 Y8
G1 F2400 X109.527 Y108.368 E14.89374
G1 X110.215 Y107.843 E14.92253
G1 X111.013 Y107.382 E14.95318
G1 X111.671 Y107.073 E14.97736
G1 X112.51 Y106.759 E15.00715
G1 X113.548 Y106.516 E15.04261
G1 X114.433 Y106.42 E15.07222
G1 X115.169 Y106.404 E15.0967
G1 X115.87 Y106.446 E15.12006
G1 X116.605 Y106.553 E15.14477
G1 X117.315 Y106.719 E15.16902
G1 X117.986 Y106.938 E15.19249
G1 X118.64 Y107.211 E15.21606
G1 X119.462 Y107.638 E15.24687
G1 X120.183 Y108.14 E15.27609
