;FLAVOR:Marlin
;TIME:7898
;Filament used: 5.02061m
;Layer height: 0.12
;MINX:92.828
;MINY:96.702
;MINZ:0.2
;MAXX:144.138
;MAXY:133.888
;MAXZ:58.88
;TARGET_MACHINE.NAME:Anycubic Kobra
;Generated with Cura_SteamEngine 5.10.1
M140 S60
M105
M190 S60
M104 S200
M105
M109 S200
G21 ;metric values
G90 ;absolute positioning
M82 ;set extruder to absolute mode
M107 ;start with the fan off
M117 Homing X/Y ...
G28 X0 Y0 ;move X/Y to min endstops
M117 Homing Z ...
G28 Z0 ;move Z to min endstops
G1 Z15.0 F240 ;move the platform down 15mm
M117 Heating ...
M104 S[first_layer_temperature]
; set extruder temp
M109 S[first_layer_temperature]
; wait for extruder temp
M117 Start cleaning ...
M420 S1 ; Enable Bed Levelling Mesh
G92 E0 ;zero the extruded length
M413 S0 ; disable power loss recovery - may reduce blobbing and avoid unexpected recovery
; M500 ; store eeprom settings
M117 Intro line ...
G1 Z2.0 F3000 ; Move Z Axis up little to prevent scratching of Heat Bed
G1 X0.1 Y20 Z[first_layer_height] F5000.0 ; Move to start position
G1 X0.1 Y200.0 Z[first_layer_height] F1500.0 E15 ; Draw the first line
G1 X0.4 Y200.0 Z[first_layer_height] F5000.0 ; Move to side a little
G1 X0.4 Y20 Z0.3[first_layer_height] F1500.0 E30 ; Draw the second line
G92 E0 ; Reset Extruder
G1 X5 Y20 Z0.3 F240 ; Move over to prevent blob squish
G92 E0 ; Reset Extruder
M420 S1 ; Enable Bed Levelling Mesh
M117 Printing...
M82 ;absolute extrusion mode
G92 E0
G92 E0
G1 F2700 E-1
;LAYER_COUNT:490
;LAYER:0
M107
M204 S2000
M205 X10 Y10
G0 F3000 X97.173 Y103.627 Z0.2
M204 S1000
M205 X8 Y8
;TYPE:SKIRT
G1 F2700 E0
G1 F2400 X97.604 Y103.256 E0.01891
G1 X98.095 Y102.955 E0.03807
G1 X98.665 Y102.724 E0.05853
G1 X99.429 Y102.495 E0.08505
G1 X101.444 Y101.932 E0.15464
G1 X102.401 Y101.688 E0.18749
G1 X103.36 Y101.547 E0.21973
G1 X106.075 Y101.108 E0.3112
G1 X108.738 Y100.598 E0.40138
G1 X111.425 Y100.006 E0.4929
G1 X114.039 Y99.351 E0.58253
G1 X116.713 Y98.6 E0.6749
G1 X119.07 Y97.869 E0.75698
G1 X120.643 Y97.357 E0.812
G1 X121.494 Y97.157 E0.84108
G1 X122.522 Y96.963 E0.87587
G1 X123.612 Y96.802 E0.91252
G1 X124.946 Y96.716 E0.95698
G1 X125.508 Y96.702 E0.97568
G1 X126.622 Y96.724 E1.01274
G1 X128.044 Y96.874 E1.0603
G1 X128.912 Y96.999 E1.08946
G1 X130.602 Y97.395 E1.1472
G1 X131.544 Y97.698 E1.18011
G1 X132.413 Y98.022 E1.21095
G1 X133.171 Y98.342 E1.23832
G1 X134.234 Y98.845 E1.27743
G1 X135.026 Y99.298 E1.30778
G1 X135.959 Y99.892 E1.34457
G1 X136.759 Y100.449 E1.37699
G1 X137.649 Y101.186 E1.41542
G1 X138.594 Y102.041 E1.45781
G1 X139.646 Y103.158 E1.50884
G1 X140.388 Y104.099 E1.5487
G1 X141.066 Y105.035 E1.58714
G1 X141.679 Y106.055 E1.62672
G1 X141.997 Y106.635 E1.64872
G1 X142.542 Y107.723 E1.6892
G1 X143.014 Y108.923 E1.73208
G1 X143.358 Y109.915 E1.76701
G1 X143.672 Y111.152 E1.80945
G1 X143.815 Y111.839 E1.83279
G1 X144.013 Y113.015 E1.87246
G1 X144.137 Y114.502 E1.92209
G1 X144.138 Y116.081 E1.9746
G1 X144.009 Y117.571 E2.02435
G1 X143.79 Y118.874 E2.06829
G1 X143.528 Y120.086 E2.10954
G1 X143.297 Y120.851 E2.13611
G1 X142.954 Y121.825 E2.17046
G1 X142.521 Y122.912 E2.20938
G1 X142.006 Y123.939 E2.24759
G1 X141.6 Y124.671 E2.27543
G1 X141.034 Y125.594 E2.31144
G1 X140.295 Y126.613 E2.35331
G1 X139.617 Y127.46 E2.38939
G1 X138.542 Y128.604 E2.44161
G1 X137.395 Y129.636 E2.49292
G1 X136.366 Y130.416 E2.53587
G1 X135.632 Y130.922 E2.56552
G1 X135.157 Y131.217 E2.58412
G1 X134.473 Y131.608 E2.61032
G1 X133.999 Y131.856 E2.62812
G1 X132.725 Y132.452 E2.6749
G1 X131.184 Y133.022 E2.72954
G1 X130.238 Y133.289 E2.76224
G1 X129.623 Y133.433 E2.78325
G1 X128.594 Y133.627 E2.81807
G1 X127.504 Y133.788 E2.85472
G1 X126.17 Y133.874 E2.89918
G1 X125.607 Y133.888 E2.91791
G1 X124.509 Y133.866 E2.95444
G1 X122.929 Y133.698 E3.00729
G1 X122.376 Y133.613 E3.0259
G1 X121.637 Y133.468 E3.05094
G1 X121.116 Y133.349 E3.06872
G1 X120.269 Y133.119 E3.09791
G1 X119.748 Y132.954 E3.11609
G1 X118.53 Y132.5 E3.15932
G1 X118.022 Y132.283 E3.17769
G1 X116.867 Y131.736 E3.2202
G1 X115.918 Y131.193 E3.25656
G1 X115.334 Y130.823 E3.27956
G1 X114.293 Y130.104 E3.32164
G1 X112.339 Y128.728 E3.40113
G1 X110.072 Y127.226 E3.49157
G1 X107.754 Y125.782 E3.58241
G1 X105.385 Y124.399 E3.67364
G1 X103.016 Y123.103 E3.76346
G1 X100.537 Y121.836 E3.85605
G1 X98.328 Y120.781 E3.93748
G1 X97.655 Y120.397 E3.96325
G1 X96.983 Y119.752 E3.99423
G1 X95.24 Y118.008 E4.07624
G1 X94.773 Y117.528 E4.09851
G1 X94.338 Y116.982 E4.12173
G1 X94.01 Y116.394 E4.14412
G1 X93.714 Y115.441 E4.17731
G1 X93.163 Y113.553 E4.24273
G1 X92.956 Y112.805 E4.26854
G1 X92.846 Y112.215 E4.2885
G1 X92.828 Y111.673 E4.30654
G1 X92.955 Y110.89 E4.33292
G1 X93.176 Y110.087 E4.36062
G1 X93.702 Y108.29 E4.4229
G1 X93.933 Y107.542 E4.44894
G1 X94.144 Y107.039 E4.46708
G1 X94.542 Y106.41 E4.49184
G1 X95.081 Y105.82 E4.51842
G1 X96.686 Y104.126 E4.59603
G1 X97.173 Y103.627 E4.61922
M204 S2000
M205 X10 Y10
G0 F3000 X97.437 Y103.928
M204 S1000
M205 X8 Y8
G1 F2400 X97.817 Y103.595 E4.63603
G1 X98.245 Y103.326 E4.65284
G1 X98.815 Y103.095 E4.6733
G1 X99.537 Y102.88 E4.69835
G1 X101.543 Y102.319 E4.76763
G1 X102.459 Y102.084 E4.79909
G1 X103.418 Y101.943 E4.83133
G1 X106.143 Y101.502 E4.92314
G1 X108.824 Y100.989 E5.01393
G1 X111.511 Y100.397 E5.10544
G1 X114.136 Y99.739 E5.19545
G1 X116.821 Y98.985 E5.28821
G1 X119.188 Y98.251 E5.37063
G1 X120.735 Y97.746 E5.42476
G1 X121.568 Y97.55 E5.45322
G1 X122.58 Y97.359 E5.48747
G1 X123.67 Y97.198 E5.52412
G1 X124.956 Y97.116 E5.56698
G1 X125.501 Y97.102 E5.58511
G1 X126.58 Y97.122 E5.62101
G1 X127.987 Y97.27 E5.66806
G1 X128.855 Y97.395 E5.69723
G1 X130.48 Y97.776 E5.75274
G1 X131.404 Y98.073 E5.78502
G1 X132.258 Y98.391 E5.81533
G1 X133 Y98.704 E5.84212
G1 X134.063 Y99.207 E5.88123
G1 X134.811 Y99.636 E5.90991
G1 X135.731 Y100.221 E5.94617
G1 X136.504 Y100.757 E5.97746
G1 X137.381 Y101.483 E6.01533
G1 X138.303 Y102.316 E6.05666
G1 X139.332 Y103.406 E6.10651
G1 X140.064 Y104.334 E6.14582
G1 X140.723 Y105.241 E6.18311
G1 X141.328 Y106.247 E6.22216
G1 X141.639 Y106.814 E6.24367
G1 X142.184 Y107.902 E6.28414
G1 X142.636 Y109.055 E6.32533
G1 X142.97 Y110.014 E6.35911
G1 X143.28 Y111.234 E6.40097
G1 X143.423 Y111.921 E6.42431
G1 X143.614 Y113.048 E6.46233
G1 X143.738 Y114.535 E6.51196
G1 X143.739 Y116.046 E6.56222
G1 X143.61 Y117.536 E6.61196
G1 X143.399 Y118.79 E6.65425
G1 X143.145 Y119.971 E6.69443
G1 X142.92 Y120.718 E6.72038
G1 X142.582 Y121.677 E6.7542
G1 X142.163 Y122.733 E6.79199
G1 X141.656 Y123.745 E6.82963
G1 X141.259 Y124.462 E6.85689
G1 X140.71 Y125.359 E6.89187
G1 X139.983 Y126.363 E6.9331
G1 X139.325 Y127.186 E6.96815
G1 X138.274 Y128.307 E7.01925
G1 X137.153 Y129.317 E7.06944
G1 X136.124 Y130.097 E7.11239
G1 X135.421 Y130.582 E7.14079
G1 X134.958 Y130.87 E7.15893
G1 X134.288 Y131.254 E7.18461
G1 X133.829 Y131.494 E7.20184
G1 X132.586 Y132.077 E7.2475
G1 X131.075 Y132.637 E7.3011
G1 X130.129 Y132.904 E7.33379
G1 X129.549 Y133.04 E7.35361
G1 X128.536 Y133.231 E7.38789
G1 X127.446 Y133.392 E7.42454
G1 X126.16 Y133.474 E7.4674
G1 X125.615 Y133.488 E7.48553
G1 X124.551 Y133.468 E7.52093
G1 X122.971 Y133.3 E7.57378
G1 X122.453 Y133.221 E7.5912
G1 X121.726 Y133.078 E7.61585
G1 X121.221 Y132.963 E7.63307
G1 X120.39 Y132.738 E7.66171
G1 X119.888 Y132.579 E7.67922
G1 X118.687 Y132.132 E7.72184
G1 X118.193 Y131.921 E7.73971
G1 X117.038 Y131.374 E7.78222
G1 X116.132 Y130.855 E7.81694
G1 X115.561 Y130.494 E7.83941
G1 X114.523 Y129.777 E7.88137
G1 X112.569 Y128.401 E7.96086
G1 X110.283 Y126.886 E8.05207
G1 X107.965 Y125.442 E8.14291
G1 X105.577 Y124.048 E8.23487
G1 X103.208 Y122.752 E8.32469
G1 X100.719 Y121.48 E8.41766
G1 X98.5 Y120.42 E8.49945
G1 X97.896 Y120.075 E8.52258
G1 X97.266 Y119.469 E8.55166
G1 X95.527 Y117.729 E8.63348
G1 X95.06 Y117.249 E8.65575
G1 X94.687 Y116.787 E8.6755
G1 X94.38 Y116.237 E8.69645
G1 X94.098 Y115.329 E8.72808
G1 X93.549 Y113.446 E8.79331
G1 X93.342 Y112.698 E8.81913
G1 X93.246 Y112.202 E8.83593
G1 X93.229 Y111.697 E8.85273
G1 X93.341 Y110.996 E8.87635
G1 X93.56 Y110.199 E8.90384
G1 X94.084 Y108.408 E8.9659
G1 X94.315 Y107.66 E8.99194
G1 X94.512 Y107.195 E9.00874
G1 X94.837 Y106.68 E9.02899
G1 X95.371 Y106.095 E9.05534
G1 X96.972 Y104.405 E9.13276
G1 X97.437 Y103.928 E9.15492
M204 S2000
M205 X10 Y10
G1 F2700 E8.15492
G0 F3000 X99.831 Y106.33
M204 S1000
M205 X8 Y8
G1 F2700 E9.15492
G1 F2400 X103.031 Y105.433 E9.26545
G1 X106.231 Y106.33 E9.37599
G1 X108.543 Y108.771 E9.48781
G1 X109.44 Y111.844 E9.59429
G1 X108.544 Y115.045 E9.70485
G1 X106.233 Y117.356 E9.81355
G1 X103.032 Y118.252 E9.92411
G1 X99.959 Y117.354 E10.03059
G1 X97.52 Y114.915 E10.14531
G1 X96.622 Y111.843 E10.25176
G1 X97.519 Y108.771 E10.3582
G1 X99.831 Y106.33 E10.47003
M204 S2000
M205 X10 Y10
G0 F3000 X100.046 Y106.685
M204 S1000
M205 X8 Y8
G1 F2400 X103.031 Y105.848 E10.57314
G1 X106.016 Y106.685 E10.67625
G1 X108.186 Y108.976 E10.78121
G1 X109.024 Y111.847 E10.88068
G1 X108.187 Y114.836 E10.98392
G1 X106.024 Y116.999 E11.08566
G1 X103.035 Y117.836 E11.1889
G1 X100.17 Y116.999 E11.28817
G1 X97.875 Y114.704 E11.39612
G1 X97.039 Y111.843 E11.49526
G1 X97.876 Y108.976 E11.5946
G1 X100.046 Y106.685 E11.69955
M204 S2000
M205 X10 Y10
G0 F3000 X100.26 Y107.04
M204 S1000
M205 X8 Y8
G1 F2400 X103.031 Y106.264 E11.79526
G1 X105.802 Y107.04 E11.89097
G1 X107.829 Y109.181 E11.98903
G1 X108.608 Y111.849 E12.08147
G1 X107.831 Y114.626 E12.17738
G1 X105.815 Y116.642 E12.27221
G1 X103.038 Y117.42 E12.36813
G1 X100.381 Y116.644 E12.46019
G1 X98.23 Y114.493 E12.56137
G1 X97.456 Y111.843 E12.65319
G1 X98.233 Y109.181 E12.74543
G1 X100.26 Y107.04 E12.84349
M204 S2000
M205 X10 Y10
G1 F2700 E11.84349
G0 F3000 X116.957 Y112.041
M204 S1000
M205 X8 Y8
G1 F2700 E12.84349
G1 F2400 X117.464 Y111.506 E12.868
G1 X118.211 Y111.297 E12.8938
G1 X118.315 Y111.227 E12.89797
G1 X118.349 Y111.048 E12.90403
G1 X118.125 Y110.285 E12.93048
G1 X118.321 Y109.616 E12.95367
G1 X118.828 Y109.08 E12.97821
G1 X119.524 Y108.885 E13.00225
G1 X120.22 Y109.08 E13.02629
G1 X120.727 Y109.616 E13.05083
G1 X120.923 Y110.286 E13.07404
G1 X120.729 Y110.982 E13.09808
G1 X120.221 Y111.489 E13.12195
G1 X119.474 Y111.698 E13.14775
G1 X119.37 Y111.768 E13.15192
G1 X119.336 Y111.947 E13.15798
G1 X119.559 Y112.711 E13.18445
G1 X119.364 Y113.407 E13.20849
G1 X119.017 Y113.755 E13.22483
G1 X118.961 Y113.866 E13.22897
G1 X118.967 Y113.952 E13.23184
G1 X119.146 Y114.564 E13.25304
G1 X118.952 Y115.259 E13.27704
G1 X118.444 Y115.767 E13.30094
G1 X117.749 Y115.961 E13.32494
G1 X117.08 Y115.765 E13.34812
G1 X116.544 Y115.229 E13.37334
G1 X116.348 Y114.562 E13.39646
G1 X116.544 Y113.893 E13.41964
G1 X116.895 Y113.521 E13.43665
G1 X116.949 Y113.408 E13.44082
G1 X116.942 Y113.328 E13.44349
G1 X116.761 Y112.71 E13.46491
G1 X116.957 Y112.041 E13.4881
M204 S2000
M205 X10 Y10
G0 F3000 X117.313 Y112.247
M204 S1000
M205 X8 Y8
G1 F2400 X117.679 Y111.86 E13.50581
G1 X118.318 Y111.682 E13.52787
G1 X118.514 Y111.586 E13.53513
G1 X118.663 Y111.426 E13.54241
G1 X118.745 Y111.224 E13.54966
G1 X118.733 Y110.935 E13.55928
G1 X118.542 Y110.284 E13.58184
G1 X118.677 Y109.822 E13.59785
G1 X119.043 Y109.435 E13.61557
G1 X119.524 Y109.3 E13.63218
G1 X120.005 Y109.435 E13.6488
G1 X120.371 Y109.822 E13.66652
G1 X120.507 Y110.29 E13.68273
G1 X120.373 Y110.772 E13.69936
G1 X120.012 Y111.132 E13.71632
G1 X119.366 Y111.313 E13.73864
G1 X119.17 Y111.409 E13.74589
G1 X119.022 Y111.569 E13.75314
G1 X118.94 Y111.771 E13.76039
G1 X118.952 Y112.059 E13.76998
G1 X119.143 Y112.714 E13.79267
G1 X119.007 Y113.198 E13.8094
G1 X118.734 Y113.472 E13.82226
G1 X118.611 Y113.652 E13.82951
G1 X118.56 Y113.864 E13.83676
G1 X118.583 Y114.064 E13.84346
G1 X118.73 Y114.568 E13.86092
G1 X118.595 Y115.05 E13.87757
G1 X118.235 Y115.41 E13.8945
G1 X117.752 Y115.545 E13.91118
G1 X117.291 Y115.41 E13.92716
G1 X116.899 Y115.018 E13.9456
G1 X116.765 Y114.561 E13.96144
G1 X116.901 Y114.099 E13.97746
G1 X117.186 Y113.796 E13.99129
G1 X117.305 Y113.613 E13.99855
G1 X117.35 Y113.399 E14.00583
G1 X117.326 Y113.216 E14.01196
G1 X117.178 Y112.71 E14.0295
G1 X117.313 Y112.247 E14.04554
M204 S2000
M205 X10 Y10
G0 F3000 X117.67 Y112.451
M204 S1000
M205 X8 Y8
G1 F2400 X117.893 Y112.216 E14.05631
G1 X118.426 Y112.067 E14.07472
G1 X118.537 Y112.018 E14.07876
G1 X118.568 Y112.171 E14.08395
G1 X118.727 Y112.716 E14.10283
G1 X118.65 Y112.99 E14.1123
G1 X118.451 Y113.19 E14.12168
G1 X118.282 Y113.416 E14.13107
G1 X118.183 Y113.68 E14.14045
G1 X118.161 Y113.961 E14.14982
G1 X118.199 Y114.176 E14.15708
G1 X118.314 Y114.57 E14.17073
G1 X118.239 Y114.84 E14.18005
G1 X118.026 Y115.053 E14.19007
G1 X117.755 Y115.129 E14.19943
G1 X117.502 Y115.055 E14.2082
G1 X117.254 Y114.807 E14.21987
G1 X117.182 Y114.561 E14.22839
G1 X117.258 Y114.302 E14.23737
G1 X117.477 Y114.07 E14.24798
G1 X117.64 Y113.84 E14.25736
G1 X117.732 Y113.573 E14.26675
G1 X117.746 Y113.291 E14.27614
G1 X117.71 Y113.103 E14.28251
G1 X117.595 Y112.709 E14.29616
G1 X117.67 Y112.451 E14.30509
M204 S2000
M205 X10 Y10
G1 F2700 E13.30509
G0 F3000 X119.148 Y110.977
M204 S1000
M205 X8 Y8
G1 F2700 E14.30509
G1 F2400 X119.117 Y110.823 E14.31032
G1 X118.959 Y110.284 E14.329
G1 X119.034 Y110.026 E14.33794
G1 X119.257 Y109.791 E14.34871
G1 X119.524 Y109.716 E14.35794
G1 X119.791 Y109.791 E14.36716
G1 X120.013 Y110.026 E14.37791
G1 X120.091 Y110.293 E14.38717
G1 X120.015 Y110.564 E14.39653
G1 X119.804 Y110.776 E14.40647
G1 X119.259 Y110.928 E14.42529
G1 X119.148 Y110.977 E14.42933
M204 S2000
M205 X10 Y10
G1 F2700 E13.42933
G0 F3000 X121.371 Y112.578
M204 S1000
M205 X8 Y8
G1 F2700 E14.42933
G1 F2400 X122.067 Y112.383 E14.45337
G1 X122.763 Y112.578 E14.47741
G1 X123.27 Y113.114 E14.50195
G1 X123.466 Y113.784 E14.52517
G1 X123.272 Y114.48 E14.5492
G1 X122.763 Y114.988 E14.57312
G1 X122.069 Y115.182 E14.59708
G1 X121.4 Y114.986 E14.62027
G1 X120.864 Y114.45 E14.64548
G1 X120.668 Y113.783 E14.6686
G1 X120.864 Y113.114 E14.69179
G1 X121.371 Y112.578 E14.71633
M204 S2000
M205 X10 Y10
G0 F3000 X121.586 Y112.933
M204 S1000
M205 X8 Y8
G1 F2400 X122.067 Y112.798 E14.73295
G1 X122.548 Y112.933 E14.74956
G1 X122.914 Y113.32 E14.76728
G1 X123.05 Y113.788 E14.78349
G1 X122.916 Y114.27 E14.80013
G1 X122.554 Y114.632 E14.81716
G1 X122.072 Y114.766 E14.8338
G1 X121.611 Y114.631 E14.84977
G1 X121.219 Y114.239 E14.86821
G1 X121.085 Y113.782 E14.88405
G1 X121.22 Y113.32 E14.90006
G1 X121.586 Y112.933 E14.91778
M204 S2000
M205 X10 Y10
G0 F3000 X121.8 Y113.289
M204 S1000
M205 X8 Y8
G1 F2400 X122.067 Y113.214 E14.927
G1 X122.334 Y113.289 E14.93622
G1 X122.556 Y113.524 E14.94698
G1 X122.634 Y113.791 E14.95623
G1 X122.559 Y114.061 E14.96555
G1 X122.345 Y114.275 E14.97561
G1 X122.075 Y114.35 E14.98493
G1 X121.822 Y114.276 E14.9937
G1 X121.574 Y114.028 E15.00537
G1 X121.502 Y113.782 E15.01389
G1 X121.577 Y113.524 E15.02283
G1 X121.8 Y113.289 E15.0336
M204 S2000
M205 X10 Y10
G1 F2700 E14.0336
G0 F3000 X122.067 Y116.983
M204 S1000
M205 X8 Y8
G1 F2700 E15.0336
G1 F2400 X122.763 Y117.178 E15.05764
G1 X123.27 Y117.714 E15.08218
G1 X123.466 Y118.384 E15.1054
G1 X123.272 Y119.08 E15.12943
G1 X122.764 Y119.587 E15.1533
G1 X122.068 Y119.782 E15.17734
G1 X121.4 Y119.586 E15.2005
G1 X120.864 Y119.05 E15.22571
G1 X120.668 Y118.383 E15.24883
G1 X120.864 Y117.714 E15.27202
G1 X121.371 Y117.178 E15.29656
G1 X122.067 Y116.983 E15.3206
M204 S2000
M205 X10 Y10
G0 F3000 X122.067 Y117.398
M204 S1000
M205 X8 Y8
G1 F2400 X122.548 Y117.533 E15.33722
G1 X122.914 Y117.92 E15.35493
G1 X123.05 Y118.388 E15.37114
G1 X122.916 Y118.87 E15.38778
G1 X122.555 Y119.23 E15.40474
G1 X122.072 Y119.366 E15.42143
G1 X121.611 Y119.231 E15.4374
G1 X121.219 Y118.839 E15.45584
G1 X121.085 Y118.382 E15.47168
G1 X121.22 Y117.92 E15.48769
G1 X121.586 Y117.533 E15.50541
G1 X122.067 Y117.398 E15.52202
M204 S2000
M205 X10 Y10
G0 F3000 X122.067 Y117.814
M204 S1000
M205 X8 Y8
G1 F2400 X122.334 Y117.889 E15.53125
G1 X122.556 Y118.124 E15.542
G1 X122.634 Y118.391 E15.55125
G1 X122.558 Y118.662 E15.56061
G1 X122.347 Y118.873 E15.57054
G1 X122.074 Y118.95 E15.57997
G1 X121.822 Y118.876 E15.58871
G1 X121.574 Y118.628 E15.60037
G1 X121.502 Y118.382 E15.6089
