;FLAVOR:Marlin
;TIME:1209
;Filament used: 1.34953m
;Layer height: 0.2
;MINX:88.937
;MINY:104.875
;MINZ:0.2
;MAXX:141.063
;MAXY:125.125
;MAXZ:6.4
;TARGET_MACHINE.NAME:Anycubic Kobra
;Generated with Cura_SteamEngine 5.10.1
M140 S60
M105
M190 S60
M104 S200
M105
M109 S200
G21 ;metric values
G90 ;absolute positioning
M82 ;set extruder to absolute mode
M107 ;start with the fan off
M117 Homing X/Y ...
G28 X0 Y0 ;move X/Y to min endstops
M117 Homing Z ...
G28 Z0 ;move Z to min endstops
G1 Z15.0 F240 ;move the platform down 15mm
M117 Heating ...
M104 S[first_layer_temperature]
; set extruder temp
M109 S[first_layer_temperature]
; wait for extruder temp
M117 Start cleaning ...
M420 S1 ; Enable Bed Levelling Mesh
G92 E0 ;zero the extruded length
M413 S0 ; disable power loss recovery - may reduce blobbing and avoid unexpected recovery
; M500 ; store eeprom settings
M117 Intro line ...
G1 Z2.0 F3000 ; Move Z Axis up little to prevent scratching of Heat Bed
G1 X0.1 Y20 Z[first_layer_height] F5000.0 ; Move to start position
G1 X0.1 Y200.0 Z[first_layer_height] F1500.0 E15 ; Draw the first line
G1 X0.4 Y200.0 Z[first_layer_height] F5000.0 ; Move to side a little
G1 X0.4 Y20 Z0.3[first_layer_height] F1500.0 E30 ; Draw the second line
G92 E0 ; Reset Extruder
G1 X5 Y20 Z0.3 F240 ; Move over to prevent blob squish
G92 E0 ; Reset Extruder
M420 S1 ; Enable Bed Levelling Mesh
M117 Printing...
M82 ;absolute extrusion mode
G92 E0
G92 E0
G1 F3600 E-4
;LAYER_COUNT:32
;LAYER:0
M107
M204 S2000
M205 X10 Y10
G0 X90.113 Y105.918 Z0.2
M204 S1000
M205 X8 Y8
;TYPE:SKIRT
G1 F3600 E0
G1 F1200 X90.569 Y105.548 E0.02441
G1 X91.007 Y105.288 E0.04559
G1 X91.626 Y105.041 E0.0733
G1 X92.123 Y104.929 E0.09448
G1 X92.711 Y104.876 E0.11903
G1 X136.66 Y104.875 E1.94621
G1 X137.398 Y104.887 E1.9769
G1 X137.981 Y104.948 E2.00127
G1 X138.55 Y105.099 E2.02574
G1 X139.087 Y105.337 E2.05016
G1 X139.58 Y105.656 E2.07458
G1 X139.963 Y105.992 E2.09576
G1 X140.343 Y106.44 E2.12018
G1 X140.649 Y106.943 E2.14466
G1 X140.896 Y107.561 E2.17233
G1 X141.008 Y108.058 E2.19351
G1 X141.062 Y108.646 E2.21806
G1 X141.063 Y120.691 E2.71883
G1 X141.051 Y121.457 E2.75069
G1 X141.004 Y121.964 E2.77185
G1 X140.864 Y122.536 E2.79634
G1 X140.602 Y123.147 E2.82398
G1 X140.283 Y123.641 E2.84842
G1 X139.947 Y124.024 E2.86961
G1 X139.499 Y124.404 E2.89403
G1 X138.996 Y124.71 E2.91851
G1 X138.379 Y124.957 E2.94614
G1 X137.882 Y125.07 E2.96733
G1 X137.291 Y125.124 E2.992
G1 X93.34 Y125.125 E4.81927
G1 X92.602 Y125.113 E4.84996
G1 X92.019 Y125.052 E4.87433
G1 X91.45 Y124.901 E4.89881
G1 X90.913 Y124.663 E4.92323
G1 X90.42 Y124.344 E4.94764
G1 X90.037 Y124.008 E4.96882
G1 X89.657 Y123.56 E4.99324
G1 X89.351 Y123.057 E5.01772
G1 X89.104 Y122.439 E5.04539
G1 X88.992 Y121.942 E5.06657
G1 X88.938 Y121.35 E5.09129
G1 X88.937 Y109.242 E5.59468
G1 X88.949 Y108.538 E5.62395
G1 X88.997 Y108.031 E5.64513
G1 X89.162 Y107.386 E5.67281
G1 X89.401 Y106.848 E5.69728
G1 X89.72 Y106.356 E5.72166
G1 X90.113 Y105.918 E5.74612
M204 S2000
M205 X10 Y10
G0 F3600 X90.432 Y106.303
M204 S1000
M205 X8 Y8
G1 F1200 X90.824 Y105.978 E5.7673
G1 X91.262 Y105.718 E5.78847
G1 X91.736 Y105.529 E5.80969
G1 X92.233 Y105.417 E5.83087
G1 X92.711 Y105.376 E5.85081
G1 X136.653 Y105.375 E7.67771
G1 X137.351 Y105.385 E7.70673
G1 X137.858 Y105.433 E7.72791
G1 X138.352 Y105.558 E7.74909
G1 X138.82 Y105.76 E7.77028
G1 X139.25 Y106.032 E7.79144
G1 X139.633 Y106.368 E7.81262
G1 X139.959 Y106.76 E7.83382
G1 X140.219 Y107.198 E7.85499
G1 X140.408 Y107.671 E7.87617
G1 X140.52 Y108.168 E7.89735
G1 X140.562 Y108.646 E7.9173
G1 X140.563 Y120.684 E8.41778
G1 X140.553 Y121.411 E8.44801
G1 X140.506 Y121.918 E8.46918
G1 X140.38 Y122.412 E8.49037
G1 X140.179 Y122.88 E8.51155
G1 X139.907 Y123.311 E8.53274
G1 X139.571 Y123.694 E8.55392
G1 X139.179 Y124.02 E8.57512
G1 X138.741 Y124.28 E8.59629
G1 X138.268 Y124.469 E8.61747
G1 X137.771 Y124.582 E8.63866
G1 X137.291 Y124.624 E8.65869
G1 X93.347 Y124.625 E10.48567
G1 X92.649 Y124.615 E10.5147
G1 X92.142 Y124.567 E10.53587
G1 X91.648 Y124.442 E10.55705
G1 X91.18 Y124.24 E10.57825
G1 X90.75 Y123.968 E10.5994
G1 X90.367 Y123.632 E10.62058
G1 X90.041 Y123.24 E10.64178
G1 X89.781 Y122.802 E10.66296
G1 X89.592 Y122.329 E10.68413
G1 X89.48 Y121.832 E10.70531
G1 X89.438 Y121.35 E10.72543
G1 X89.437 Y109.25 E11.22849
G1 X89.447 Y108.585 E11.25614
G1 X89.495 Y108.078 E11.27731
G1 X89.621 Y107.584 E11.29851
G1 X89.823 Y107.116 E11.3197
G1 X90.096 Y106.686 E11.34088
G1 X90.432 Y106.303 E11.36206
M204 S2000
M205 X10 Y10
G1 F3600 E7.36206
;MESH:ballista-pX.stl
G0 X93.211 Y107.96
G0 X137.062 Y121.122
M204 S1000
M205 X8 Y8
;TYPE:WALL-OUTER
G1 F3600 E11.36206
G1 F1200 X137.062 Y108.874 E11.87127
G1 X92.934 Y108.874 E13.7059
G1 X92.934 Y121.122 E14.21511
G1 X137.062 Y121.122 E16.04974
M204 S2000
M205 X10 Y10
G0 F3600 X137.062 Y120.872
G0 X136.562 Y120.622
M204 S1000
M205 X8 Y8
;TYPE:WALL-INNER
G1 F1200 X136.562 Y109.374 E16.51738
G1 X93.434 Y109.374 E18.31043
G1 X93.434 Y120.622 E18.77807
G1 X136.562 Y120.622 E20.57112
M204 S2000
M205 X10 Y10
G0 F3600 X136.086 Y120.146
M204 S1000
M205 X8 Y8
;TYPE:SKIN
G1 F1200 X136.086 Y109.846 E20.99935
G1 X93.906 Y109.846 E22.75299
G1 X93.906 Y120.146 E23.18121
G1 X136.086 Y120.146 E24.93485
M204 S2000
M205 X10 Y10
G0 F3600 X135.836 Y110.38
M204 S1000
M205 X8 Y8
G1 F1200 X135.552 Y110.096 E24.95155
M204 S2000
M205 X10 Y10
G0 F3600 X134.845 Y110.096
M204 S1000
M205 X8 Y8
G1 F1200 X135.836 Y111.087 E25.00982
M204 S2000
M205 X10 Y10
G0 F3600 X135.836 Y111.794
M204 S1000
M205 X8 Y8
G1 F1200 X134.137 Y110.096 E25.10968
M204 S2000
M205 X10 Y10
G0 F3600 X133.43 Y110.096
M204 S1000
M205 X8 Y8
G1 F1200 X135.836 Y112.501 E25.25112
M204 S2000
M205 X10 Y10
G0 F3600 X135.836 Y113.209
M204 S1000
M205 X8 Y8
G1 F1200 X132.723 Y110.096 E25.43415
M204 S2000
M205 X10 Y10
G0 F3600 X132.016 Y110.096
M204 S1000
M205 X8 Y8
G1 F1200 X135.836 Y113.916 E25.65875
M204 S2000
M205 X10 Y10
G0 F3600 X135.836 Y114.623
M204 S1000
M205 X8 Y8
G1 F1200 X131.309 Y110.096 E25.92492
M204 S2000
M205 X10 Y10
G0 F3600 X130.602 Y110.096
M204 S1000
M205 X8 Y8
G1 F1200 X135.836 Y115.33 E26.23266
M204 S2000
M205 X10 Y10
G0 F3600 X135.836 Y116.037
M204 S1000
M205 X8 Y8
G1 F1200 X129.895 Y110.096 E26.58197
M204 S2000
M205 X10 Y10
G0 F3600 X129.188 Y110.096
M204 S1000
M205 X8 Y8
G1 F1200 X135.836 Y116.744 E26.97285
M204 S2000
M205 X10 Y10
G0 F3600 X135.836 Y117.451
M204 S1000
M205 X8 Y8
G1 F1200 X128.481 Y110.096 E27.40529
M204 S2000
M205 X10 Y10
G0 F3600 X127.773 Y110.096
M204 S1000
M205 X8 Y8
G1 F1200 X135.836 Y118.158 E27.87934
M204 S2000
M205 X10 Y10
G0 F3600 X135.836 Y118.865
M204 S1000
M205 X8 Y8
G1 F1200 X127.066 Y110.096 E28.39495
M204 S2000
M205 X10 Y10
G0 F3600 X126.359 Y110.096
M204 S1000
M205 X8 Y8
G1 F1200 X135.836 Y119.572 E28.95213
M204 S2000
M205 X10 Y10
G0 F3600 X135.453 Y119.896
M204 S1000
M205 X8 Y8
G1 F1200 X125.652 Y110.096 E29.52836
M204 S2000
M205 X10 Y10
G0 F3600 X124.945 Y110.096
M204 S1000
M205 X8 Y8
G1 F1200 X134.746 Y119.896 E30.1046
M204 S2000
M205 X10 Y10
G0 F3600 X134.038 Y119.896
M204 S1000
M205 X8 Y8
G1 F1200 X124.238 Y110.096 E30.6808
M204 S2000
M205 X10 Y10
G0 F3600 X123.531 Y110.096
M204 S1000
M205 X8 Y8
G1 F1200 X133.331 Y119.896 E31.257
M204 S2000
M205 X10 Y10
G0 F3600 X132.624 Y119.896
M204 S1000
M205 X8 Y8
G1 F1200 X122.824 Y110.096 E31.8332
M204 S2000
M205 X10 Y10
G0 F3600 X122.117 Y110.096
M204 S1000
M205 X8 Y8
G1 F1200 X131.917 Y119.896 E32.40941
M204 S2000
M205 X10 Y10
G0 F3600 X131.21 Y119.896
M204 S1000
M205 X8 Y8
G1 F1200 X121.41 Y110.096 E32.98561
M204 S2000
M205 X10 Y10
G0 F3600 X120.702 Y110.096
M204 S1000
M205 X8 Y8
G1 F1200 X130.503 Y119.896 E33.56184
M204 S2000
M205 X10 Y10
G0 F3600 X129.796 Y119.896
M204 S1000
M205 X8 Y8
G1 F1200 X119.995 Y110.096 E34.13807
M204 S2000
M205 X10 Y10
G0 F3600 X119.288 Y110.096
M204 S1000
M205 X8 Y8
G1 F1200 X129.089 Y119.896 E34.7143
M204 S2000
M205 X10 Y10
G0 F3600 X128.382 Y119.896
M204 S1000
M205 X8 Y8
G1 F1200 X118.581 Y110.096 E35.29053
M204 S2000
M205 X10 Y10
G0 F3600 X117.874 Y110.096
M204 S1000
M205 X8 Y8
G1 F1200 X127.674 Y119.896 E35.86674
M204 S2000
M205 X10 Y10
G0 F3600 X126.967 Y119.896
M204 S1000
M205 X8 Y8
G1 F1200 X117.167 Y110.096 E36.44294
M204 S2000
M205 X10 Y10
G0 F3600 X116.46 Y110.096
M204 S1000
M205 X8 Y8
G1 F1200 X126.26 Y119.896 E37.01914
M204 S2000
M205 X10 Y10
G0 F3600 X125.553 Y119.896
M204 S1000
M205 X8 Y8
G1 F1200 X115.753 Y110.096 E37.59534
M204 S2000
M205 X10 Y10
G0 F3600 X115.046 Y110.096
M204 S1000
M205 X8 Y8
G1 F1200 X124.846 Y119.896 E38.17155
M204 S2000
M205 X10 Y10
G0 F3600 X124.139 Y119.896
M204 S1000
M205 X8 Y8
G1 F1200 X114.338 Y110.096 E38.74778
M204 S2000
M205 X10 Y10
G0 F3600 X113.631 Y110.096
M204 S1000
M205 X8 Y8
G1 F1200 X123.432 Y119.896 E39.32401
M204 S2000
M205 X10 Y10
G0 F3600 X122.725 Y119.896
M204 S1000
M205 X8 Y8
G1 F1200 X112.924 Y110.096 E39.90024
M204 S2000
M205 X10 Y10
G0 F3600 X112.217 Y110.096
M204 S1000
M205 X8 Y8
G1 F1200 X122.018 Y119.896 E40.47647
M204 S2000
M205 X10 Y10
G0 F3600 X121.311 Y119.896
M204 S1000
M205 X8 Y8
G1 F1200 X111.51 Y110.096 E41.05271
M204 S2000
M205 X10 Y10
G0 F3600 X110.803 Y110.096
M204 S1000
M205 X8 Y8
G1 F1200 X120.603 Y119.896 E41.62891
M204 S2000
M205 X10 Y10
G0 F3600 X119.896 Y119.896
M204 S1000
M205 X8 Y8
G1 F1200 X110.096 Y110.096 E42.20511
M204 S2000
M205 X10 Y10
G0 F3600 X109.389 Y110.096
M204 S1000
M205 X8 Y8
G1 F1200 X119.189 Y119.896 E42.78131
M204 S2000
M205 X10 Y10
G0 F3600 X118.482 Y119.896
M204 S1000
M205 X8 Y8
G1 F1200 X108.682 Y110.096 E43.35752
M204 S2000
M205 X10 Y10
G0 F3600 X107.974 Y110.096
M204 S1000
M205 X8 Y8
G1 F1200 X117.775 Y119.896 E43.93375
M204 S2000
M205 X10 Y10
G0 F3600 X117.068 Y119.896
M204 S1000
M205 X8 Y8
G1 F1200 X107.267 Y110.096 E44.50998
M204 S2000
M205 X10 Y10
G0 F3600 X106.56 Y110.096
M204 S1000
M205 X8 Y8
G1 F1200 X116.361 Y119.896 E45.08621
M204 S2000
M205 X10 Y10
G0 F3600 X115.654 Y119.896
M204 S1000
M205 X8 Y8
G1 F1200 X105.853 Y110.096 E45.66244
M204 S2000
M205 X10 Y10
G0 F3600 X105.146 Y110.096
M204 S1000
M205 X8 Y8
G1 F1200 X114.947 Y119.896 E46.23868
M204 S2000
M205 X10 Y10
G0 F3600 X114.239 Y119.896
M204 S1000
M205 X8 Y8
G1 F1200 X104.439 Y110.096 E46.81488
M204 S2000
M205 X10 Y10
G0 F3600 X103.732 Y110.096
M204 S1000
M205 X8 Y8
G1 F1200 X113.532 Y119.896 E47.39108
M204 S2000
M205 X10 Y10
G0 F3600 X112.825 Y119.896
M204 S1000
M205 X8 Y8
G1 F1200 X103.025 Y110.096 E47.96728
M204 S2000
M205 X10 Y10
G0 F3600 X102.318 Y110.096
M204 S1000
M205 X8 Y8
G1 F1200 X112.118 Y119.896 E48.54349
M204 S2000
M205 X10 Y10
G0 F3600 X111.411 Y119.896
M204 S1000
M205 X8 Y8
G1 F1200 X101.611 Y110.096 E49.11969
M204 S2000
M205 X10 Y10
G0 F3600 X100.903 Y110.096
M204 S1000
M205 X8 Y8
G1 F1200 X110.704 Y119.896 E49.69592
M204 S2000
M205 X10 Y10
G0 F3600 X109.997 Y119.896
M204 S1000
M205 X8 Y8
G1 F1200 X100.196 Y110.096 E50.27215
M204 S2000
M205 X10 Y10
G0 F3600 X99.489 Y110.096
M204 S1000
M205 X8 Y8
G1 F1200 X109.29 Y119.896 E50.84838
M204 S2000
M205 X10 Y10
G0 F3600 X108.583 Y119.896
M204 S1000
M205 X8 Y8
G1 F1200 X98.782 Y110.096 E51.42461
M204 S2000
M205 X10 Y10
G0 F3600 X98.075 Y110.096
M204 S1000
M205 X8 Y8
G1 F1200 X107.876 Y119.896 E52.00085
M204 S2000
M205 X10 Y10
G0 F3600 X107.168 Y119.896
M204 S1000
M205 X8 Y8
G1 F1200 X97.368 Y110.096 E52.57705
M204 S2000
M205 X10 Y10
G0 F3600 X96.661 Y110.096
M204 S1000
M205 X8 Y8
G1 F1200 X106.461 Y119.896 E53.15325
M204 S2000
M205 X10 Y10
G0 F3600 X105.754 Y119.896
M204 S1000
M205 X8 Y8
G1 F1200 X95.954 Y110.096 E53.72945
M204 S2000
M205 X10 Y10
G0 F3600 X95.247 Y110.096
M204 S1000
M205 X8 Y8
G1 F1200 X105.047 Y119.896 E54.30566
M204 S2000
M205 X10 Y10
G0 F3600 X104.34 Y119.896
M204 S1000
M205 X8 Y8
G1 F1200 X94.539 Y110.096 E54.88189
M204 S2000
M205 X10 Y10
G0 F3600 X94.156 Y110.42
M204 S1000
M205 X8 Y8
G1 F1200 X103.633 Y119.896 E55.43907
M204 S2000
M205 X10 Y10
G0 F3600 X102.926 Y119.896
M204 S1000
M205 X8 Y8
G1 F1200 X94.156 Y111.127 E55.95468
M204 S2000
M205 X10 Y10
G0 F3600 X94.156 Y111.834
M204 S1000
M205 X8 Y8
G1 F1200 X102.219 Y119.896 E56.42873
M204 S2000
M205 X10 Y10
G0 F3600 X101.512 Y119.896
M204 S1000
M205 X8 Y8
G1 F1200 X94.156 Y112.541 E56.8612
M204 S2000
M205 X10 Y10
G0 F3600 X94.156 Y113.248
M204 S1000
M205 X8 Y8
G1 F1200 X100.804 Y119.896 E57.25208
M204 S2000
M205 X10 Y10
G0 F3600 X100.097 Y119.896
M204 S1000
M205 X8 Y8
G1 F1200 X94.156 Y113.955 E57.60139
M204 S2000
M205 X10 Y10
G0 F3600 X94.156 Y114.662
M204 S1000
M205 X8 Y8
G1 F1200 X99.39 Y119.896 E57.90913
M204 S2000
M205 X10 Y10
G0 F3600 X98.683 Y119.896
M204 S1000
M205 X8 Y8
G1 F1200 X94.156 Y115.369 E58.1753
M204 S2000
M205 X10 Y10
G0 F3600 X94.156 Y116.077
M204 S1000
M205 X8 Y8
G1 F1200 X97.976 Y119.896 E58.39987
M204 S2000
M205 X10 Y10
G0 F3600 X97.269 Y119.896
M204 S1000
M205 X8 Y8
G1 F1200 X94.156 Y116.784 E58.58287
M204 S2000
M205 X10 Y10
G0 F3600 X94.156 Y117.491
M204 S1000
M205 X8 Y8
G1 F1200 X96.562 Y119.896 E58.72431
M204 S2000
M205 X10 Y10
G0 F3600 X95.855 Y119.896
M204 S1000
M205 X8 Y8
G1 F1200 X94.156 Y118.198 E58.82417
M204 S2000
M205 X10 Y10
G0 F3600 X94.156 Y118.905
M204 S1000
M205 X8 Y8
G1 F1200 X95.148 Y119.896 E58.88247
M204 S2000
M205 X10 Y10
G0 F3600 X94.44 Y119.896
M204 S1000
M205 X8 Y8
G1 F1200 X94.156 Y119.612 E58.89917
M204 S2000
M205 X10 Y10
G0 F3600 X94.197 Y119.612
G1 F3600 E54.89917
;MESH:NONMESH
G0 F600 X94.197 Y119.612 Z0.4
G0 F3600 X93.211 Y109.149
G0 X93.211 Y107.96
G0 X90.432 Y106.303
;TIME_ELAPSED:79.731192
;LAYER:1
M106 S255
M204 S1000
M205 X8 Y8
;TYPE:SKIRT
G1 F3600 E58.89917
G1 F1200 X90.824 Y105.978 E58.92034
G1 X91.262 Y105.718 E58.94151
G1 X91.736 Y105.529 E58.96273
G1 X92.233 Y105.417 E58.98391
G1 X92.711 Y105.376 E59.00386
G1 X136.653 Y105.375 E60.83075
G1 X137.351 Y105.385 E60.85977
G1 X137.858 Y105.433 E60.88095
G1 X138.352 Y105.558 E60.90213
G1 X138.82 Y105.76 E60.92332
G1 X139.25 Y106.032 E60.94448
G1 X139.633 Y106.368 E60.96566
G1 X139.959 Y106.76 E60.98686
G1 X140.219 Y107.198 E61.00803
G1 X140.408 Y107.671 E61.02921
G1 X140.52 Y108.168 E61.05039
G1 X140.562 Y108.646 E61.07034
G1 X140.563 Y120.684 E61.57082
G1 X140.553 Y121.411 E61.60105
G1 X140.506 Y121.918 E61.62222
G1 X140.38 Y122.412 E61.64342
G1 X140.179 Y122.88 E61.66459
G1 X139.907 Y123.311 E61.68578
G1 X139.571 Y123.694 E61.70696
G1 X139.179 Y124.02 E61.72816
G1 X138.741 Y124.28 E61.74934
G1 X138.268 Y124.469 E61.77051
G1 X137.771 Y124.582 E61.7917
G1 X137.291 Y124.624 E61.81174
G1 X93.347 Y124.625 E63.63871
G1 X92.649 Y124.615 E63.66774
G1 X92.142 Y124.567 E63.68891
G1 X91.648 Y124.442 E63.7101
G1 X91.18 Y124.24 E63.73129
G1 X90.75 Y123.968 E63.75244
G1 X90.367 Y123.632 E63.77362
G1 X90.041 Y123.24 E63.79482
G1 X89.781 Y122.802 E63.816
G1 X89.592 Y122.329 E63.83717
G1 X89.48 Y121.832 E63.85835
G1 X89.438 Y121.35 E63.87847
G1 X89.437 Y109.25 E64.38153
G1 X89.447 Y108.585 E64.40918
G1 X89.495 Y108.078 E64.43035
G1 X89.621 Y107.584 E64.45155
G1 X89.823 Y107.116 E64.47274
G1 X90.096 Y106.686 E64.49392
G1 X90.432 Y106.303 E64.5151
M204 S3500
M205 X10 Y10
G1 F3600 E60.5151
;MESH:ballista-pX.stl
G0 F5400 X93.211 Y107.96
G0 X93.211 Y109.149
G0 X93.664 Y109.574
M204 S1000
M205 X8 Y8
;TYPE:FILL
G1 F3600 E64.5151
G1 F1800 X104.512 Y120.422 E65.15292
G1 X104.274 Y120.422
G1 X115.122 Y109.574 E65.79074
G1 X114.877 Y109.574
G1 X125.725 Y120.422 E66.42856
G1 X125.487 Y120.422
G1 X136.335 Y109.574 E67.06638
G1 X136.09 Y109.574
G1 X136.362 Y109.846 E67.08238
M204 S3500
M205 X10 Y10
G0 F5400 X136.203 Y109.846
G0 X136.203 Y111.315
G0 X136.362 Y111.315
M204 S1000
M205 X8 Y8
G1 F1800 X127.254 Y120.422 E67.61786
G1 X127.493 Y120.422
G1 X116.645 Y109.574 E68.25568
G1 X116.89 Y109.574
G1 X106.041 Y120.422 E68.89353
G1 X106.28 Y120.422
G1 X95.432 Y109.574 E69.53135
G1 X95.676 Y109.574
G1 X93.634 Y111.616 E69.65141
M204 S3500
M205 X10 Y10
G0 F5400 X93.634 Y111.311
M204 S1000
M205 X8 Y8
G1 F1800 X102.744 Y120.422 E70.18708
G1 X102.506 Y120.422
G1 X113.354 Y109.574 E70.8249
G1 X113.11 Y109.574
G1 X123.957 Y120.422 E71.46269
G1 X123.719 Y120.422
G1 X134.567 Y109.574 E72.10051
G1 X134.323 Y109.574
