;FLAVOR:Marlin
;TIME:5358
;Filament used: 6.20655m
;Layer height: 0.2
;MINX:7.625
;MINY:105.375
;MINZ:0.2
;MAXX:222.375
;MAXY:124.625
;MAXZ:6.4
;TARGET_MACHINE.NAME:Anycubic Kobra
;Generated with Cura_SteamEngine 5.10.1
M140 S60
M105
M190 S60
M104 S200
M105
M109 S200
G21 ;metric values
G90 ;absolute positioning
M82 ;set extruder to absolute mode
M107 ;start with the fan off
M117 Homing X/Y ...
G28 X0 Y0 ;move X/Y to min endstops
M117 Homing Z ...
G28 Z0 ;move Z to min endstops
G1 Z15.0 F240 ;move the platform down 15mm
M117 Heating ...
M104 S[first_layer_temperature]
; set extruder temp
M109 S[first_layer_temperature]
; wait for extruder temp
M117 Start cleaning ...
M420 S1 ; Enable Bed Levelling Mesh
G92 E0 ;zero the extruded length
M413 S0 ; disable power loss recovery - may reduce blobbing and avoid unexpected recovery
; M500 ; store eeprom settings
M117 Intro line ...
G1 Z2.0 F3000 ; Move Z Axis up little to prevent scratching of Heat Bed
G1 X0.1 Y20 Z[first_layer_height] F5000.0 ; Move to start position
G1 X0.1 Y200.0 Z[first_layer_height] F1500.0 E15 ; Draw the first line
G1 X0.4 Y200.0 Z[first_layer_height] F5000.0 ; Move to side a little
G1 X0.4 Y20 Z0.3[first_layer_height] F1500.0 E30 ; Draw the second line
G92 E0 ; Reset Extruder
G1 X5 Y20 Z0.3 F240 ; Move over to prevent blob squish
G92 E0 ; Reset Extruder
M420 S1 ; Enable Bed Levelling Mesh
M117 Printing...
M82 ;absolute extrusion mode
G92 E0
G92 E0
G1 F3600 E-4
;LAYER_COUNT:32
;LAYER:0
M107
M204 S2000
M205 X10 Y10
G0 X10.421 Y105.417 Z0.2
M204 S1000
M205 X8 Y8
;TYPE:SKIRT
G1 F3600 E0
G1 F1200 X10.899 Y105.376 E0.01995
G1 X218.465 Y105.375 E8.64954
G1 X219.163 Y105.385 E8.67856
G1 X219.67 Y105.433 E8.69973
G1 X220.164 Y105.558 E8.72092
G1 X220.632 Y105.76 E8.74211
G1 X221.062 Y106.032 E8.76326
G1 X221.445 Y106.368 E8.78445
G1 X221.771 Y106.76 E8.80564
G1 X222.031 Y107.198 E8.82682
G1 X222.22 Y107.671 E8.848
G1 X222.332 Y108.168 E8.86918
G1 X222.374 Y108.646 E8.88913
G1 X222.375 Y120.684 E9.38961
G1 X222.365 Y121.411 E9.41984
G1 X222.318 Y121.918 E9.44101
G1 X222.192 Y122.412 E9.4622
G1 X221.991 Y122.88 E9.48338
G1 X221.719 Y123.311 E9.50457
G1 X221.383 Y123.694 E9.52575
G1 X220.991 Y124.02 E9.54695
G1 X220.553 Y124.28 E9.56812
G1 X220.08 Y124.469 E9.5893
G1 X219.583 Y124.582 E9.61049
G1 X219.103 Y124.624 E9.63052
G1 X11.535 Y124.625 E18.2602
G1 X10.837 Y124.615 E18.28922
G1 X10.33 Y124.567 E18.31039
G1 X9.836 Y124.442 E18.33158
G1 X9.368 Y124.24 E18.35277
G1 X8.938 Y123.968 E18.37392
G1 X8.555 Y123.632 E18.39511
G1 X8.229 Y123.24 E18.4163
G1 X7.969 Y122.802 E18.43748
G1 X7.78 Y122.329 E18.45866
G1 X7.668 Y121.832 E18.47984
G1 X7.626 Y121.35 E18.49995
G1 X7.625 Y109.25 E19.00301
G1 X7.635 Y108.585 E19.03066
G1 X7.683 Y108.078 E19.05183
G1 X7.809 Y107.584 E19.07303
G1 X8.011 Y107.116 E19.09422
G1 X8.284 Y106.686 E19.1154
G1 X8.62 Y106.303 E19.13658
G1 X9.012 Y105.978 E19.15775
G1 X9.45 Y105.718 E19.17893
G1 X9.924 Y105.529 E19.20014
G1 X10.421 Y105.417 E19.22132
M204 S2000
M205 X10 Y10
G1 F3600 E15.22132
;MESH:ballista-pD.stl
G0 X11.399 Y107.96
G0 X218.874 Y121.122
M204 S1000
M205 X8 Y8
;TYPE:WALL-OUTER
G1 F3600 E19.22132
G1 F1200 X218.874 Y108.874 E19.73054
G1 X11.122 Y108.874 E28.36786
G1 X11.122 Y121.122 E28.87707
G1 X218.874 Y121.122 E37.5144
M204 S2000
M205 X10 Y10
G0 F3600 X218.874 Y120.872
G0 X218.374 Y120.622
M204 S1000
M205 X8 Y8
;TYPE:WALL-INNER
G1 F1200 X218.374 Y109.374 E37.98204
G1 X11.622 Y109.374 E46.57779
G1 X11.622 Y120.622 E47.04542
G1 X218.374 Y120.622 E55.64117
M204 S2000
M205 X10 Y10
G0 F3600 X217.898 Y120.146
M204 S1000
M205 X8 Y8
;TYPE:SKIN
G1 F1200 X217.898 Y109.846 E56.0694
G1 X12.094 Y109.846 E64.62573
G1 X12.094 Y120.146 E65.05396
G1 X217.898 Y120.146 E73.61029
M204 S2000
M205 X10 Y10
G0 F3600 X217.648 Y110.168
M204 S1000
M205 X8 Y8
G1 F1200 X217.576 Y110.096 E73.61453
M204 S2000
M205 X10 Y10
G0 F3600 X216.869 Y110.096
M204 S1000
M205 X8 Y8
G1 F1200 X217.648 Y110.875 E73.66033
M204 S2000
M205 X10 Y10
G0 F3600 X217.648 Y111.582
M204 S1000
M205 X8 Y8
G1 F1200 X216.162 Y110.096 E73.7477
M204 S2000
M205 X10 Y10
G0 F3600 X215.455 Y110.096
M204 S1000
M205 X8 Y8
G1 F1200 X217.648 Y112.289 E73.87664
M204 S2000
M205 X10 Y10
G0 F3600 X217.648 Y112.996
M204 S1000
M205 X8 Y8
G1 F1200 X214.748 Y110.096 E74.04715
M204 S2000
M205 X10 Y10
G0 F3600 X214.041 Y110.096
M204 S1000
M205 X8 Y8
G1 F1200 X217.648 Y113.703 E74.25923
M204 S2000
M205 X10 Y10
G0 F3600 X217.648 Y114.411
M204 S1000
M205 X8 Y8
G1 F1200 X213.333 Y110.096 E74.51293
M204 S2000
M205 X10 Y10
G0 F3600 X212.626 Y110.096
M204 S1000
M205 X8 Y8
G1 F1200 X217.648 Y115.118 E74.80821
M204 S2000
M205 X10 Y10
G0 F3600 X217.648 Y115.825
M204 S1000
M205 X8 Y8
G1 F1200 X211.919 Y110.096 E75.14505
M204 S2000
M205 X10 Y10
G0 F3600 X211.212 Y110.096
M204 S1000
M205 X8 Y8
G1 F1200 X217.648 Y116.532 E75.52346
M204 S2000
M205 X10 Y10
G0 F3600 X217.648 Y117.239
M204 S1000
M205 X8 Y8
G1 F1200 X210.505 Y110.096 E75.94344
M204 S2000
M205 X10 Y10
G0 F3600 X209.798 Y110.096
M204 S1000
M205 X8 Y8
G1 F1200 X217.648 Y117.946 E76.40499
M204 S2000
M205 X10 Y10
G0 F3600 X217.648 Y118.653
M204 S1000
M205 X8 Y8
G1 F1200 X209.091 Y110.096 E76.90811
M204 S2000
M205 X10 Y10
G0 F3600 X208.384 Y110.096
M204 S1000
M205 X8 Y8
G1 F1200 X217.648 Y119.36 E77.4528
M204 S2000
M205 X10 Y10
G0 F3600 X217.477 Y119.896
M204 S1000
M205 X8 Y8
G1 F1200 X207.677 Y110.096 E78.029
M204 S2000
M205 X10 Y10
G0 F3600 X206.969 Y110.096
M204 S1000
M205 X8 Y8
G1 F1200 X216.77 Y119.896 E78.60523
M204 S2000
M205 X10 Y10
G0 F3600 X216.063 Y119.896
M204 S1000
M205 X8 Y8
G1 F1200 X206.262 Y110.096 E79.18146
M204 S2000
M205 X10 Y10
G0 F3600 X205.555 Y110.096
M204 S1000
M205 X8 Y8
G1 F1200 X215.356 Y119.896 E79.7577
M204 S2000
M205 X10 Y10
G0 F3600 X214.649 Y119.896
M204 S1000
M205 X8 Y8
G1 F1200 X204.848 Y110.096 E80.33393
M204 S2000
M205 X10 Y10
G0 F3600 X204.141 Y110.096
M204 S1000
M205 X8 Y8
G1 F1200 X213.942 Y119.896 E80.91016
M204 S2000
M205 X10 Y10
G0 F3600 X213.234 Y119.896
M204 S1000
M205 X8 Y8
G1 F1200 X203.434 Y110.096 E81.48636
M204 S2000
M205 X10 Y10
G0 F3600 X202.727 Y110.096
M204 S1000
M205 X8 Y8
G1 F1200 X212.527 Y119.896 E82.06257
M204 S2000
M205 X10 Y10
G0 F3600 X211.82 Y119.896
M204 S1000
M205 X8 Y8
G1 F1200 X202.02 Y110.096 E82.63877
M204 S2000
M205 X10 Y10
G0 F3600 X201.313 Y110.096
M204 S1000
M205 X8 Y8
G1 F1200 X211.113 Y119.896 E83.21497
M204 S2000
M205 X10 Y10
G0 F3600 X210.406 Y119.896
M204 S1000
M205 X8 Y8
G1 F1200 X200.605 Y110.096 E83.7912
M204 S2000
M205 X10 Y10
G0 F3600 X199.898 Y110.096
M204 S1000
M205 X8 Y8
G1 F1200 X209.699 Y119.896 E84.36743
M204 S2000
M205 X10 Y10
G0 F3600 X208.992 Y119.896
M204 S1000
M205 X8 Y8
G1 F1200 X199.191 Y110.096 E84.94367
M204 S2000
M205 X10 Y10
G0 F3600 X198.484 Y110.096
M204 S1000
M205 X8 Y8
G1 F1200 X208.285 Y119.896 E85.5199
M204 S2000
M205 X10 Y10
G0 F3600 X207.578 Y119.896
M204 S1000
M205 X8 Y8
G1 F1200 X197.777 Y110.096 E86.09613
M204 S2000
M205 X10 Y10
G0 F3600 X197.07 Y110.096
M204 S1000
M205 X8 Y8
G1 F1200 X206.87 Y119.896 E86.67233
M204 S2000
M205 X10 Y10
G0 F3600 X206.163 Y119.896
M204 S1000
M205 X8 Y8
G1 F1200 X196.363 Y110.096 E87.24853
M204 S2000
M205 X10 Y10
G0 F3600 X195.656 Y110.096
M204 S1000
M205 X8 Y8
G1 F1200 X205.456 Y119.896 E87.82474
M204 S2000
M205 X10 Y10
G0 F3600 X204.749 Y119.896
M204 S1000
M205 X8 Y8
G1 F1200 X194.949 Y110.096 E88.40094
M204 S2000
M205 X10 Y10
G0 F3600 X194.242 Y110.096
M204 S1000
M205 X8 Y8
G1 F1200 X204.042 Y119.896 E88.97714
M204 S2000
M205 X10 Y10
G0 F3600 X203.335 Y119.896
M204 S1000
M205 X8 Y8
G1 F1200 X193.534 Y110.096 E89.55337
M204 S2000
M205 X10 Y10
G0 F3600 X192.827 Y110.096
M204 S1000
M205 X8 Y8
G1 F1200 X202.628 Y119.896 E90.12961
M204 S2000
M205 X10 Y10
G0 F3600 X201.921 Y119.896
M204 S1000
M205 X8 Y8
G1 F1200 X192.12 Y110.096 E90.70584
M204 S2000
M205 X10 Y10
G0 F3600 X191.413 Y110.096
M204 S1000
M205 X8 Y8
G1 F1200 X201.214 Y119.896 E91.28207
M204 S2000
M205 X10 Y10
G0 F3600 X200.506 Y119.896
M204 S1000
M205 X8 Y8
G1 F1200 X190.706 Y110.096 E91.85827
M204 S2000
M205 X10 Y10
G0 F3600 X189.999 Y110.096
M204 S1000
M205 X8 Y8
G1 F1200 X199.799 Y119.896 E92.43447
M204 S2000
M205 X10 Y10
G0 F3600 X199.092 Y119.896
M204 S1000
M205 X8 Y8
G1 F1200 X189.292 Y110.096 E93.01068
M204 S2000
M205 X10 Y10
G0 F3600 X188.585 Y110.096
M204 S1000
M205 X8 Y8
G1 F1200 X198.385 Y119.896 E93.58688
M204 S2000
M205 X10 Y10
G0 F3600 X197.678 Y119.896
M204 S1000
M205 X8 Y8
G1 F1200 X187.878 Y110.096 E94.16308
M204 S2000
M205 X10 Y10
G0 F3600 X187.17 Y110.096
M204 S1000
M205 X8 Y8
G1 F1200 X196.971 Y119.896 E94.73931
M204 S2000
M205 X10 Y10
G0 F3600 X196.264 Y119.896
M204 S1000
M205 X8 Y8
G1 F1200 X186.463 Y110.096 E95.31554
M204 S2000
M205 X10 Y10
G0 F3600 X185.756 Y110.096
M204 S1000
M205 X8 Y8
G1 F1200 X195.557 Y119.896 E95.89178
M204 S2000
M205 X10 Y10
G0 F3600 X194.85 Y119.896
M204 S1000
M205 X8 Y8
G1 F1200 X185.049 Y110.096 E96.46801
M204 S2000
M205 X10 Y10
G0 F3600 X184.342 Y110.096
M204 S1000
M205 X8 Y8
G1 F1200 X194.143 Y119.896 E97.04424
M204 S2000
M205 X10 Y10
G0 F3600 X193.435 Y119.896
M204 S1000
M205 X8 Y8
G1 F1200 X183.635 Y110.096 E97.62044
M204 S2000
M205 X10 Y10
G0 F3600 X182.928 Y110.096
M204 S1000
M205 X8 Y8
G1 F1200 X192.728 Y119.896 E98.19665
M204 S2000
M205 X10 Y10
G0 F3600 X192.021 Y119.896
M204 S1000
M205 X8 Y8
G1 F1200 X182.221 Y110.096 E98.77285
M204 S2000
M205 X10 Y10
G0 F3600 X181.514 Y110.096
M204 S1000
M205 X8 Y8
G1 F1200 X191.314 Y119.896 E99.34905
M204 S2000
M205 X10 Y10
G0 F3600 X190.607 Y119.896
M204 S1000
M205 X8 Y8
G1 F1200 X180.806 Y110.096 E99.92528
M204 S2000
M205 X10 Y10
G0 F3600 X180.099 Y110.096
M204 S1000
M205 X8 Y8
G1 F1200 X189.9 Y119.896 E100.50151
M204 S2000
M205 X10 Y10
G0 F3600 X189.193 Y119.896
M204 S1000
M205 X8 Y8
G1 F1200 X179.392 Y110.096 E101.07775
M204 S2000
M205 X10 Y10
G0 F3600 X178.685 Y110.096
M204 S1000
M205 X8 Y8
G1 F1200 X188.486 Y119.896 E101.65398
M204 S2000
M205 X10 Y10
G0 F3600 X187.779 Y119.896
M204 S1000
M205 X8 Y8
G1 F1200 X177.978 Y110.096 E102.23021
M204 S2000
M205 X10 Y10
G0 F3600 X177.271 Y110.096
M204 S1000
M205 X8 Y8
G1 F1200 X187.071 Y119.896 E102.80641
M204 S2000
M205 X10 Y10
G0 F3600 X186.364 Y119.896
M204 S1000
M205 X8 Y8
G1 F1200 X176.564 Y110.096 E103.38261
M204 S2000
M205 X10 Y10
G0 F3600 X175.857 Y110.096
M204 S1000
M205 X8 Y8
G1 F1200 X185.657 Y119.896 E103.95882
M204 S2000
M205 X10 Y10
G0 F3600 X184.95 Y119.896
M204 S1000
M205 X8 Y8
G1 F1200 X175.15 Y110.096 E104.53502
M204 S2000
M205 X10 Y10
G0 F3600 X174.443 Y110.096
M204 S1000
M205 X8 Y8
G1 F1200 X184.243 Y119.896 E105.11122
M204 S2000
M205 X10 Y10
G0 F3600 X183.536 Y119.896
M204 S1000
M205 X8 Y8
G1 F1200 X173.735 Y110.096 E105.68745
M204 S2000
M205 X10 Y10
G0 F3600 X173.028 Y110.096
M204 S1000
M205 X8 Y8
G1 F1200 X182.829 Y119.896 E106.26368
M204 S2000
M205 X10 Y10
G0 F3600 X182.122 Y119.896
M204 S1000
M205 X8 Y8
G1 F1200 X172.321 Y110.096 E106.83992
M204 S2000
M205 X10 Y10
G0 F3600 X171.614 Y110.096
M204 S1000
M205 X8 Y8
G1 F1200 X181.415 Y119.896 E107.41615
M204 S2000
M205 X10 Y10
G0 F3600 X180.708 Y119.896
M204 S1000
M205 X8 Y8
G1 F1200 X170.907 Y110.096 E107.99238
M204 S2000
M205 X10 Y10
G0 F3600 X170.2 Y110.096
M204 S1000
M205 X8 Y8
G1 F1200 X180 Y119.896 E108.56858
M204 S2000
M205 X10 Y10
G0 F3600 X179.293 Y119.896
M204 S1000
M205 X8 Y8
G1 F1200 X169.493 Y110.096 E109.14479
M204 S2000
M205 X10 Y10
G0 F3600 X168.786 Y110.096
M204 S1000
M205 X8 Y8
G1 F1200 X178.586 Y119.896 E109.72099
M204 S2000
M205 X10 Y10
G0 F3600 X177.879 Y119.896
M204 S1000
M205 X8 Y8
G1 F1200 X168.079 Y110.096 E110.29719
M204 S2000
M205 X10 Y10
G0 F3600 X167.371 Y110.096
M204 S1000
M205 X8 Y8
G1 F1200 X177.172 Y119.896 E110.87342
M204 S2000
M205 X10 Y10
G0 F3600 X176.465 Y119.896
M204 S1000
M205 X8 Y8
G1 F1200 X166.664 Y110.096 E111.44965
M204 S2000
M205 X10 Y10
G0 F3600 X165.957 Y110.096
M204 S1000
M205 X8 Y8
G1 F1200 X175.758 Y119.896 E112.02589
M204 S2000
M205 X10 Y10
G0 F3600 X175.051 Y119.896
M204 S1000
M205 X8 Y8
G1 F1200 X165.25 Y110.096 E112.60212
M204 S2000
M205 X10 Y10
G0 F3600 X164.543 Y110.096
M204 S1000
M205 X8 Y8
G1 F1200 X174.344 Y119.896 E113.17835
M204 S2000
M205 X10 Y10
G0 F3600 X173.636 Y119.896
M204 S1000
M205 X8 Y8
G1 F1200 X163.836 Y110.096 E113.75455
M204 S2000
M205 X10 Y10
G0 F3600 X163.129 Y110.096
M204 S1000
M205 X8 Y8
G1 F1200 X172.929 Y119.896 E114.33075
M204 S2000
M205 X10 Y10
G0 F3600 X172.222 Y119.896
M204 S1000
M205 X8 Y8
G1 F1200 X162.422 Y110.096 E114.90696
M204 S2000
M205 X10 Y10
G0 F3600 X161.715 Y110.096
M204 S1000
M205 X8 Y8
G1 F1200 X171.515 Y119.896 E115.48316
M204 S2000
M205 X10 Y10
G0 F3600 X170.808 Y119.896
M204 S1000
M205 X8 Y8
G1 F1200 X161.008 Y110.096 E116.05936
M204 S2000
M205 X10 Y10
G0 F3600 X160.3 Y110.096
M204 S1000
M205 X8 Y8
G1 F1200 X170.101 Y119.896 E116.63559
M204 S2000
M205 X10 Y10
G0 F3600 X169.394 Y119.896
M204 S1000
M205 X8 Y8
G1 F1200 X159.593 Y110.096 E117.21183
M204 S2000
M205 X10 Y10
G0 F3600 X158.886 Y110.096
M204 S1000
M205 X8 Y8
G1 F1200 X168.687 Y119.896 E117.78806
M204 S2000
M205 X10 Y10
G0 F3600 X167.98 Y119.896
M204 S1000
M205 X8 Y8
G1 F1200 X158.179 Y110.096 E118.36429
M204 S2000
M205 X10 Y10
G0 F3600 X157.472 Y110.096
M204 S1000
M205 X8 Y8
G1 F1200 X167.272 Y119.896 E118.94049
M204 S2000
M205 X10 Y10
G0 F3600 X166.565 Y119.896
M204 S1000
M205 X8 Y8
G1 F1200 X156.765 Y110.096 E119.51669
M204 S2000
M205 X10 Y10
G0 F3600 X156.058 Y110.096
M204 S1000
M205 X8 Y8
G1 F1200 X165.858 Y119.896 E120.0929
M204 S2000
M205 X10 Y10
G0 F3600 X165.151 Y119.896
M204 S1000
M205 X8 Y8
G1 F1200 X155.351 Y110.096 E120.6691
M204 S2000
M205 X10 Y10
G0 F3600 X154.644 Y110.096
M204 S1000
M205 X8 Y8
G1 F1200 X164.444 Y119.896 E121.2453
M204 S2000
M205 X10 Y10
G0 F3600 X163.737 Y119.896
M204 S1000
M205 X8 Y8
G1 F1200 X153.936 Y110.096 E121.82153
M204 S2000
M205 X10 Y10
G0 F3600 X153.229 Y110.096
M204 S1000
M205 X8 Y8
G1 F1200 X163.03 Y119.896 E122.39776
M204 S2000
M205 X10 Y10
G0 F3600 X162.323 Y119.896
M204 S1000
M205 X8 Y8
G1 F1200 X152.522 Y110.096 E122.974
M204 S2000
M205 X10 Y10
G0 F3600 X151.815 Y110.096
M204 S1000
M205 X8 Y8
G1 F1200 X161.616 Y119.896 E123.55023
M204 S2000
M205 X10 Y10
G0 F3600 X160.909 Y119.896
M204 S1000
M205 X8 Y8
G1 F1200 X151.108 Y110.096 E124.12646
M204 S2000
M205 X10 Y10
G0 F3600 X150.401 Y110.096
M204 S1000
M205 X8 Y8
G1 F1200 X160.201 Y119.896 E124.70266
M204 S2000
M205 X10 Y10
G0 F3600 X159.494 Y119.896
M204 S1000
M205 X8 Y8
G1 F1200 X149.694 Y110.096 E125.27887
M204 S2000
M205 X10 Y10
G0 F3600 X148.987 Y110.096
M204 S1000
M205 X8 Y8
G1 F1200 X158.787 Y119.896 E125.85507
M204 S2000
M205 X10 Y10
G0 F3600 X158.08 Y119.896
M204 S1000
M205 X8 Y8
G1 F1200 X148.28 Y110.096 E126.43127
M204 S2000
M205 X10 Y10
G0 F3600 X147.572 Y110.096
M204 S1000
M205 X8 Y8
G1 F1200 X157.373 Y119.896 E127.0075
M204 S2000
M205 X10 Y10
G0 F3600 X156.666 Y119.896
M204 S1000
M205 X8 Y8
G1 F1200 X146.865 Y110.096 E127.58373
M204 S2000
M205 X10 Y10
G0 F3600 X146.158 Y110.096
M204 S1000
M205 X8 Y8
G1 F1200 X155.959 Y119.896 E128.15997
M204 S2000
M205 X10 Y10
G0 F3600 X155.252 Y119.896
M204 S1000
M205 X8 Y8
G1 F1200 X145.451 Y110.096 E128.7362
M204 S2000
M205 X10 Y10
G0 F3600 X144.744 Y110.096
M204 S1000
M205 X8 Y8
G1 F1200 X154.545 Y119.896 E129.31243
M204 S2000
M205 X10 Y10
G0 F3600 X153.837 Y119.896
M204 S1000
M205 X8 Y8
G1 F1200 X144.037 Y110.096 E129.88863
M204 S2000
M205 X10 Y10
G0 F3600 X143.33 Y110.096
M204 S1000
M205 X8 Y8
G1 F1200 X153.13 Y119.896 E130.46483
M204 S2000
M205 X10 Y10
G0 F3600 X152.423 Y119.896
M204 S1000
M205 X8 Y8
G1 F1200 X142.623 Y110.096 E131.04104
M204 S2000
M205 X10 Y10
G0 F3600 X141.916 Y110.096
M204 S1000
M205 X8 Y8
G1 F1200 X151.716 Y119.896 E131.61724
M204 S2000
M205 X10 Y10
G0 F3600 X151.009 Y119.896
M204 S1000
M205 X8 Y8
G1 F1200 X141.209 Y110.096 E132.19344
M204 S2000
M205 X10 Y10
G0 F3600 X140.501 Y110.096
M204 S1000
M205 X8 Y8
G1 F1200 X150.302 Y119.896 E132.76967
M204 S2000
M205 X10 Y10
G0 F3600 X149.595 Y119.896
M204 S1000
M205 X8 Y8
G1 F1200 X139.794 Y110.096 E133.34591
M204 S2000
M205 X10 Y10
G0 F3600 X139.087 Y110.096
