;FLAVOR:Marlin
;TIME:1498
;Filament used: 1.73846m
;Layer height: 0.2
;MINX:96.375
;MINY:98.5
;MINZ:0.2
;MAXX:133.625
;MAXY:131.5
;MAXZ:6.4
;TARGET_MACHINE.NAME:Anycubic Kobra
;Generated with Cura_SteamEngine 5.10.1
M140 S60
M105
M190 S60
M104 S200
M105
M109 S200
G21 ;metric values
G90 ;absolute positioning
M82 ;set extruder to absolute mode
M107 ;start with the fan off
M117 Homing X/Y ...
G28 X0 Y0 ;move X/Y to min endstops
M117 Homing Z ...
G28 Z0 ;move Z to min endstops
G1 Z15.0 F240 ;move the platform down 15mm
M117 Heating ...
M104 S[first_layer_temperature]
; set extruder temp
M109 S[first_layer_temperature]
; wait for extruder temp
M117 Start cleaning ...
M420 S1 ; Enable Bed Levelling Mesh
G92 E0 ;zero the extruded length
M413 S0 ; disable power loss recovery - may reduce blobbing and avoid unexpected recovery
; M500 ; store eeprom settings
M117 Intro line ...
G1 Z2.0 F3000 ; Move Z Axis up little to prevent scratching of Heat Bed
G1 X0.1 Y20 Z[first_layer_height] F5000.0 ; Move to start position
G1 X0.1 Y200.0 Z[first_layer_height] F1500.0 E15 ; Draw the first line
G1 X0.4 Y200.0 Z[first_layer_height] F5000.0 ; Move to side a little
G1 X0.4 Y20 Z0.3[first_layer_height] F1500.0 E30 ; Draw the second line
G92 E0 ; Reset Extruder
G1 X5 Y20 Z0.3 F240 ; Move over to prevent blob squish
G92 E0 ; Reset Extruder
M420 S1 ; Enable Bed Levelling Mesh
M117 Printing...
M82 ;absolute extrusion mode
G92 E0
G92 E0
G1 F3600 E-4
;LAYER_COUNT:32
;LAYER:0
M107
M204 S2000
M205 X10 Y10
G0 X97.551 Y99.543 Z0.2
M204 S1000
M205 X8 Y8
;TYPE:SKIRT
G1 F3600 E0
G1 F1200 X98.007 Y99.173 E0.02441
G1 X98.445 Y98.913 E0.04559
G1 X99.064 Y98.666 E0.0733
G1 X99.561 Y98.554 E0.09448
G1 X100.149 Y98.501 E0.11903
G1 X129.222 Y98.5 E1.32774
G1 X129.96 Y98.512 E1.35843
G1 X130.543 Y98.573 E1.3828
G1 X131.112 Y98.724 E1.40727
G1 X131.649 Y98.962 E1.43169
G1 X132.142 Y99.281 E1.45611
G1 X132.525 Y99.617 E1.47729
G1 X132.905 Y100.065 E1.50171
G1 X133.211 Y100.568 E1.52619
G1 X133.458 Y101.186 E1.55386
G1 X133.57 Y101.683 E1.57504
G1 X133.624 Y102.271 E1.59959
G1 X133.625 Y123.879 E2.49795
G1 X133.613 Y124.645 E2.5298
G1 X133.566 Y125.152 E2.55097
G1 X133.426 Y125.724 E2.57545
G1 X133.164 Y126.335 E2.60309
G1 X132.845 Y126.829 E2.62754
G1 X132.453 Y127.266 E2.65194
G1 X131.91 Y127.718 E2.68132
G1 X130.878 Y128.254 E2.72966
G1 X125.773 Y130.805 E2.96693
G1 X125.108 Y131.124 E2.99759
G1 X124.559 Y131.331 E3.02199
G1 X123.905 Y131.473 E3.04981
G1 X122.522 Y131.5 E3.10732
G1 X102.903 Y131.5 E3.92298
G1 X101.829 Y131.484 E3.96764
G1 X101.06 Y131.293 E4.00058
G1 X100.519 Y131.063 E4.02502
G1 X100.026 Y130.755 E4.04919
G1 X99.611 Y130.409 E4.07165
G1 X97.913 Y128.716 E4.17134
G1 X97.179 Y127.951 E4.21542
G1 X96.776 Y127.292 E4.24753
G1 X96.495 Y126.532 E4.28122
G1 X96.387 Y125.853 E4.30981
G1 X96.375 Y125.111 E4.34066
G1 X96.375 Y102.867 E5.26546
G1 X96.387 Y102.163 E5.29473
G1 X96.435 Y101.656 E5.3159
G1 X96.6 Y101.011 E5.34358
G1 X96.839 Y100.473 E5.36806
G1 X97.158 Y99.981 E5.39244
G1 X97.551 Y99.543 E5.4169
M204 S2000
M205 X10 Y10
G0 F3600 X97.87 Y99.928
M204 S1000
M205 X8 Y8
G1 F1200 X98.262 Y99.603 E5.43807
G1 X98.7 Y99.343 E5.45925
G1 X99.174 Y99.154 E5.48046
G1 X99.671 Y99.042 E5.50165
G1 X100.149 Y99.001 E5.52159
G1 X129.215 Y99 E6.73001
G1 X129.913 Y99.01 E6.75904
G1 X130.42 Y99.058 E6.78021
G1 X130.914 Y99.183 E6.8014
G1 X131.382 Y99.385 E6.82259
G1 X131.812 Y99.657 E6.84374
G1 X132.195 Y99.993 E6.86492
G1 X132.521 Y100.385 E6.88612
G1 X132.781 Y100.823 E6.9073
G1 X132.97 Y101.296 E6.92847
G1 X133.082 Y101.793 E6.94966
G1 X133.124 Y102.271 E6.9696
G1 X133.125 Y123.872 E7.86767
G1 X133.115 Y124.599 E7.8979
G1 X133.068 Y125.106 E7.91907
G1 X132.942 Y125.6 E7.94026
G1 X132.741 Y126.068 E7.96144
G1 X132.469 Y126.499 E7.98263
G1 X132.133 Y126.882 E8.00381
G1 X131.634 Y127.297 E8.03079
G1 X130.654 Y127.807 E8.07672
G1 X125.556 Y130.355 E8.31367
G1 X124.927 Y130.658 E8.3427
G1 X124.453 Y130.842 E8.36384
G1 X123.845 Y130.974 E8.38971
G1 X122.512 Y131 E8.44514
G1 X102.91 Y131 E9.26009
G1 X101.893 Y130.985 E9.30238
G1 X101.251 Y130.831 E9.32983
G1 X100.78 Y130.636 E9.35102
G1 X100.345 Y130.37 E9.37222
G1 X99.964 Y130.055 E9.39277
G1 X98.274 Y128.37 E9.49199
G1 X97.576 Y127.642 E9.53392
G1 X97.228 Y127.074 E9.56162
G1 X96.981 Y126.405 E9.59126
G1 X96.887 Y125.845 E9.61487
G1 X96.875 Y125.103 E9.64573
G1 X96.875 Y102.875 E10.56986
G1 X96.885 Y102.21 E10.59751
G1 X96.933 Y101.703 E10.61868
G1 X97.059 Y101.209 E10.63988
G1 X97.261 Y100.741 E10.66107
G1 X97.534 Y100.311 E10.68225
G1 X97.87 Y99.928 E10.70343
M204 S2000
M205 X10 Y10
G1 F3600 E6.70343
;MESH:ballista-pF.stl
G0 X100.649 Y101.585
G0 X123.44 Y127.498
M204 S1000
M205 X8 Y8
;TYPE:WALL-OUTER
G1 F3600 E10.70343
G1 F1200 X129.622 Y124.405 E10.99082
G1 X129.622 Y102.498 E11.90161
G1 X100.374 Y102.498 E13.1176
G1 X100.374 Y125.52 E14.07474
G1 X102.352 Y127.498 E14.19104
G1 X123.44 Y127.498 E15.06778
M204 S2000
M205 X10 Y10
G0 F3600 X123.663 Y127.387
G0 X123.322 Y126.998
M204 S1000
M205 X8 Y8
;TYPE:WALL-INNER
G1 F1200 X129.122 Y124.096 E15.33741
G1 X129.122 Y102.998 E16.21457
G1 X100.874 Y102.998 E17.38898
G1 X100.874 Y125.313 E18.31673
G1 X102.559 Y126.998 E18.4158
G1 X123.322 Y126.998 E19.27903
M204 S2000
M205 X10 Y10
G0 F3600 X123.208 Y126.522
M204 S1000
M205 X8 Y8
;TYPE:SKIN
G1 F1200 X128.646 Y123.801 E19.53184
G1 X128.646 Y103.47 E20.3771
G1 X101.346 Y103.47 E21.5121
G1 X101.346 Y125.116 E22.41204
G1 X102.756 Y126.522 E22.49482
G1 X123.208 Y126.522 E23.34512
M204 S2000
M205 X10 Y10
G0 F3600 X102.937 Y126.272
M204 S1000
M205 X8 Y8
G1 F1200 X101.596 Y124.93 E23.42399
M204 S2000
M205 X10 Y10
G0 F3600 X101.596 Y124.223
M204 S1000
M205 X8 Y8
G1 F1200 X103.644 Y126.272 E23.54444
M204 S2000
M205 X10 Y10
G0 F3600 X104.351 Y126.272
M204 S1000
M205 X8 Y8
G1 F1200 X101.596 Y123.516 E23.70645
M204 S2000
M205 X10 Y10
G0 F3600 X101.596 Y122.809
M204 S1000
M205 X8 Y8
G1 F1200 X105.058 Y126.272 E23.91003
M204 S2000
M205 X10 Y10
G0 F3600 X105.765 Y126.272
M204 S1000
M205 X8 Y8
G1 F1200 X101.596 Y122.102 E24.15518
M204 S2000
M205 X10 Y10
G0 F3600 X101.596 Y121.395
M204 S1000
M205 X8 Y8
G1 F1200 X106.473 Y126.272 E24.44193
M204 S2000
M205 X10 Y10
G0 F3600 X107.18 Y126.272
M204 S1000
M205 X8 Y8
G1 F1200 X101.596 Y120.688 E24.77025
M204 S2000
M205 X10 Y10
G0 F3600 X101.596 Y119.98
M204 S1000
M205 X8 Y8
G1 F1200 X107.887 Y126.272 E25.14017
M204 S2000
M205 X10 Y10
G0 F3600 X108.594 Y126.272
M204 S1000
M205 X8 Y8
G1 F1200 X101.596 Y119.273 E25.55165
M204 S2000
M205 X10 Y10
G0 F3600 X101.596 Y118.566
M204 S1000
M205 X8 Y8
G1 F1200 X109.301 Y126.272 E26.00471
M204 S2000
M205 X10 Y10
G0 F3600 X110.008 Y126.272
M204 S1000
M205 X8 Y8
G1 F1200 X101.596 Y117.859 E26.49933
M204 S2000
M205 X10 Y10
G0 F3600 X101.596 Y117.152
M204 S1000
M205 X8 Y8
G1 F1200 X110.715 Y126.272 E27.03552
M204 S2000
M205 X10 Y10
G0 F3600 X111.422 Y126.272
M204 S1000
M205 X8 Y8
G1 F1200 X101.596 Y116.445 E27.61328
M204 S2000
M205 X10 Y10
G0 F3600 X101.596 Y115.738
M204 S1000
M205 X8 Y8
G1 F1200 X112.129 Y126.272 E28.23261
M204 S2000
M205 X10 Y10
G0 F3600 X112.837 Y126.272
M204 S1000
M205 X8 Y8
G1 F1200 X101.596 Y115.031 E28.89354
M204 S2000
M205 X10 Y10
G0 F3600 X101.596 Y114.324
M204 S1000
M205 X8 Y8
G1 F1200 X113.544 Y126.272 E29.59603
M204 S2000
M205 X10 Y10
G0 F3600 X114.251 Y126.272
M204 S1000
M205 X8 Y8
G1 F1200 X101.596 Y113.617 E30.3401
M204 S2000
M205 X10 Y10
G0 F3600 X101.596 Y112.909
M204 S1000
M205 X8 Y8
G1 F1200 X114.958 Y126.272 E31.12576
M204 S2000
M205 X10 Y10
G0 F3600 X115.665 Y126.272
M204 S1000
M205 X8 Y8
G1 F1200 X101.596 Y112.202 E31.953
M204 S2000
M205 X10 Y10
G0 F3600 X101.596 Y111.495
M204 S1000
M205 X8 Y8
G1 F1200 X116.372 Y126.272 E32.8218
M204 S2000
M205 X10 Y10
G0 F3600 X117.079 Y126.272
M204 S1000
M205 X8 Y8
G1 F1200 X101.596 Y110.788 E33.73217
M204 S2000
M205 X10 Y10
G0 F3600 X101.596 Y110.081
M204 S1000
M205 X8 Y8
G1 F1200 X117.786 Y126.272 E34.68411
M204 S2000
M205 X10 Y10
G0 F3600 X118.493 Y126.272
M204 S1000
M205 X8 Y8
G1 F1200 X101.596 Y109.374 E35.67762
M204 S2000
M205 X10 Y10
G0 F3600 X101.596 Y108.667
M204 S1000
M205 X8 Y8
G1 F1200 X119.201 Y126.272 E36.71272
M204 S2000
M205 X10 Y10
G0 F3600 X119.908 Y126.272
M204 S1000
M205 X8 Y8
G1 F1200 X101.596 Y107.96 E37.7894
M204 S2000
M205 X10 Y10
G0 F3600 X101.596 Y107.253
M204 S1000
M205 X8 Y8
G1 F1200 X120.615 Y126.272 E38.90764
M204 S2000
M205 X10 Y10
G0 F3600 X121.322 Y126.272
M204 S1000
M205 X8 Y8
G1 F1200 X101.596 Y106.545 E40.06748
M204 S2000
M205 X10 Y10
G0 F3600 X101.596 Y105.838
M204 S1000
M205 X8 Y8
G1 F1200 X122.029 Y126.272 E41.2689
M204 S2000
M205 X10 Y10
G0 F3600 X122.736 Y126.272
M204 S1000
M205 X8 Y8
G1 F1200 X101.596 Y105.131 E42.51188
M204 S2000
M205 X10 Y10
G0 F3600 X101.596 Y104.424
M204 S1000
M205 X8 Y8
G1 F1200 X123.345 Y126.173 E43.79063
M204 S2000
M205 X10 Y10
G0 F3600 X123.816 Y125.937
M204 S1000
M205 X8 Y8
G1 F1200 X101.599 Y103.72 E45.09691
M204 S2000
M205 X10 Y10
G0 F3600 X102.306 Y103.72
M204 S1000
M205 X8 Y8
G1 F1200 X124.287 Y125.702 E46.38934
M204 S2000
M205 X10 Y10
G0 F3600 X124.758 Y125.465
M204 S1000
M205 X8 Y8
G1 F1200 X103.013 Y103.72 E47.66786
M204 S2000
M205 X10 Y10
G0 F3600 X103.72 Y103.72
M204 S1000
M205 X8 Y8
G1 F1200 X125.23 Y125.23 E48.93256
M204 S2000
M205 X10 Y10
G0 F3600 X125.702 Y124.995
M204 S1000
M205 X8 Y8
G1 F1200 X104.427 Y103.72 E50.18345
M204 S2000
M205 X10 Y10
G0 F3600 X105.134 Y103.72
M204 S1000
M205 X8 Y8
G1 F1200 X126.173 Y124.758 E51.42044
M204 S2000
M205 X10 Y10
G0 F3600 X126.644 Y124.523
M204 S1000
M205 X8 Y8
G1 F1200 X105.841 Y103.72 E52.64357
M204 S2000
M205 X10 Y10
G0 F3600 X106.548 Y103.72
M204 S1000
M205 X8 Y8
G1 F1200 X127.115 Y124.287 E53.85283
M204 S2000
M205 X10 Y10
G0 F3600 X127.587 Y124.051
M204 S1000
M205 X8 Y8
G1 F1200 X107.255 Y103.72 E55.04825
M204 S2000
M205 X10 Y10
G0 F3600 X107.962 Y103.72
M204 S1000
M205 X8 Y8
G1 F1200 X128.058 Y123.815 E56.22979
M204 S2000
M205 X10 Y10
G0 F3600 X128.396 Y123.447
M204 S1000
M205 X8 Y8
G1 F1200 X108.67 Y103.72 E57.38963
M204 S2000
M205 X10 Y10
G0 F3600 X109.377 Y103.72
M204 S1000
M205 X8 Y8
G1 F1200 X128.396 Y122.74 E58.5079
M204 S2000
M205 X10 Y10
G0 F3600 X128.396 Y122.032
M204 S1000
M205 X8 Y8
G1 F1200 X110.084 Y103.72 E59.58458
M204 S2000
M205 X10 Y10
G0 F3600 X110.791 Y103.72
M204 S1000
M205 X8 Y8
G1 F1200 X128.396 Y121.325 E60.61968
M204 S2000
M205 X10 Y10
G0 F3600 X128.396 Y120.618
M204 S1000
M205 X8 Y8
G1 F1200 X111.498 Y103.72 E61.61322
M204 S2000
M205 X10 Y10
G0 F3600 X112.205 Y103.72
M204 S1000
M205 X8 Y8
G1 F1200 X128.396 Y119.911 E62.56519
M204 S2000
M205 X10 Y10
G0 F3600 X128.396 Y119.204
M204 S1000
M205 X8 Y8
G1 F1200 X112.912 Y103.72 E63.47559
M204 S2000
M205 X10 Y10
G0 F3600 X113.619 Y103.72
M204 S1000
M205 X8 Y8
G1 F1200 X128.396 Y118.497 E64.34442
M204 S2000
M205 X10 Y10
G0 F3600 X128.396 Y117.79
M204 S1000
M205 X8 Y8
G1 F1200 X114.326 Y103.72 E65.17168
M204 S2000
M205 X10 Y10
G0 F3600 X115.034 Y103.72
M204 S1000
M205 X8 Y8
G1 F1200 X128.396 Y117.083 E65.95735
M204 S2000
M205 X10 Y10
G0 F3600 X128.396 Y116.376
M204 S1000
M205 X8 Y8
G1 F1200 X115.741 Y103.72 E66.70144
M204 S2000
M205 X10 Y10
G0 F3600 X116.448 Y103.72
M204 S1000
M205 X8 Y8
G1 F1200 X128.396 Y115.669 E67.40397
M204 S2000
M205 X10 Y10
G0 F3600 X128.396 Y114.961
M204 S1000
M205 X8 Y8
G1 F1200 X117.155 Y103.72 E68.0649
M204 S2000
M205 X10 Y10
G0 F3600 X117.862 Y103.72
M204 S1000
M205 X8 Y8
G1 F1200 X128.396 Y114.254 E68.68426
M204 S2000
M205 X10 Y10
G0 F3600 X128.396 Y113.547
M204 S1000
M205 X8 Y8
G1 F1200 X118.569 Y103.72 E69.26205
M204 S2000
M205 X10 Y10
G0 F3600 X119.276 Y103.72
M204 S1000
M205 X8 Y8
G1 F1200 X128.396 Y112.84 E69.79827
M204 S2000
M205 X10 Y10
G0 F3600 X128.396 Y112.133
M204 S1000
M205 X8 Y8
G1 F1200 X119.983 Y103.72 E70.29292
M204 S2000
M205 X10 Y10
G0 F3600 X120.69 Y103.72
M204 S1000
M205 X8 Y8
G1 F1200 X128.396 Y111.426 E70.746
M204 S2000
M205 X10 Y10
G0 F3600 X128.396 Y110.719
M204 S1000
M205 X8 Y8
G1 F1200 X121.398 Y103.72 E71.15749
M204 S2000
M205 X10 Y10
G0 F3600 X122.105 Y103.72
M204 S1000
M205 X8 Y8
G1 F1200 X128.396 Y110.012 E71.5274
M204 S2000
M205 X10 Y10
G0 F3600 X128.396 Y109.305
M204 S1000
M205 X8 Y8
G1 F1200 X122.812 Y103.72 E71.85575
M204 S2000
M205 X10 Y10
G0 F3600 X123.519 Y103.72
M204 S1000
M205 X8 Y8
G1 F1200 X128.396 Y108.597 E72.1425
M204 S2000
M205 X10 Y10
G0 F3600 X128.396 Y107.89
M204 S1000
M205 X8 Y8
G1 F1200 X124.226 Y103.72 E72.38768
M204 S2000
M205 X10 Y10
G0 F3600 X124.933 Y103.72
M204 S1000
M205 X8 Y8
G1 F1200 X128.396 Y107.183 E72.59129
M204 S2000
M205 X10 Y10
G0 F3600 X128.396 Y106.476
M204 S1000
M205 X8 Y8
G1 F1200 X125.64 Y103.72 E72.75333
M204 S2000
M205 X10 Y10
G0 F3600 X126.347 Y103.72
M204 S1000
M205 X8 Y8
G1 F1200 X128.396 Y105.769 E72.87381
M204 S2000
M205 X10 Y10
G0 F3600 X128.396 Y105.062
M204 S1000
M205 X8 Y8
G1 F1200 X127.054 Y103.72 E72.95271
M204 S2000
M205 X10 Y10
G0 F3600 X127.761 Y103.72
M204 S1000
M205 X8 Y8
G1 F1200 X128.396 Y104.355 E72.99005
M204 S2000
M205 X10 Y10
G0 F3600 X128.365 Y104.355
G1 F3600 E68.99005
;MESH:NONMESH
G0 F600 X128.365 Y104.355 Z0.4
G0 F3600 X100.649 Y102.774
G0 X100.649 Y101.585
G0 X97.87 Y99.928
;TIME_ELAPSED:96.771138
;LAYER:1
M106 S255
M204 S1000
M205 X8 Y8
;TYPE:SKIRT
G1 F3600 E72.99005
G1 F1200 X98.262 Y99.603 E73.01122
G1 X98.7 Y99.343 E73.03239
G1 X99.174 Y99.154 E73.05361
G1 X99.671 Y99.042 E73.07479
G1 X100.149 Y99.001 E73.09474
G1 X129.215 Y99 E74.30316
G1 X129.913 Y99.01 E74.33218
G1 X130.42 Y99.058 E74.35335
G1 X130.914 Y99.183 E74.37454
G1 X131.382 Y99.385 E74.39573
G1 X131.812 Y99.657 E74.41689
G1 X132.195 Y99.993 E74.43807
G1 X132.521 Y100.385 E74.45926
G1 X132.781 Y100.823 E74.48044
G1 X132.97 Y101.296 E74.50162
G1 X133.082 Y101.793 E74.5228
G1 X133.124 Y102.271 E74.54275
G1 X133.125 Y123.872 E75.44081
G1 X133.115 Y124.599 E75.47104
G1 X133.068 Y125.106 E75.49221
G1 X132.942 Y125.6 E75.51341
G1 X132.741 Y126.068 E75.53458
G1 X132.469 Y126.499 E75.55577
G1 X132.133 Y126.882 E75.57695
G1 X131.634 Y127.297 E75.60394
G1 X130.654 Y127.807 E75.64987
G1 X125.556 Y130.355 E75.88682
G1 X124.927 Y130.658 E75.91584
G1 X124.453 Y130.842 E75.93698
G1 X123.845 Y130.974 E75.96285
G1 X122.512 Y131 E76.01828
G1 X102.91 Y131 E76.83324
G1 X101.893 Y130.985 E76.87552
G1 X101.251 Y130.831 E76.90297
G1 X100.78 Y130.636 E76.92416
G1 X100.345 Y130.37 E76.94536
G1 X99.964 Y130.055 E76.96592
G1 X98.274 Y128.37 E77.06513
G1 X97.576 Y127.642 E77.10707
G1 X97.228 Y127.074 E77.13476
G1 X96.981 Y126.405 E77.16441
G1 X96.887 Y125.845 E77.18802
G1 X96.875 Y125.103 E77.21887
G1 X96.875 Y102.875 E78.143
G1 X96.885 Y102.21 E78.17065
G1 X96.933 Y101.703 E78.19183
G1 X97.059 Y101.209 E78.21302
G1 X97.261 Y100.741 E78.23421
G1 X97.534 Y100.311 E78.25539
G1 X97.87 Y99.928 E78.27657
M204 S3500
M205 X10 Y10
G1 F3600 E74.27657
;MESH:ballista-pF.stl
G0 F5400 X100.649 Y101.585
G0 X100.649 Y102.774
G0 X101.43 Y103.198
M204 S1000
M205 X8 Y8
;TYPE:FILL
G1 F3600 E78.27657
G1 F1800 X124.444 Y126.212 E79.62971
G1 X124.532 Y126.3
M204 S3500
M205 X10 Y10
G0 F5400 X124.411 Y126.055
G0 X125.486 Y125.517
G0 X125.555 Y125.658
M204 S1000
M205 X8 Y8
G1 F1800 X128.922 Y122.291 E79.82767
M204 S3500
M205 X10 Y10
G0 F5400 X128.923 Y121.851
M204 S1000
M205 X8 Y8
G1 F1800 X110.269 Y103.198 E80.92443
M204 S3500
M205 X10 Y10
G0 F5400 X110.891 Y103.198
M204 S1000
M205 X8 Y8
G1 F1800 X101.074 Y113.015 E81.50163
M204 S3500
M205 X10 Y10
G0 F5400 X101.074 Y113.448
M204 S1000
M205 X8 Y8
G1 F1800 X114.423 Y126.798 E82.28653
M204 S3500
M205 X10 Y10
G0 F5400 X113.807 Y126.798
M204 S1000
M205 X8 Y8
G1 F1800 X128.922 Y111.684 E83.1752
M204 S3500
M205 X10 Y10
G0 F5400 X128.923 Y111.245
M204 S1000
M205 X8 Y8
G1 F1800 X120.876 Y103.198 E83.64834
M204 S3500
M205 X10 Y10
G0 F5400 X121.498 Y103.198
M204 S1000
M205 X8 Y8
G1 F1800 X101.074 Y123.622 E84.84919
M204 S3500
M205 X10 Y10
G0 F5400 X101.074 Y124.055
M204 S1000
M205 X8 Y8
G1 F1800 X103.817 Y126.798 E85.01047
M204 S3500
M205 X10 Y10
G0 F5400 X103.201 Y126.798
M204 S1000
M205 X8 Y8
G1 F1800 X126.801 Y103.198 E86.39806
M204 S3500
M205 X10 Y10
G0 F5400 X126.179 Y103.198
M204 S1000
