;FLAVOR:Marlin
;TIME:1496
;Filament used: 1.73845m
;Layer height: 0.2
;MINX:96.375
;MINY:98.5
;MINZ:0.2
;MAXX:133.625
;MAXY:131.5
;MAXZ:6.4
;TARGET_MACHINE.NAME:Anycubic Kobra
;Generated with Cura_SteamEngine 5.10.1
M140 S60
M105
M190 S60
M104 S200
M105
M109 S200
G21 ;metric values
G90 ;absolute positioning
M82 ;set extruder to absolute mode
M107 ;start with the fan off
M117 Homing X/Y ...
G28 X0 Y0 ;move X/Y to min endstops
M117 Homing Z ...
G28 Z0 ;move Z to min endstops
G1 Z15.0 F240 ;move the platform down 15mm
M117 Heating ...
M104 S[first_layer_temperature]
; set extruder temp
M109 S[first_layer_temperature]
; wait for extruder temp
M117 Start cleaning ...
M420 S1 ; Enable Bed Levelling Mesh
G92 E0 ;zero the extruded length
M413 S0 ; disable power loss recovery - may reduce blobbing and avoid unexpected recovery
; M500 ; store eeprom settings
M117 Intro line ...
G1 Z2.0 F3000 ; Move Z Axis up little to prevent scratching of Heat Bed
G1 X0.1 Y20 Z[first_layer_height] F5000.0 ; Move to start position
G1 X0.1 Y200.0 Z[first_layer_height] F1500.0 E15 ; Draw the first line
G1 X0.4 Y200.0 Z[first_layer_height] F5000.0 ; Move to side a little
G1 X0.4 Y20 Z0.3[first_layer_height] F1500.0 E30 ; Draw the second line
G92 E0 ; Reset Extruder
G1 X5 Y20 Z0.3 F240 ; Move over to prevent blob squish
G92 E0 ; Reset Extruder
M420 S1 ; Enable Bed Levelling Mesh
M117 Printing...
M82 ;absolute extrusion mode
G92 E0
G92 E0
G1 F3600 E-4
;LAYER_COUNT:32
;LAYER:0
M107
M204 S2000
M205 X10 Y10
G0 X97.551 Y99.543 Z0.2
M204 S1000
M205 X8 Y8
;TYPE:SKIRT
G1 F3600 E0
G1 F1200 X98.007 Y99.173 E0.02441
G1 X98.445 Y98.913 E0.04559
G1 X99.064 Y98.666 E0.0733
G1 X99.561 Y98.554 E0.09448
G1 X100.149 Y98.501 E0.11903
G1 X129.222 Y98.5 E1.32774
G1 X129.96 Y98.512 E1.35843
G1 X130.543 Y98.573 E1.3828
G1 X131.112 Y98.724 E1.40727
G1 X131.649 Y98.962 E1.43169
G1 X132.142 Y99.281 E1.45611
G1 X132.525 Y99.617 E1.47729
G1 X132.905 Y100.065 E1.50171
G1 X133.211 Y100.568 E1.52619
G1 X133.458 Y101.186 E1.55386
G1 X133.57 Y101.683 E1.57504
G1 X133.624 Y102.271 E1.59959
G1 X133.625 Y124.972 E2.54339
G1 X133.609 Y126.046 E2.58804
G1 X133.418 Y126.815 E2.62099
G1 X133.188 Y127.356 E2.64543
G1 X132.824 Y127.951 E2.67443
G1 X132.237 Y128.567 E2.7098
G1 X130.853 Y129.95 E2.79115
G1 X130.077 Y130.699 E2.83599
G1 X129.387 Y131.11 E2.86938
G1 X128.841 Y131.325 E2.89377
G1 X128.169 Y131.482 E2.92246
G1 X127.238 Y131.5 E2.96118
G1 X107.152 Y131.5 E3.79626
G1 X106.429 Y131.488 E3.82632
G1 X105.922 Y131.44 E3.84749
G1 X105.196 Y131.261 E3.87858
G1 X103.97 Y130.677 E3.93504
G1 X99.023 Y128.204 E4.16498
G1 X98.379 Y127.869 E4.19516
G1 X97.882 Y127.553 E4.21964
G1 X97.497 Y127.219 E4.24083
G1 X97.069 Y126.711 E4.26845
G1 X96.805 Y126.275 E4.28964
G1 X96.554 Y125.658 E4.31734
G1 X96.394 Y124.972 E4.34662
G1 X96.375 Y123.808 E4.39502
G1 X96.375 Y102.867 E5.26565
G1 X96.387 Y102.163 E5.29492
G1 X96.435 Y101.656 E5.31609
G1 X96.6 Y101.011 E5.34377
G1 X96.839 Y100.473 E5.36825
G1 X97.158 Y99.981 E5.39263
G1 X97.551 Y99.543 E5.41709
M204 S2000
M205 X10 Y10
G0 F3600 X97.87 Y99.928
M204 S1000
M205 X8 Y8
G1 F1200 X98.262 Y99.603 E5.43826
G1 X98.7 Y99.343 E5.45944
G1 X99.174 Y99.154 E5.48065
G1 X99.671 Y99.042 E5.50183
G1 X100.149 Y99.001 E5.52178
G1 X129.215 Y99 E6.7302
G1 X129.913 Y99.01 E6.75923
G1 X130.42 Y99.058 E6.7804
G1 X130.914 Y99.183 E6.80159
G1 X131.382 Y99.385 E6.82278
G1 X131.812 Y99.657 E6.84393
G1 X132.195 Y99.993 E6.86511
G1 X132.521 Y100.385 E6.88631
G1 X132.781 Y100.823 E6.90749
G1 X132.97 Y101.296 E6.92866
G1 X133.082 Y101.793 E6.94984
G1 X133.124 Y102.271 E6.96979
G1 X133.125 Y124.965 E7.9133
G1 X133.11 Y125.982 E7.95559
G1 X132.956 Y126.624 E7.98304
G1 X132.761 Y127.095 E8.00423
G1 X132.424 Y127.646 E8.03108
G1 X131.883 Y128.213 E8.06366
G1 X130.506 Y129.59 E8.14463
G1 X129.769 Y130.301 E8.1872
G1 X129.199 Y130.647 E8.21492
G1 X128.727 Y130.838 E8.23609
G1 X128.106 Y130.983 E8.26261
G1 X127.228 Y131 E8.29912
G1 X107.159 Y131 E9.13349
G1 X106.476 Y130.99 E9.16189
G1 X105.969 Y130.942 E9.18306
G1 X105.365 Y130.788 E9.20897
G1 X104.194 Y130.23 E9.2629
G1 X99.253 Y127.76 E9.49256
G1 X98.643 Y127.444 E9.52113
G1 X98.21 Y127.175 E9.54232
G1 X97.825 Y126.841 E9.56351
G1 X97.497 Y126.452 E9.58466
G1 X97.233 Y126.016 E9.60586
G1 X97.041 Y125.544 E9.62704
G1 X96.893 Y124.91 E9.65411
G1 X96.875 Y123.8 E9.70026
G1 X96.875 Y102.875 E10.57022
G1 X96.885 Y102.21 E10.59787
G1 X96.933 Y101.703 E10.61905
G1 X97.059 Y101.209 E10.64024
G1 X97.261 Y100.741 E10.66143
G1 X97.534 Y100.311 E10.68261
G1 X97.87 Y99.928 E10.70379
M204 S2000
M205 X10 Y10
G1 F3600 E6.70379
;MESH:ballista-pE.stl
G0 X100.649 Y101.585
G0 X106.556 Y127.498
M204 S1000
M205 X8 Y8
;TYPE:WALL-OUTER
G1 F3600 E10.70379
G1 F1200 X127.644 Y127.498 E11.58053
G1 X129.622 Y125.52 E11.69683
G1 X129.622 Y102.498 E12.65397
G1 X100.374 Y102.498 E13.86996
G1 X100.374 Y124.405 E14.78075
G1 X106.556 Y127.498 E15.06814
M204 S2000
M205 X10 Y10
G0 F3600 X106.806 Y127.498
G0 X106.674 Y126.998
M204 S1000
M205 X8 Y8
;TYPE:WALL-INNER
G1 F1200 X127.437 Y126.998 E15.93137
G1 X129.122 Y125.313 E16.03044
G1 X129.122 Y102.998 E16.95819
G1 X100.874 Y102.998 E18.1326
G1 X100.874 Y124.096 E19.00976
G1 X106.674 Y126.998 E19.27939
M204 S2000
M205 X10 Y10
G0 F3600 X106.788 Y126.522
M204 S1000
M205 X8 Y8
;TYPE:SKIN
G1 F1200 X127.24 Y126.522 E20.12969
G1 X128.646 Y125.116 E20.21235
G1 X128.646 Y103.47 E21.11229
G1 X101.346 Y103.47 E22.24729
G1 X101.346 Y123.801 E23.09256
G1 X106.788 Y126.522 E23.34551
M204 S2000
M205 X10 Y10
G0 F3600 X101.596 Y123.516
M204 S1000
M205 X8 Y8
G1 F1200 X101.856 Y123.776 E23.3608
M204 S2000
M205 X10 Y10
G0 F3600 X101.596 Y122.809
M204 S1000
M205 X8 Y8
G1 F1200 X103.27 Y124.483 E23.45923
G1 X103.358 Y124.571
M204 S2000
M205 X10 Y10
G0 F3600 X104.685 Y125.191
M204 S1000
M205 X8 Y8
G1 F1200 X101.596 Y122.102 E23.64085
M204 S2000
M205 X10 Y10
G0 F3600 X101.596 Y121.395
M204 S1000
M205 X8 Y8
G1 F1200 X106.099 Y125.898 E23.90561
G1 X106.187 Y125.986
M204 S2000
M205 X10 Y10
G0 F3600 X107.18 Y126.272
M204 S1000
M205 X8 Y8
G1 F1200 X101.596 Y120.688 E24.23392
M204 S2000
M205 X10 Y10
G0 F3600 X101.596 Y119.98
M204 S1000
M205 X8 Y8
G1 F1200 X107.888 Y126.272 E24.60387
M204 S2000
M205 X10 Y10
G0 F3600 X108.595 Y126.272
M204 S1000
M205 X8 Y8
G1 F1200 X101.596 Y119.273 E25.01538
M204 S2000
M205 X10 Y10
G0 F3600 X101.596 Y118.566
M204 S1000
M205 X8 Y8
G1 F1200 X109.302 Y126.272 E25.46847
M204 S2000
M205 X10 Y10
G0 F3600 X110.009 Y126.272
M204 S1000
M205 X8 Y8
G1 F1200 X101.596 Y117.859 E25.96312
M204 S2000
M205 X10 Y10
G0 F3600 X101.596 Y117.152
M204 S1000
M205 X8 Y8
G1 F1200 X110.716 Y126.272 E26.49934
M204 S2000
M205 X10 Y10
G0 F3600 X111.423 Y126.272
M204 S1000
M205 X8 Y8
G1 F1200 X101.596 Y116.445 E27.07713
M204 S2000
M205 X10 Y10
G0 F3600 X101.596 Y115.738
M204 S1000
M205 X8 Y8
G1 F1200 X112.13 Y126.272 E27.69649
M204 S2000
M205 X10 Y10
G0 F3600 X112.837 Y126.272
M204 S1000
M205 X8 Y8
G1 F1200 X101.596 Y115.031 E28.35742
M204 S2000
M205 X10 Y10
G0 F3600 X101.596 Y114.324
M204 S1000
M205 X8 Y8
G1 F1200 X113.544 Y126.272 E29.05991
M204 S2000
M205 X10 Y10
G0 F3600 X114.251 Y126.272
M204 S1000
M205 X8 Y8
G1 F1200 X101.596 Y113.617 E29.80398
M204 S2000
M205 X10 Y10
G0 F3600 X101.596 Y112.909
M204 S1000
M205 X8 Y8
G1 F1200 X114.959 Y126.272 E30.58967
M204 S2000
M205 X10 Y10
G0 F3600 X115.666 Y126.272
M204 S1000
M205 X8 Y8
G1 F1200 X101.596 Y112.202 E31.41693
M204 S2000
M205 X10 Y10
G0 F3600 X101.596 Y111.495
M204 S1000
M205 X8 Y8
G1 F1200 X116.373 Y126.272 E32.28577
M204 S2000
M205 X10 Y10
G0 F3600 X117.08 Y126.272
M204 S1000
M205 X8 Y8
G1 F1200 X101.596 Y110.788 E33.19617
M204 S2000
M205 X10 Y10
G0 F3600 X101.596 Y110.081
M204 S1000
M205 X8 Y8
G1 F1200 X117.787 Y126.272 E34.14813
M204 S2000
M205 X10 Y10
G0 F3600 X118.494 Y126.272
M204 S1000
M205 X8 Y8
G1 F1200 X101.596 Y109.374 E35.14167
M204 S2000
M205 X10 Y10
G0 F3600 X101.596 Y108.667
M204 S1000
M205 X8 Y8
G1 F1200 X119.201 Y126.272 E36.17678
M204 S2000
M205 X10 Y10
G0 F3600 X119.908 Y126.272
M204 S1000
M205 X8 Y8
G1 F1200 X101.596 Y107.96 E37.25345
M204 S2000
M205 X10 Y10
G0 F3600 X101.596 Y107.253
M204 S1000
M205 X8 Y8
G1 F1200 X120.615 Y126.272 E38.3717
M204 S2000
M205 X10 Y10
G0 F3600 X121.323 Y126.272
M204 S1000
M205 X8 Y8
G1 F1200 X101.596 Y106.545 E39.53157
M204 S2000
M205 X10 Y10
G0 F3600 X101.596 Y105.838
M204 S1000
M205 X8 Y8
G1 F1200 X122.03 Y126.272 E40.73301
M204 S2000
M205 X10 Y10
G0 F3600 X122.737 Y126.272
M204 S1000
M205 X8 Y8
G1 F1200 X101.596 Y105.131 E41.97602
M204 S2000
M205 X10 Y10
G0 F3600 X101.596 Y104.424
M204 S1000
M205 X8 Y8
G1 F1200 X123.444 Y126.272 E43.2606
M204 S2000
M205 X10 Y10
G0 F3600 X124.151 Y126.272
M204 S1000
M205 X8 Y8
G1 F1200 X101.599 Y103.72 E44.58657
M204 S2000
M205 X10 Y10
G0 F3600 X102.306 Y103.72
M204 S1000
M205 X8 Y8
G1 F1200 X124.858 Y126.272 E45.91254
M204 S2000
M205 X10 Y10
G0 F3600 X125.565 Y126.272
M204 S1000
M205 X8 Y8
G1 F1200 X103.013 Y103.72 E47.23851
M204 S2000
M205 X10 Y10
G0 F3600 X103.72 Y103.72
M204 S1000
M205 X8 Y8
G1 F1200 X126.272 Y126.272 E48.56448
M204 S2000
M205 X10 Y10
G0 F3600 X126.979 Y126.272
M204 S1000
M205 X8 Y8
G1 F1200 X104.427 Y103.72 E49.89046
M204 S2000
M205 X10 Y10
G0 F3600 X105.134 Y103.72
M204 S1000
M205 X8 Y8
G1 F1200 X127.411 Y125.997 E51.20026
M204 S2000
M205 X10 Y10
G0 F3600 X127.765 Y125.644
M204 S1000
M205 X8 Y8
G1 F1200 X105.841 Y103.72 E52.48931
M204 S2000
M205 X10 Y10
G0 F3600 X106.548 Y103.72
M204 S1000
M205 X8 Y8
G1 F1200 X128.119 Y125.29 E53.75757
M204 S2000
M205 X10 Y10
G0 F3600 X128.396 Y124.861
M204 S1000
M205 X8 Y8
G1 F1200 X107.255 Y103.72 E55.00058
M204 S2000
M205 X10 Y10
G0 F3600 X107.962 Y103.72
M204 S1000
M205 X8 Y8
G1 F1200 X128.396 Y124.154 E56.20202
M204 S2000
M205 X10 Y10
G0 F3600 X128.396 Y123.447
M204 S1000
M205 X8 Y8
G1 F1200 X108.67 Y103.72 E57.36186
M204 S2000
M205 X10 Y10
G0 F3600 X109.377 Y103.72
M204 S1000
M205 X8 Y8
G1 F1200 X128.396 Y122.74 E58.48013
M204 S2000
M205 X10 Y10
G0 F3600 X128.396 Y122.032
M204 S1000
M205 X8 Y8
G1 F1200 X110.084 Y103.72 E59.55681
M204 S2000
M205 X10 Y10
G0 F3600 X110.791 Y103.72
M204 S1000
M205 X8 Y8
G1 F1200 X128.396 Y121.325 E60.59192
M204 S2000
M205 X10 Y10
G0 F3600 X128.396 Y120.618
M204 S1000
M205 X8 Y8
G1 F1200 X111.498 Y103.72 E61.58545
M204 S2000
M205 X10 Y10
G0 F3600 X112.205 Y103.72
M204 S1000
M205 X8 Y8
G1 F1200 X128.396 Y119.911 E62.53742
M204 S2000
M205 X10 Y10
G0 F3600 X128.396 Y119.204
M204 S1000
M205 X8 Y8
G1 F1200 X112.912 Y103.72 E63.44782
M204 S2000
M205 X10 Y10
G0 F3600 X113.619 Y103.72
M204 S1000
M205 X8 Y8
G1 F1200 X128.396 Y118.497 E64.31665
M204 S2000
M205 X10 Y10
G0 F3600 X128.396 Y117.79
M204 S1000
M205 X8 Y8
G1 F1200 X114.326 Y103.72 E65.14392
M204 S2000
M205 X10 Y10
G0 F3600 X115.034 Y103.72
M204 S1000
M205 X8 Y8
G1 F1200 X128.396 Y117.083 E65.92958
M204 S2000
M205 X10 Y10
G0 F3600 X128.396 Y116.376
M204 S1000
M205 X8 Y8
G1 F1200 X115.741 Y103.72 E66.67367
M204 S2000
M205 X10 Y10
G0 F3600 X116.448 Y103.72
M204 S1000
M205 X8 Y8
G1 F1200 X128.396 Y115.669 E67.3762
M204 S2000
M205 X10 Y10
G0 F3600 X128.396 Y114.961
M204 S1000
M205 X8 Y8
G1 F1200 X117.155 Y103.72 E68.03713
M204 S2000
M205 X10 Y10
G0 F3600 X117.862 Y103.72
M204 S1000
M205 X8 Y8
G1 F1200 X128.396 Y114.254 E68.65649
M204 S2000
M205 X10 Y10
G0 F3600 X128.396 Y113.547
M204 S1000
M205 X8 Y8
G1 F1200 X118.569 Y103.72 E69.23428
M204 S2000
M205 X10 Y10
G0 F3600 X119.276 Y103.72
M204 S1000
M205 X8 Y8
G1 F1200 X128.396 Y112.84 E69.7705
M204 S2000
M205 X10 Y10
G0 F3600 X128.396 Y112.133
M204 S1000
M205 X8 Y8
G1 F1200 X119.983 Y103.72 E70.26515
M204 S2000
M205 X10 Y10
G0 F3600 X120.69 Y103.72
M204 S1000
M205 X8 Y8
G1 F1200 X128.396 Y111.426 E70.71823
M204 S2000
M205 X10 Y10
G0 F3600 X128.396 Y110.719
M204 S1000
M205 X8 Y8
G1 F1200 X121.398 Y103.72 E71.12972
M204 S2000
M205 X10 Y10
G0 F3600 X122.105 Y103.72
M204 S1000
M205 X8 Y8
G1 F1200 X128.396 Y110.012 E71.49963
M204 S2000
M205 X10 Y10
G0 F3600 X128.396 Y109.305
M204 S1000
M205 X8 Y8
G1 F1200 X122.812 Y103.72 E71.82798
M204 S2000
M205 X10 Y10
G0 F3600 X123.519 Y103.72
M204 S1000
M205 X8 Y8
G1 F1200 X128.396 Y108.597 E72.11473
M204 S2000
M205 X10 Y10
G0 F3600 X128.396 Y107.89
M204 S1000
M205 X8 Y8
G1 F1200 X124.226 Y103.72 E72.35991
M204 S2000
M205 X10 Y10
G0 F3600 X124.933 Y103.72
M204 S1000
M205 X8 Y8
G1 F1200 X128.396 Y107.183 E72.56352
M204 S2000
M205 X10 Y10
G0 F3600 X128.396 Y106.476
M204 S1000
M205 X8 Y8
G1 F1200 X125.64 Y103.72 E72.72556
M204 S2000
M205 X10 Y10
G0 F3600 X126.347 Y103.72
M204 S1000
M205 X8 Y8
G1 F1200 X128.396 Y105.769 E72.84604
M204 S2000
M205 X10 Y10
G0 F3600 X128.396 Y105.062
M204 S1000
M205 X8 Y8
G1 F1200 X127.054 Y103.72 E72.92494
M204 S2000
M205 X10 Y10
G0 F3600 X127.761 Y103.72
M204 S1000
M205 X8 Y8
G1 F1200 X128.396 Y104.355 E72.96228
M204 S2000
M205 X10 Y10
G0 F3600 X128.365 Y104.355
G1 F3600 E68.96228
;MESH:NONMESH
G0 F600 X128.365 Y104.355 Z0.4
G0 F3600 X100.649 Y102.774
G0 X100.649 Y101.585
G0 X97.87 Y99.928
;TIME_ELAPSED:96.363537
;LAYER:1
M106 S255
M204 S1000
M205 X8 Y8
;TYPE:SKIRT
G1 F3600 E72.96228
G1 F1200 X98.262 Y99.603 E72.98345
G1 X98.7 Y99.343 E73.00462
G1 X99.174 Y99.154 E73.02584
G1 X99.671 Y99.042 E73.04702
G1 X100.149 Y99.001 E73.06697
G1 X129.215 Y99 E74.27539
G1 X129.913 Y99.01 E74.30441
G1 X130.42 Y99.058 E74.32559
G1 X130.914 Y99.183 E74.34677
G1 X131.382 Y99.385 E74.36796
G1 X131.812 Y99.657 E74.38912
G1 X132.195 Y99.993 E74.4103
G1 X132.521 Y100.385 E74.4315
G1 X132.781 Y100.823 E74.45267
G1 X132.97 Y101.296 E74.47385
G1 X133.082 Y101.793 E74.49503
G1 X133.124 Y102.271 E74.51498
G1 X133.125 Y124.965 E75.45849
G1 X133.11 Y125.982 E75.50077
G1 X132.956 Y126.624 E75.52822
G1 X132.761 Y127.095 E75.54942
G1 X132.424 Y127.646 E75.57627
G1 X131.883 Y128.213 E75.60885
G1 X130.506 Y129.59 E75.68981
G1 X129.769 Y130.301 E75.73239
G1 X129.199 Y130.647 E75.76011
G1 X128.727 Y130.838 E75.78128
G1 X128.106 Y130.983 E75.80779
G1 X127.228 Y131 E75.8443
G1 X107.159 Y131 E76.67867
G1 X106.476 Y130.99 E76.70707
G1 X105.969 Y130.942 E76.72825
G1 X105.365 Y130.788 E76.75416
G1 X104.194 Y130.23 E76.80809
G1 X99.253 Y127.76 E77.03775
G1 X98.643 Y127.444 E77.06631
G1 X98.21 Y127.175 E77.08751
G1 X97.825 Y126.841 E77.1087
G1 X97.497 Y126.452 E77.12985
G1 X97.233 Y126.016 E77.15104
G1 X97.041 Y125.544 E77.17223
G1 X96.893 Y124.91 E77.19929
G1 X96.875 Y123.8 E77.24545
G1 X96.875 Y102.875 E78.11541
G1 X96.885 Y102.21 E78.14306
G1 X96.933 Y101.703 E78.16423
G1 X97.059 Y101.209 E78.18543
G1 X97.261 Y100.741 E78.20662
G1 X97.534 Y100.311 E78.2278
G1 X97.87 Y99.928 E78.24898
M204 S3500
M205 X10 Y10
G1 F3600 E74.24898
;MESH:ballista-pE.stl
G0 F5400 X100.649 Y101.585
G0 X100.649 Y102.774
G0 X101.43 Y103.198
M204 S1000
M205 X8 Y8
;TYPE:FILL
G1 F3600 E78.24898
G1 F1800 X125.031 Y126.798 E79.6366
M204 S3500
M205 X10 Y10
G0 F5400 X124.414 Y126.798
M204 S1000
M205 X8 Y8
G1 F1800 X128.923 Y122.29 E79.90168
M204 S3500
M205 X10 Y10
G0 F5400 X128.923 Y121.851
M204 S1000
M205 X8 Y8
G1 F1800 X110.269 Y103.198 E80.99843
M204 S3500
M205 X10 Y10
G0 F5400 X110.891 Y103.198
M204 S1000
M205 X8 Y8
G1 F1800 X101.074 Y113.015 E81.57564
M204 S3500
M205 X10 Y10
G0 F5400 X101.074 Y113.448
M204 S1000
M205 X8 Y8
G1 F1800 X114.424 Y126.798 E82.36056
M204 S3500
M205 X10 Y10
G0 F5400 X113.807 Y126.798
M204 S1000
M205 X8 Y8
G1 F1800 X128.923 Y111.683 E83.2493
M204 S3500
M205 X10 Y10
G0 F5400 X128.923 Y111.245
M204 S1000
M205 X8 Y8
G1 F1800 X120.876 Y103.198 E83.72243
M204 S3500
M205 X10 Y10
G0 F5400 X121.498 Y103.198
M204 S1000
M205 X8 Y8
G1 F1800 X101.074 Y123.622 E84.92328
G1 X100.986 Y123.71
M204 S3500
M205 X10 Y10
G0 F5400 X101.235 Y123.71
G0 X102.089 Y124.305
G0 X102.018 Y124.446
M204 S1000
M205 X8 Y8
G1 F1800 X123.266 Y103.198 E86.17259
M204 S3500
M205 X10 Y10
G0 F5400 X122.643 Y103.198
M204 S1000
M205 X8 Y8
G1 F1800 X128.923 Y109.477 E86.5418
M204 S3500
M205 X10 Y10
G0 F5400 X128.923 Y109.916
M204 S1000
M205 X8 Y8
G1 F1800 X112.04 Y126.798 E87.53442
M204 S3500
M205 X10 Y10
G0 F5400 X112.656 Y126.798
M204 S1000
M205 X8 Y8
G1 F1800 X101.074 Y115.216 E88.2154
M204 S3500
M205 X10 Y10
