;FLAVOR:Marlin
;TIME:93
;Filament used: 0.0374294m
;Layer height: 0.2
;MINX:107.684
;MINY:107.663
;MINZ:0.2
;MAXX:122.296
;MAXY:122.333
;MAXZ:17
;TARGET_MACHINE.NAME:Anycubic Kobra
;Generated with Cura_SteamEngine 5.10.1
M140 S60
M105
M190 S60
M104 S200
M105
M109 S200
G21 ;metric values
G90 ;absolute positioning
M82 ;set extruder to absolute mode
M107 ;start with the fan off
M117 Homing X/Y ...
G28 X0 Y0 ;move X/Y to min endstops
M117 Homing Z ...
G28 Z0 ;move Z to min endstops
G1 Z15.0 F240 ;move the platform down 15mm
M117 Heating ...
M104 S[first_layer_temperature]
; set extruder temp
M109 S[first_layer_temperature]
; wait for extruder temp
M117 Start cleaning ...
M420 S1 ; Enable Bed Levelling Mesh
G92 E0 ;zero the extruded length
M413 S0 ; disable power loss recovery - may reduce blobbing and avoid unexpected recovery
; M500 ; store eeprom settings
M117 Intro line ...
G1 Z2.0 F3000 ; Move Z Axis up little to prevent scratching of Heat Bed
G1 X0.1 Y20 Z[first_layer_height] F5000.0 ; Move to start position
G1 X0.1 Y200.0 Z[first_layer_height] F1500.0 E15 ; Draw the first line
G1 X0.4 Y200.0 Z[first_layer_height] F5000.0 ; Move to side a little
G1 X0.4 Y20 Z0.3[first_layer_height] F1500.0 E30 ; Draw the second line
G92 E0 ; Reset Extruder
G1 X5 Y20 Z0.3 F240 ; Move over to prevent blob squish
G92 E0 ; Reset Extruder
M420 S1 ; Enable Bed Levelling Mesh
M117 Printing...
M82 ;absolute extrusion mode
G92 E0
G92 E0
G1 F3600 E-4
;LAYER_COUNT:85
;LAYER:0
M107
M204 S2000
M205 X10 Y10
G0 X110.009 Y109.68 Z0.2
M204 S1000
M205 X8 Y8
;TYPE:SKIRT
G1 F3600 E0
G1 F1200 X110.885 Y108.951 E0.04738
G1 X111.959 Y108.374 E0.09807
G1 X112.73 Y108.077 E0.13242
G1 X114.001 Y107.772 E0.18676
G1 X115.14 Y107.663 E0.23433
G1 X116.529 Y107.864 E0.29268
G1 X117.514 Y108.12 E0.33499
G1 X118.909 Y108.789 E0.39932
G1 X120.087 Y109.772 E0.4631
G1 X120.786 Y110.525 E0.50582
G1 X121.557 Y111.759 E0.56631
G1 X121.935 Y112.749 E0.61037
G1 X122.222 Y113.812 E0.65615
G1 X122.296 Y114.91 E0.7019
G1 X122.201 Y116.14 E0.75319
G1 X121.98 Y117.113 E0.79467
G1 X121.719 Y117.842 E0.82687
G1 X121.303 Y118.662 E0.86509
G1 X120.614 Y119.661 E0.91555
G1 X120.004 Y120.309 E0.95255
G1 X119.13 Y121.041 E0.99994
G1 X118.031 Y121.627 E1.05172
G1 X117.03 Y121.997 E1.09609
G1 X116.113 Y122.211 E1.13524
G1 X114.846 Y122.333 E1.18816
G1 X113.576 Y122.156 E1.24147
G1 X112.514 Y121.862 E1.28729
G1 X111.877 Y121.593 E1.31603
G1 X110.837 Y121.009 E1.36562
G1 X109.766 Y120.08 E1.42457
G1 X109.122 Y119.319 E1.46601
G1 X108.542 Y118.429 E1.51018
G1 X108.066 Y117.268 E1.56235
G1 X107.846 Y116.523 E1.59464
G1 X107.684 Y114.95 E1.66039
G1 X107.786 Y113.923 E1.7033
G1 X108.009 Y112.859 E1.74849
G1 X108.531 Y111.644 E1.80347
G1 X109.155 Y110.596 E1.85418
G1 X110.009 Y109.68 E1.90625
M204 S2000
M205 X10 Y10
G0 F3600 X110.375 Y110.021
M204 S1000
M205 X8 Y8
G1 F1200 X111.165 Y109.368 E1.94886
G1 X112.139 Y108.841 E1.9949
G1 X112.91 Y108.544 E2.02925
G1 X114.048 Y108.27 E2.07792
G1 X115.129 Y108.167 E2.12306
G1 X116.403 Y108.348 E2.17656
G1 X117.342 Y108.592 E2.2169
G1 X118.637 Y109.213 E2.27661
G1 X119.72 Y110.112 E2.33512
G1 X120.388 Y110.832 E2.37596
G1 X121.106 Y111.981 E2.43229
G1 X121.452 Y112.879 E2.4723
G1 X121.726 Y113.895 E2.51605
G1 X121.797 Y114.944 E2.55976
G1 X121.703 Y116.099 E2.60794
G1 X121.508 Y116.947 E2.64411
G1 X121.272 Y117.618 E2.67368
G1 X120.89 Y118.38 E2.70912
G1 X120.248 Y119.32 E2.75645
G1 X119.683 Y119.926 E2.79089
G1 X118.849 Y120.624 E2.83611
G1 X117.856 Y121.159 E2.883
G1 X116.914 Y121.511 E2.92481
G1 X116.065 Y121.713 E2.9611
G1 X114.853 Y121.83 E3.01172
G1 X113.708 Y121.674 E3.05976
G1 X112.706 Y121.4 E3.10295
G1 X112.122 Y121.157 E3.12925
G1 X111.125 Y120.597 E3.17679
G1 X110.146 Y119.755 E3.23047
G1 X109.541 Y119.046 E3.26922
G1 X108.986 Y118.195 E3.31146
G1 X108.545 Y117.126 E3.35954
G1 X108.338 Y116.426 E3.38989
G1 X108.187 Y114.953 E3.45145
G1 X108.284 Y113.972 E3.49244
G1 X108.488 Y113.011 E3.53328
G1 X108.961 Y111.9 E3.58348
G1 X109.558 Y110.897 E3.63201
G1 X110.375 Y110.021 E3.68181
M204 S2000
M205 X10 Y10
G0 F3600 X110.741 Y110.362
M204 S1000
M205 X8 Y8
G1 F1200 X111.444 Y109.785 E3.71962
G1 X112.319 Y109.308 E3.76105
G1 X113.09 Y109.011 E3.7954
G1 X114.096 Y108.768 E3.83843
G1 X115.12 Y108.67 E3.8812
G1 X116.277 Y108.832 E3.92977
G1 X117.17 Y109.064 E3.96813
G1 X118.365 Y109.637 E4.02323
G1 X119.401 Y110.497 E4.07921
G1 X119.988 Y111.136 E4.11528
G1 X120.655 Y112.203 E4.1676
G1 X120.985 Y113.059 E4.20574
G1 X121.23 Y113.977 E4.24524
G1 X121.298 Y114.978 E4.28695
G1 X121.215 Y115.989 E4.32913
G1 X121.036 Y116.781 E4.36288
G1 X120.8 Y117.452 E4.39246
G1 X120.444 Y118.154 E4.42518
G1 X119.882 Y118.979 E4.46668
G1 X119.317 Y119.585 E4.50113
G1 X118.567 Y120.208 E4.54166
G1 X117.679 Y120.691 E4.58369
G1 X116.795 Y121.025 E4.62298
G1 X116.017 Y121.215 E4.65628
G1 X114.863 Y121.326 E4.70447
G1 X113.838 Y121.191 E4.74746
G1 X112.898 Y120.938 E4.78793
G1 X112.314 Y120.695 E4.81423
G1 X111.415 Y120.187 E4.85716
G1 X110.525 Y119.429 E4.90576
G1 X109.96 Y118.773 E4.94176
G1 X109.431 Y117.962 E4.98201
G1 X109.025 Y116.984 E5.02604
G1 X108.83 Y116.324 E5.05465
G1 X108.69 Y114.956 E5.11182
G1 X108.782 Y114.021 E5.15088
G1 X108.967 Y113.162 E5.18741
G1 X109.391 Y112.156 E5.2328
G1 X109.961 Y111.198 E5.27915
G1 X110.741 Y110.362 E5.32668
M204 S2000
M205 X10 Y10
G0 F3600 X111.058 Y110.748
M204 S1000
M205 X8 Y8
G1 F1200 X111.723 Y110.202 E5.36245
G1 X112.499 Y109.775 E5.39928
G1 X113.27 Y109.478 E5.43363
G1 X114.144 Y109.266 E5.47102
G1 X115.112 Y109.173 E5.51145
G1 X116.151 Y109.316 E5.55505
G1 X116.998 Y109.536 E5.59144
G1 X118.093 Y110.061 E5.64192
G1 X119.033 Y110.835 E5.69255
G1 X119.588 Y111.439 E5.72665
G1 X120.206 Y112.428 E5.77514
G1 X120.502 Y113.188 E5.80904
G1 X120.734 Y114.058 E5.84648
G1 X120.799 Y115.012 E5.88623
G1 X120.727 Y115.881 E5.92249
G1 X120.564 Y116.615 E5.95375
G1 X120.328 Y117.286 E5.98332
G1 X120.029 Y117.875 E6.01078
G1 X119.515 Y118.64 E6.0491
G1 X118.998 Y119.2 E6.08078
G1 X118.285 Y119.792 E6.11931
G1 X117.501 Y120.224 E6.15653
G1 X116.676 Y120.539 E6.19324
G1 X115.898 Y120.729 E6.22654
G1 X114.872 Y120.823 E6.26937
G1 X113.903 Y120.695 E6.31001
G1 X113.03 Y120.456 E6.34764
G1 X112.509 Y120.235 E6.37117
G1 X111.703 Y119.776 E6.40973
G1 X110.902 Y119.101 E6.45328
G1 X110.379 Y118.5 E6.48641
G1 X109.874 Y117.726 E6.52483
G1 X109.505 Y116.842 E6.56465
G1 X109.322 Y116.222 E6.59153
G1 X109.192 Y114.958 E6.64436
G1 X109.271 Y114.126 E6.6791
G1 X109.447 Y113.309 E6.71385
G1 X109.821 Y112.412 E6.75425
G1 X110.366 Y111.497 E6.79853
G1 X111.058 Y110.748 E6.84093
M204 S2000
M205 X10 Y10
G0 F3600 X111.375 Y111.134
M204 S1000
M205 X8 Y8
G1 F1200 X112 Y110.621 E6.87455
G1 X112.679 Y110.242 E6.90687
G1 X113.45 Y109.945 E6.94123
G1 X114.192 Y109.764 E6.97298
G1 X115.101 Y109.677 E7.01094
G1 X116.025 Y109.8 E7.0497
G1 X116.826 Y110.008 E7.0841
G1 X117.822 Y110.486 E7.13003
G1 X118.715 Y111.221 E7.17812
G1 X119.188 Y111.742 E7.20738
G1 X119.758 Y112.654 E7.25209
G1 X120.019 Y113.317 E7.28171
G1 X120.238 Y114.138 E7.31704
G1 X120.3 Y114.973 E7.35185
G1 X120.238 Y115.775 E7.38529
G1 X120.091 Y116.452 E7.41409
G1 X119.882 Y117.06 E7.44082
G1 X119.583 Y117.649 E7.46829
G1 X119.145 Y118.303 E7.50101
G1 X118.679 Y118.815 E7.52979
G1 X118.001 Y119.378 E7.56643
G1 X117.321 Y119.758 E7.59882
G1 X116.554 Y120.054 E7.633
G1 X115.852 Y120.231 E7.6631
G1 X114.883 Y120.32 E7.70355
G1 X113.969 Y120.199 E7.74189
G1 X113.222 Y119.994 E7.77409
G1 X112.757 Y119.801 E7.79502
G1 X111.99 Y119.364 E7.83172
G1 X111.277 Y118.771 E7.87028
G1 X110.798 Y118.227 E7.90041
G1 X110.318 Y117.491 E7.93694
G1 X109.985 Y116.701 E7.97259
G1 X109.814 Y116.121 E7.99773
G1 X109.694 Y114.958 E8.04634
G1 X109.76 Y114.232 E8.07664
G1 X109.927 Y113.459 E8.10952
G1 X110.283 Y112.604 E8.14803
G1 X110.769 Y111.798 E8.18716
G1 X111.375 Y111.134 E8.22453
M204 S2000
M205 X10 Y10
G0 F3600 X111.692 Y111.521
M204 S1000
M205 X8 Y8
G1 F1200 X112.282 Y111.037 E8.25626
G1 X112.923 Y110.679 E8.28678
G1 X113.568 Y110.431 E8.31551
G1 X114.31 Y110.25 E8.34727
G1 X115.091 Y110.18 E8.37987
G1 X115.899 Y110.284 E8.41374
G1 X116.654 Y110.48 E8.44617
G1 X117.553 Y110.911 E8.48762
G1 X118.345 Y111.557 E8.53011
G1 X118.787 Y112.044 E8.55745
G1 X119.311 Y112.882 E8.59854
G1 X119.536 Y113.446 E8.62379
G1 X119.742 Y114.219 E8.65705
G1 X119.801 Y115.01 E8.69002
G1 X119.749 Y115.671 E8.71759
G1 X119.618 Y116.289 E8.74385
G1 X119.409 Y116.897 E8.77058
G1 X119.139 Y117.419 E8.79502
G1 X118.775 Y117.966 E8.82233
G1 X118.309 Y118.478 E8.85112
G1 X117.718 Y118.963 E8.8829
G1 X117.077 Y119.321 E8.91343
G1 X116.432 Y119.569 E8.94216
G1 X115.73 Y119.746 E8.97226
G1 X114.896 Y119.817 E9.00706
G1 X114.035 Y119.703 E9.04316
G1 X113.414 Y119.532 E9.06994
G1 X112.949 Y119.339 E9.09087
G1 X112.277 Y118.952 E9.12311
G1 X111.65 Y118.438 E9.15682
G1 X111.217 Y117.954 E9.18382
G1 X110.761 Y117.255 E9.21852
G1 X110.465 Y116.56 E9.24993
G1 X110.306 Y116.02 E9.27333
G1 X110.196 Y114.956 E9.3178
G1 X110.249 Y114.338 E9.34359
G1 X110.407 Y113.608 E9.37464
G1 X110.711 Y112.862 E9.40813
G1 X111.171 Y112.099 E9.44517
G1 X111.692 Y111.521 E9.47753
M204 S2000
M205 X10 Y10
G0 F3600 X112.009 Y111.908
M204 S1000
M205 X8 Y8
G1 F1200 X112.565 Y111.452 E9.50742
G1 X113.105 Y111.145 E9.53325
G1 X113.69 Y110.916 E9.55937
G1 X114.355 Y110.748 E9.58788
G1 X115.081 Y110.683 E9.61819
G1 X115.835 Y110.78 E9.64979
G1 X116.48 Y110.951 E9.67753
G1 X117.284 Y111.336 E9.7146
G1 X117.975 Y111.893 E9.7515
G1 X118.386 Y112.346 E9.77693
G1 X118.864 Y113.11 E9.81439
G1 X119.053 Y113.575 E9.83526
G1 X119.246 Y114.3 E9.86645
G1 X119.302 Y115.047 E9.8976
G1 X119.26 Y115.567 E9.91929
G1 X119.129 Y116.185 E9.94555
G1 X118.965 Y116.667 E9.96672
G1 X118.695 Y117.189 E9.99115
G1 X118.402 Y117.633 E10.01327
G1 X117.992 Y118.091 E10.03882
G1 X117.435 Y118.548 E10.06878
G1 X116.895 Y118.855 E10.0946
G1 X116.31 Y119.084 E10.12072
G1 X115.645 Y119.252 E10.14924
G1 X115.061 Y119.301 E10.1736
G1 X115.052 Y118.998 E10.18621
G1 X114.784 Y118.994 E10.19735
G1 X114.764 Y119.295 E10.20989
G1 X114.165 Y119.22 E10.23499
G1 X113.606 Y119.07 E10.25905
G1 X113.141 Y118.877 E10.27998
G1 X112.529 Y118.52 E10.30944
G1 X112.019 Y118.101 E10.33688
G1 X111.636 Y117.681 E10.36051
G1 X111.203 Y117.018 E10.39344
G1 X110.945 Y116.419 E10.42055
G1 X110.798 Y115.919 E10.44222
G1 X110.698 Y114.951 E10.48268
G1 X110.738 Y114.444 E10.50382
G1 X110.887 Y113.755 E10.53313
G1 X111.174 Y113.051 E10.56474
G1 X111.573 Y112.4 E10.59648
G1 X112.009 Y111.908 E10.62381
M204 S2000
M205 X10 Y10
G1 F3600 E6.62381
;MESH:ballista-pH.stl
G0 X113.754 Y113.811
G0 X115.376 Y115.715
M204 S1000
M205 X8 Y8
;TYPE:WALL-OUTER
G1 F3600 E10.62381
G1 F1200 X115.654 Y115.477 E10.63903
G1 X115.746 Y115.304 E10.64717
G1 X115.808 Y115.02 E10.65926
G1 X115.8 Y114.87 E10.6655
G1 X115.665 Y114.533 E10.6806
G1 X115.429 Y114.317 E10.6939
G1 X115.149 Y114.207 E10.70641
G1 X114.842 Y114.206 E10.71917
G1 X114.623 Y114.282 E10.72881
G1 X114.451 Y114.401 E10.7375
G1 X114.249 Y114.693 E10.75226
G1 X114.189 Y114.974 E10.76421
G1 X114.264 Y115.34 E10.77974
G1 X114.334 Y115.462 E10.78559
G1 X114.569 Y115.681 E10.79895
G1 X114.849 Y115.793 E10.81148
G1 X115.153 Y115.794 E10.82412
G1 X115.376 Y115.715 E10.83396
M204 S2000
M205 X10 Y10
G0 F3600 X115.565 Y115.553
G0 X115.134 Y115.248
M204 S1000
M205 X8 Y8
;TYPE:WALL-INNER
G1 F1107 X115.226 Y115.172 E10.83934
G1 X115.283 Y114.963 E10.8491
G1 X115.249 Y114.858 E10.85407
G1 X115.148 Y114.767 E10.8602
G1 X114.929 Y114.727 E10.87023
G1 X114.773 Y114.823 E10.87849
G1 X114.714 Y115.01 E10.88733
G1 X114.747 Y115.135 E10.89315
G1 X114.95 Y115.272 E10.90419
G1 X115.134 Y115.248 E10.91255
M204 S2000
M205 X10 Y10
G1 F3600 E6.91255
;MESH:NONMESH
G0 F600 X115.134 Y115.248 Z0.4
G0 F3600 X114.998 Y115.016
G0 X113.754 Y113.811
G0 X112.009 Y111.908
;TIME_ELAPSED:18.254912
;LAYER:1
;note -- min layer time used
M106 S255
M204 S1000
M205 X8 Y8
;TYPE:SKIRT
G1 F3600 E10.91255
G1 F600 X112.565 Y111.452 E10.94245
G1 X113.105 Y111.145 E10.96827
G1 X113.69 Y110.916 E10.99439
G1 X114.355 Y110.748 E11.02291
G1 X115.081 Y110.683 E11.05321
G1 X115.835 Y110.78 E11.08482
G1 X116.48 Y110.951 E11.11256
G1 X117.284 Y111.336 E11.14962
G1 X117.975 Y111.893 E11.18652
G1 X118.386 Y112.346 E11.21195
G1 X118.864 Y113.11 E11.24942
G1 X119.053 Y113.575 E11.27029
G1 X119.246 Y114.3 E11.30148
G1 X119.302 Y115.047 E11.33262
G1 X119.26 Y115.567 E11.35431
G1 X119.129 Y116.185 E11.38058
G1 X118.965 Y116.667 E11.40174
G1 X118.695 Y117.189 E11.42618
G1 X118.402 Y117.633 E11.44829
G1 X117.992 Y118.091 E11.47385
G1 X117.435 Y118.548 E11.5038
G1 X116.895 Y118.855 E11.52963
G1 X116.31 Y119.084 E11.55575
G1 X115.645 Y119.252 E11.58426
G1 X115.061 Y119.301 E11.60863
G1 X115.052 Y118.998 E11.62123
G1 X114.784 Y118.994 E11.63238
G1 X114.764 Y119.295 E11.64492
G1 X114.165 Y119.22 E11.67002
G1 X113.606 Y119.07 E11.69408
G1 X113.141 Y118.877 E11.71501
G1 X112.529 Y118.52 E11.74447
G1 X112.019 Y118.101 E11.77191
G1 X111.636 Y117.681 E11.79554
G1 X111.203 Y117.018 E11.82846
G1 X110.945 Y116.419 E11.85558
G1 X110.798 Y115.919 E11.87724
G1 X110.698 Y114.951 E11.9177
G1 X110.738 Y114.444 E11.93885
G1 X110.887 Y113.755 E11.96815
G1 X111.174 Y113.051 E11.99976
G1 X111.573 Y112.4 E12.03151
G1 X112.009 Y111.908 E12.05884
M204 S3500
M205 X10 Y10
G1 F3600 E8.05884
;MESH:ballista-pH.stl
G0 F5400 X113.754 Y113.811
G0 X115.375 Y115.715
M204 S1000
M205 X8 Y8
;TYPE:WALL-OUTER
G1 F3600 E12.05884
G1 F600 X115.654 Y115.477 E12.07408
G1 X115.746 Y115.304 E12.08223
G1 X115.807 Y115.022 E12.09423
G1 X115.739 Y114.676 E12.10889
G1 X115.539 Y114.397 E12.12316
G1 X115.278 Y114.242 E12.13578
G1 X114.852 Y114.2 E12.15358
G1 X114.624 Y114.281 E12.16364
G1 X114.451 Y114.401 E12.17239
G1 X114.249 Y114.693 E12.18715
G1 X114.189 Y114.978 E12.19926
G1 X114.256 Y115.319 E12.21371
G1 X114.462 Y115.6 E12.22819
G1 X114.72 Y115.758 E12.24077
G1 X114.99 Y115.808 E12.25219
G1 X115.375 Y115.715 E12.26865
M204 S3500
M205 X10 Y10
G0 F5400 X115.565 Y115.553
G0 X115.037 Y115.283
M204 S1000
M205 X8 Y8
;TYPE:WALL-INNER
G1 F555.6 X115.227 Y115.173 E12.27851
G1 X115.283 Y114.985 E12.28732
G1 X115.18 Y114.789 E12.29726
G1 X114.967 Y114.713 E12.30742
G1 X114.772 Y114.822 E12.31745
G1 X114.713 Y115.013 E12.32642
G1 X114.824 Y115.211 E12.33661
G1 X115.037 Y115.283 E12.34671
M204 S3500
M205 X10 Y10
G1 F3600 E8.34671
;MESH:NONMESH
G0 F600 X115.037 Y115.283 Z0.6
G0 F5400 X114.987 Y115.015
G0 X113.754 Y113.811
G0 X112.009 Y111.908
;TIME_ELAPSED:22.395181
;LAYER:2
;note -- min layer time used
M204 S1000
M205 X8 Y8
;TYPE:SKIRT
G1 F3600 E12.34671
G1 F600 X112.565 Y111.452 E12.37661
G1 X113.105 Y111.145 E12.40243
G1 X113.69 Y110.916 E12.42855
G1 X114.355 Y110.748 E12.45707
G1 X115.081 Y110.683 E12.48737
G1 X115.835 Y110.78 E12.51898
G1 X116.48 Y110.951 E12.54672
G1 X117.284 Y111.336 E12.58378
G1 X117.975 Y111.893 E12.62068
G1 X118.386 Y112.346 E12.64611
G1 X118.864 Y113.11 E12.68358
G1 X119.053 Y113.575 E12.70445
G1 X119.246 Y114.3 E12.73564
G1 X119.302 Y115.047 E12.76678
G1 X119.26 Y115.567 E12.78847
G1 X119.129 Y116.185 E12.81474
G1 X118.965 Y116.667 E12.8359
G1 X118.695 Y117.189 E12.86034
G1 X118.402 Y117.633 E12.88245
G1 X117.992 Y118.091 E12.90801
G1 X117.435 Y118.548 E12.93796
G1 X116.895 Y118.855 E12.96379
G1 X116.31 Y119.084 E12.98991
G1 X115.645 Y119.252 E13.01842
G1 X115.061 Y119.301 E13.04279
G1 X115.052 Y118.998 E13.05539
G1 X114.784 Y118.994 E13.06653
G1 X114.764 Y119.295 E13.07908
G1 X114.165 Y119.22 E13.10417
G1 X113.606 Y119.07 E13.12824
G1 X113.141 Y118.877 E13.14917
G1 X112.529 Y118.52 E13.17863
G1 X112.019 Y118.101 E13.20607
G1 X111.636 Y117.681 E13.2297
G1 X111.203 Y117.018 E13.26262
G1 X110.945 Y116.419 E13.28974
G1 X110.798 Y115.919 E13.3114
G1 X110.698 Y114.951 E13.35186
G1 X110.738 Y114.444 E13.37301
G1 X110.887 Y113.755 E13.40231
G1 X111.174 Y113.051 E13.43392
G1 X111.573 Y112.4 E13.46567
G1 X112.009 Y111.908 E13.493
M204 S5000
M205 X10 Y10
G1 F3600 E9.493
;MESH:ballista-pH.stl
G0 F7200 X113.795 Y113.772
G0 X115.512 Y115.624
M204 S1000
M205 X8 Y8
;TYPE:WALL-OUTER
