;FLAVOR:Marlin
;TIME:378
;Filament used: 0.148456m
;Layer height: 0.2
;MINX:107.141
;MINY:107.125
;MINZ:0.2
;MAXX:122.875
;MAXY:122.875
;MAXZ:21.2
;TARGET_MACHINE.NAME:Anycubic Kobra
;Generated with Cura_SteamEngine 5.10.1
M140 S60
M105
M190 S60
M104 S200
M105
M109 S200
G21 ;metric values
G90 ;absolute positioning
M82 ;set extruder to absolute mode
M107 ;start with the fan off
M117 Homing X/Y ...
G28 X0 Y0 ;move X/Y to min endstops
M117 Homing Z ...
G28 Z0 ;move Z to min endstops
G1 Z15.0 F240 ;move the platform down 15mm
M117 Heating ...
M104 S[first_layer_temperature]
; set extruder temp
M109 S[first_layer_temperature]
; wait for extruder temp
M117 Start cleaning ...
M420 S1 ; Enable Bed Levelling Mesh
G92 E0 ;zero the extruded length
M413 S0 ; disable power loss recovery - may reduce blobbing and avoid unexpected recovery
; M500 ; store eeprom settings
M117 Intro line ...
G1 Z2.0 F3000 ; Move Z Axis up little to prevent scratching of Heat Bed
G1 X0.1 Y20 Z[first_layer_height] F5000.0 ; Move to start position
G1 X0.1 Y200.0 Z[first_layer_height] F1500.0 E15 ; Draw the first line
G1 X0.4 Y200.0 Z[first_layer_height] F5000.0 ; Move to side a little
G1 X0.4 Y20 Z0.3[first_layer_height] F1500.0 E30 ; Draw the second line
G92 E0 ; Reset Extruder
G1 X5 Y20 Z0.3 F240 ; Move over to prevent blob squish
G92 E0 ; Reset Extruder
M420 S1 ; Enable Bed Levelling Mesh
M117 Printing...
M82 ;absolute extrusion mode
G92 E0
G92 E0
G1 F3600 E-4
;LAYER_COUNT:106
;LAYER:0
M107
M204 S2000
M205 X10 Y10
G0 X108.96 Y109.928 Z0.2
M204 S1000
M205 X8 Y8
;TYPE:SKIRT
G1 F3600 E0
G1 F1200 X109.958 Y108.934 E0.05856
G1 X110.785 Y108.36 E0.10041
G1 X111.827 Y107.79 E0.14979
G1 X112.837 Y107.448 E0.19413
G1 X113.709 Y107.256 E0.23125
G1 X114.554 Y107.161 E0.2666
G1 X116.011 Y107.125 E0.32719
G1 X117.388 Y107.146 E0.38445
G1 X118.172 Y107.239 E0.41727
G1 X119.083 Y107.485 E0.4565
G1 X120.005 Y107.919 E0.49887
G1 X120.666 Y108.367 E0.53207
G1 X121.257 Y108.905 E0.5653
G1 X121.863 Y109.65 E0.60522
G1 X122.265 Y110.311 E0.63739
G1 X122.664 Y111.391 E0.68526
G1 X122.804 Y112.069 E0.71404
G1 X122.866 Y112.707 E0.74069
G1 X122.875 Y116.469 E0.89709
G1 X122.856 Y117.812 E0.95294
G1 X122.529 Y119.034 E1.00553
G1 X122.137 Y119.91 E1.04543
G1 X121.824 Y120.409 E1.06992
G1 X121.111 Y121.257 E1.11598
G1 X120.31 Y121.89 E1.15842
G1 X119.622 Y122.285 E1.19141
G1 X118.848 Y122.607 E1.22626
G1 X117.858 Y122.815 E1.26832
G1 X117.213 Y122.87 E1.29523
G1 X115.562 Y122.875 E1.36387
G1 X114.545 Y122.849 E1.40617
G1 X113.318 Y122.704 E1.45754
G1 X112.215 Y122.353 E1.50566
G1 X111.627 Y122.102 E1.53224
G1 X110.66 Y121.555 E1.57843
G1 X109.964 Y121.042 E1.61438
G1 X109.056 Y120.196 E1.66597
G1 X108.241 Y119.013 E1.7257
G1 X107.813 Y118.171 E1.76497
G1 X107.406 Y116.999 E1.81655
G1 X107.234 Y116.161 E1.85211
G1 X107.141 Y115.14 E1.89474
G1 X107.193 Y113.957 E1.94397
G1 X107.533 Y112.575 E2.00314
G1 X107.829 Y111.791 E2.03798
G1 X108.284 Y110.915 E2.07902
G1 X108.96 Y109.928 E2.12876
M204 S2000
M205 X10 Y10
G0 F3600 X109.349 Y110.246
M204 S1000
M205 X8 Y8
G1 F1200 X110.277 Y109.322 E2.1832
G1 X111.025 Y108.799 E2.22115
G1 X112.031 Y108.249 E2.26881
G1 X112.946 Y107.936 E2.30902
G1 X113.766 Y107.753 E2.34395
G1 X114.567 Y107.661 E2.37747
G1 X116.004 Y107.625 E2.43723
G1 X117.329 Y107.643 E2.49232
G1 X118.113 Y107.736 E2.52515
G1 X118.909 Y107.956 E2.55948
G1 X119.724 Y108.333 E2.59682
G1 X120.385 Y108.781 E2.63001
G1 X120.871 Y109.223 E2.65733
G1 X121.436 Y109.91 E2.69431
G1 X121.814 Y110.531 E2.72453
G1 X122.174 Y111.492 E2.7672
G1 X122.314 Y112.17 E2.79598
G1 X122.368 Y112.753 E2.82032
G1 X122.375 Y116.462 E2.97452
G1 X122.357 Y117.741 E3.0277
G1 X122.071 Y118.832 E3.0746
G1 X121.713 Y119.644 E3.11149
G1 X121.4 Y120.143 E3.13598
G1 X120.763 Y120.894 E3.17692
G1 X120.059 Y121.458 E3.21442
G1 X119.43 Y121.823 E3.24466
G1 X118.698 Y122.127 E3.27761
G1 X117.814 Y122.317 E3.3152
G1 X117.211 Y122.37 E3.34037
G1 X115.574 Y122.375 E3.40843
G1 X114.604 Y122.352 E3.44877
G1 X113.422 Y122.212 E3.49825
G1 X112.411 Y121.893 E3.54233
G1 X111.823 Y121.642 E3.56891
G1 X110.955 Y121.151 E3.61037
G1 X110.305 Y120.676 E3.64384
G1 X109.437 Y119.867 E3.69317
G1 X108.687 Y118.786 E3.74787
G1 X108.259 Y117.944 E3.78714
G1 X107.879 Y116.837 E3.8358
G1 X107.732 Y116.113 E3.86652
G1 X107.641 Y115.162 E3.90624
G1 X107.691 Y114.027 E3.95347
G1 X108.001 Y112.752 E4.00802
G1 X108.297 Y111.968 E4.04286
G1 X108.697 Y111.198 E4.07894
G1 X109.349 Y110.246 E4.12691
M204 S2000
M205 X10 Y10
G0 F3600 X109.735 Y110.568
M204 S1000
M205 X8 Y8
G1 F1200 X110.598 Y109.708 E4.17756
G1 X111.265 Y109.238 E4.21149
G1 X112.234 Y108.708 E4.2574
G1 X113.057 Y108.424 E4.2936
G1 X113.823 Y108.25 E4.32626
G1 X114.624 Y108.158 E4.35978
G1 X115.998 Y108.125 E4.41692
G1 X117.27 Y108.14 E4.46981
G1 X118.054 Y108.233 E4.50263
G1 X118.772 Y108.437 E4.53366
G1 X119.446 Y108.749 E4.56454
G1 X120.052 Y109.154 E4.59484
G1 X120.487 Y109.543 E4.61911
G1 X121.009 Y110.17 E4.65303
G1 X121.363 Y110.751 E4.68131
G1 X121.685 Y111.595 E4.71887
G1 X121.816 Y112.216 E4.74525
G1 X121.87 Y112.799 E4.7696
G1 X121.875 Y116.455 E4.92159
G1 X121.858 Y117.672 E4.9722
G1 X121.587 Y118.705 E5.0166
G1 X121.289 Y119.378 E5.0472
G1 X120.976 Y119.877 E5.07169
G1 X120.412 Y120.535 E5.10772
G1 X119.806 Y121.027 E5.14017
G1 X119.238 Y121.361 E5.16757
G1 X118.545 Y121.649 E5.19877
G1 X117.769 Y121.819 E5.23179
G1 X117.209 Y121.87 E5.25517
G1 X115.585 Y121.875 E5.32269
G1 X114.663 Y121.855 E5.36103
G1 X113.524 Y121.72 E5.40872
G1 X112.607 Y121.433 E5.44866
G1 X112.019 Y121.182 E5.47525
G1 X111.248 Y120.746 E5.51207
G1 X110.646 Y120.31 E5.54297
G1 X109.816 Y119.537 E5.59013
G1 X109.133 Y118.559 E5.63972
G1 X108.705 Y117.717 E5.67899
G1 X108.369 Y116.736 E5.7221
G1 X108.23 Y116.065 E5.75059
G1 X108.139 Y115.114 E5.79031
G1 X108.188 Y114.099 E5.83256
G1 X108.469 Y112.929 E5.88258
G1 X108.765 Y112.145 E5.91743
G1 X109.109 Y111.481 E5.94852
G1 X109.735 Y110.568 E5.99454
M204 S2000
M205 X10 Y10
G0 F3600 X110.12 Y110.891
M204 S1000
M205 X8 Y8
G1 F1200 X110.92 Y110.093 E6.04152
G1 X111.553 Y109.647 E6.07371
G1 X112.436 Y109.167 E6.1155
G1 X113.17 Y108.911 E6.14781
G1 X113.88 Y108.747 E6.17811
G1 X114.681 Y108.655 E6.21163
G1 X115.993 Y108.625 E6.26619
G1 X117.215 Y108.637 E6.317
G1 X117.921 Y108.715 E6.34653
G1 X118.565 Y108.892 E6.3743
G1 X119.171 Y109.167 E6.40196
G1 X119.722 Y109.53 E6.4294
G1 X120.105 Y109.866 E6.45058
G1 X120.582 Y110.43 E6.48129
G1 X120.911 Y110.97 E6.50758
G1 X121.196 Y111.701 E6.5402
G1 X121.318 Y112.262 E6.56407
G1 X121.372 Y112.845 E6.58841
G1 X121.375 Y116.448 E6.7382
G1 X121.359 Y117.606 E6.78635
G1 X121.128 Y118.506 E6.82498
G1 X120.865 Y119.112 E6.85245
G1 X120.552 Y119.611 E6.87694
G1 X120.063 Y120.174 E6.90794
G1 X119.55 Y120.598 E6.93561
G1 X119.046 Y120.899 E6.96002
G1 X118.394 Y121.17 E6.98937
G1 X117.722 Y121.321 E7.01801
G1 X117.207 Y121.37 E7.03952
G1 X115.596 Y121.375 E7.10649
G1 X114.674 Y121.355 E7.14483
G1 X113.633 Y121.23 E7.18843
G1 X112.803 Y120.973 E7.22455
G1 X112.215 Y120.722 E7.25113
G1 X111.539 Y120.339 E7.28343
G1 X110.987 Y119.944 E7.31165
G1 X110.196 Y119.207 E7.3566
G1 X109.579 Y118.332 E7.40111
G1 X109.151 Y117.49 E7.44038
G1 X108.858 Y116.632 E7.47808
G1 X108.727 Y116.014 E7.50434
G1 X108.638 Y115.138 E7.54095
G1 X108.685 Y114.169 E7.58128
G1 X108.938 Y113.103 E7.62683
G1 X109.209 Y112.375 E7.65913
G1 X109.553 Y111.711 E7.69022
G1 X110.12 Y110.891 E7.73167
M204 S2000
M205 X10 Y10
G0 F3600 X110.505 Y111.213
M204 S1000
M205 X8 Y8
G1 F1200 X111.242 Y110.478 E7.77494
G1 X111.841 Y110.056 E7.8054
G1 X112.602 Y109.639 E7.84148
G1 X113.285 Y109.398 E7.87159
G1 X113.937 Y109.244 E7.89945
G1 X114.738 Y109.152 E7.93297
G1 X115.988 Y109.125 E7.98495
G1 X117.21 Y109.137 E8.03575
G1 X117.793 Y109.198 E8.06013
G1 X118.362 Y109.349 E8.0846
G1 X118.899 Y109.587 E8.10902
G1 X119.392 Y109.906 E8.13343
G1 X119.775 Y110.242 E8.15462
G1 X120.155 Y110.69 E8.17904
G1 X120.461 Y111.193 E8.20352
G1 X120.708 Y111.811 E8.23119
G1 X120.82 Y112.308 E8.25237
G1 X120.874 Y112.891 E8.27671
G1 X120.875 Y116.441 E8.4243
G1 X120.86 Y117.54 E8.47
G1 X120.668 Y118.31 E8.50299
G1 X120.438 Y118.851 E8.52743
G1 X120.172 Y119.286 E8.54863
G1 X119.741 Y119.791 E8.57623
G1 X119.289 Y120.171 E8.60078
G1 X118.854 Y120.437 E8.62198
G1 X118.24 Y120.692 E8.64962
G1 X117.675 Y120.823 E8.67374
G1 X117.16 Y120.872 E8.69524
G1 X115.607 Y120.875 E8.75981
G1 X114.685 Y120.855 E8.79815
G1 X113.74 Y120.74 E8.83773
G1 X112.997 Y120.512 E8.87004
G1 X112.46 Y120.286 E8.89426
G1 X111.827 Y119.93 E8.92446
G1 X111.328 Y119.578 E8.94985
G1 X110.573 Y118.875 E8.99274
G1 X110.025 Y118.105 E9.03203
G1 X109.597 Y117.263 E9.0713
G1 X109.347 Y116.526 E9.10365
G1 X109.224 Y115.96 E9.12773
G1 X109.137 Y115.162 E9.16111
G1 X109.182 Y114.241 E9.19944
G1 X109.407 Y113.275 E9.24068
G1 X109.653 Y112.605 E9.27035
G1 X109.997 Y111.941 E9.30144
G1 X110.505 Y111.213 E9.33835
M204 S2000
M205 X10 Y10
G0 F3600 X110.889 Y111.536
M204 S1000
M205 X8 Y8
G1 F1200 X111.564 Y110.863 E9.37798
G1 X112.129 Y110.465 E9.40671
G1 X112.768 Y110.111 E9.43708
G1 X113.451 Y109.87 E9.4672
G1 X113.994 Y109.741 E9.4904
G1 X114.795 Y109.649 E9.52392
G1 X115.984 Y109.625 E9.57336
G1 X117.163 Y109.635 E9.62238
G1 X117.67 Y109.683 E9.64355
G1 X118.164 Y109.808 E9.66474
G1 X118.632 Y110.01 E9.68593
G1 X119.062 Y110.282 E9.70709
G1 X119.445 Y110.618 E9.72827
G1 X119.771 Y111.01 E9.74947
G1 X120.031 Y111.448 E9.77064
G1 X120.22 Y111.921 E9.79182
G1 X120.332 Y112.418 E9.813
G1 X120.374 Y112.891 E9.83274
G1 X120.375 Y116.434 E9.98004
G1 X120.361 Y117.476 E10.02337
G1 X120.206 Y118.119 E10.05087
G1 X120.011 Y118.59 E10.07206
G1 X119.745 Y119.025 E10.09326
G1 X119.415 Y119.412 E10.1144
G1 X119.028 Y119.744 E10.1356
G1 X118.593 Y120.01 E10.1568
G1 X118.123 Y120.206 E10.17797
G1 X117.628 Y120.325 E10.19914
G1 X117.113 Y120.374 E10.22065
G1 X115.616 Y120.375 E10.28288
G1 X114.745 Y120.359 E10.3191
G1 X113.849 Y120.25 E10.35663
G1 X113.191 Y120.051 E10.38521
G1 X112.654 Y119.825 E10.40943
G1 X112.112 Y119.519 E10.43531
G1 X111.669 Y119.212 E10.45772
G1 X110.952 Y118.545 E10.49843
G1 X110.433 Y117.815 E10.53567
G1 X110.044 Y117.039 E10.57176
G1 X109.836 Y116.42 E10.59891
G1 X109.713 Y115.854 E10.62299
G1 X109.634 Y115.109 E10.65413
G1 X109.679 Y114.31 E10.68741
G1 X109.877 Y113.445 E10.7243
G1 X110.098 Y112.832 E10.75139
G1 X110.407 Y112.227 E10.77963
G1 X110.889 Y111.536 E10.81466
M204 S2000
M205 X10 Y10
G1 F3600 E6.81466
;MESH:ballista-pL.stl
G0 X112.825 Y113.259
G0 X114.976 Y116.874
M204 S1000
M205 X8 Y8
;TYPE:WALL-OUTER
G1 F3600 E10.81466
G1 F1200 X116.874 Y116.874 E10.89357
G1 X116.874 Y113.122 E11.04956
G1 X114.976 Y113.122 E11.12847
G1 X114.571 Y113.173 E11.14544
G1 X114.204 Y113.304 E11.16164
G1 X113.864 Y113.509 E11.17815
G1 X113.569 Y113.782 E11.19486
G1 X113.257 Y114.302 E11.22007
G1 X113.13 Y114.845 E11.24326
G1 X113.13 Y115.149 E11.25589
G1 X113.231 Y115.619 E11.27588
G1 X113.401 Y115.976 E11.29232
G1 X113.57 Y116.214 E11.30446
G1 X113.864 Y116.491 E11.32125
G1 X114.35 Y116.756 E11.34426
G1 X114.976 Y116.874 E11.37075
M204 S2000
M205 X10 Y10
G0 F3600 X115.226 Y116.874
G0 X115.007 Y116.374
M204 S1000
M205 X8 Y8
;TYPE:WALL-INNER
G1 F1200 X116.374 Y116.374 E11.42758
G1 X116.374 Y113.622 E11.542
G1 X115.007 Y113.622 E11.59883
G1 X114.687 Y113.662 E11.61224
G1 X114.419 Y113.758 E11.62407
G1 X114.166 Y113.91 E11.63634
G1 X113.946 Y114.114 E11.64882
G1 X113.731 Y114.473 E11.66621
G1 X113.63 Y114.903 E11.68458
G1 X113.63 Y115.096 E11.6926
G1 X113.708 Y115.457 E11.70796
G1 X113.949 Y115.884 E11.72834
G1 X114.16 Y116.083 E11.7404
G1 X114.545 Y116.292 E11.75861
G1 X115.007 Y116.374 E11.77812
M204 S2000
M205 X10 Y10
G0 F3600 X115.037 Y115.898
M204 S1000
M205 X8 Y8
;TYPE:SKIN
G1 F1200 X115.898 Y115.898 E11.81392
G1 X115.898 Y114.094 E11.88892
G1 X114.874 Y114.094 E11.93149
G1 X114.446 Y114.298 E11.9512
G1 X114.309 Y114.424 E11.95894
G1 X114.179 Y114.644 E11.96957
G1 X114.107 Y114.94 E11.98223
G1 X114.161 Y115.294 E11.99712
G1 X114.316 Y115.576 E12.0105
G1 X114.444 Y115.695 E12.01776
G1 X114.715 Y115.844 E12.03062
G1 X115.037 Y115.898 E12.0442
M204 S2000
M205 X10 Y10
G0 F3600 X114.382 Y115.089
M204 S1000
M205 X8 Y8
G1 F1200 X114.917 Y115.624 E12.07565
M204 S2000
M205 X10 Y10
G0 F3600 X115.648 Y115.648
M204 S1000
M205 X8 Y8
G1 F1200 X114.553 Y114.553 E12.14003
M204 S2000
M205 X10 Y10
G0 F3600 X115.051 Y114.344
M204 S1000
M205 X8 Y8
G1 F1200 X115.648 Y114.941 E12.17513
M204 S2000
M205 X10 Y10
G0 F3600 X115.615 Y114.941
G1 F3600 E8.17513
;MESH:NONMESH
G0 F600 X115.615 Y114.941 Z0.4
G0 F3600 X113.792 Y113.961
G0 X112.825 Y113.259
G0 X110.889 Y111.536
;TIME_ELAPSED:19.962611
;LAYER:1
;note -- min layer time used
M106 S255
M204 S1000
M205 X8 Y8
;TYPE:SKIRT
G1 F3600 E12.17513
G1 F833.5 X111.564 Y110.863 E12.21476
G1 X112.129 Y110.465 E12.2435
G1 X112.768 Y110.111 E12.27387
G1 X113.451 Y109.87 E12.30398
G1 X113.994 Y109.741 E12.32718
G1 X114.795 Y109.649 E12.3607
G1 X115.984 Y109.625 E12.41015
G1 X117.163 Y109.635 E12.45916
G1 X117.67 Y109.683 E12.48034
G1 X118.164 Y109.808 E12.50152
G1 X118.632 Y110.01 E12.52272
G1 X119.062 Y110.282 E12.54387
G1 X119.445 Y110.618 E12.56505
G1 X119.771 Y111.01 E12.58625
G1 X120.031 Y111.448 E12.60742
G1 X120.22 Y111.921 E12.6286
G1 X120.332 Y112.418 E12.64978
G1 X120.374 Y112.891 E12.66953
G1 X120.375 Y116.434 E12.81683
G1 X120.361 Y117.476 E12.86015
G1 X120.206 Y118.119 E12.88765
G1 X120.011 Y118.59 E12.90884
G1 X119.745 Y119.025 E12.93004
G1 X119.415 Y119.412 E12.95119
G1 X119.028 Y119.744 E12.97239
G1 X118.593 Y120.01 E12.99358
G1 X118.123 Y120.206 E13.01476
G1 X117.628 Y120.325 E13.03592
G1 X117.113 Y120.374 E13.05743
G1 X115.616 Y120.375 E13.11967
G1 X114.745 Y120.359 E13.15589
G1 X113.849 Y120.25 E13.19341
G1 X113.191 Y120.051 E13.22199
G1 X112.654 Y119.825 E13.24621
G1 X112.112 Y119.519 E13.27209
G1 X111.669 Y119.212 E13.2945
G1 X110.952 Y118.545 E13.33521
G1 X110.433 Y117.815 E13.37245
G1 X110.044 Y117.039 E13.40854
G1 X109.836 Y116.42 E13.43569
G1 X109.713 Y115.854 E13.45977
G1 X109.634 Y115.109 E13.49092
G1 X109.679 Y114.31 E13.52419
G1 X109.877 Y113.445 E13.56108
G1 X110.098 Y112.832 E13.58817
G1 X110.407 Y112.227 E13.61642
G1 X110.889 Y111.536 E13.65144
M204 S3500
M205 X10 Y10
G1 F3600 E9.65144
;MESH:ballista-pL.stl
G0 F5400 X112.829 Y113.254
G0 X113.796 Y113.956
G0 X114.179 Y114.179
M204 S1000
M205 X8 Y8
;TYPE:FILL
G1 F3600 E13.65144
G1 F833.5 X116.171 Y116.171 E13.76857
M204 S3500
M205 X10 Y10
G0 F5400 X115.596 Y116.171
M204 S1000
M205 X8 Y8
G1 F833.5 X116.173 Y115.594 E13.80249
M204 S3500
M205 X10 Y10
G0 F5400 X116.015 Y115.594
G0 X116.015 Y114.406
G0 X116.174 Y114.406
M204 S1000
M205 X8 Y8
G1 F833.5 X115.59 Y113.822 E13.83683
M204 S3500
M205 X10 Y10
G0 F5400 X116.173 Y113.826
M204 S1000
M205 X8 Y8
G1 F833.5 X114.178 Y115.821 E13.95413
G1 X114.09 Y115.909
M204 S3500
M205 X10 Y10
G0 F5400 X114.28 Y115.698
G0 X114.881 Y116.87
M204 S1000
M205 X8 Y8
;TYPE:WALL-OUTER
G1 F833.5 X116.874 Y116.873 E14.03699
G1 X116.874 Y113.122 E14.19293
G1 X114.977 Y113.122 E14.2718
G1 X114.576 Y113.176 E14.28862
G1 X114.055 Y113.382 E14.31192
G1 X113.574 Y113.781 E14.3379
G1 X113.257 Y114.302 E14.36325
G1 X113.13 Y114.845 E14.38644
G1 X113.13 Y115.149 E14.39908
G1 X113.231 Y115.619 E14.41906
G1 X113.401 Y115.976 E14.4355
G1 X113.576 Y116.22 E14.44799
G1 X113.928 Y116.54 E14.46776
G1 X114.49 Y116.805 E14.4936
G1 X114.881 Y116.87 E14.51008
M204 S3500
M205 X10 Y10
G0 F5400 X115.131 Y116.87
G0 X114.923 Y116.37
M204 S1000
M205 X8 Y8
;TYPE:WALL-INNER
G1 F833.5 X116.374 Y116.372 E14.5704
G1 X116.374 Y113.622 E14.68473
G1 X115.01 Y113.622 E14.74144
G1 X114.703 Y113.663 E14.75432
G1 X114.293 Y113.826 E14.77266
G1 X113.953 Y114.11 E14.79108
G1 X113.731 Y114.473 E14.80877
G1 X113.63 Y114.903 E14.82714
G1 X113.63 Y115.096 E14.83516
G1 X113.707 Y115.457 E14.85051
G1 X113.951 Y115.885 E14.87099
G1 X114.224 Y116.132 E14.88629
G1 X114.62 Y116.319 E14.9045
G1 X114.923 Y116.37 E14.91728
M204 S3500
M205 X10 Y10
G0 F5400 X114.995 Y115.613
G1 F3600 E10.91728
;MESH:NONMESH
G0 F600 X114.995 Y115.613 Z0.6
