;FLAVOR:Marlin
;TIME:1861
;Filament used: 1.01683m
;Layer height: 0.2
;MINX:106.562
;MINY:106.562
;MINZ:0.2
;MAXX:123.438
;MAXY:123.438
;MAXZ:68
;TARGET_MACHINE.NAME:Anycubic Kobra
;Generated with Cura_SteamEngine 5.10.1
M140 S60
M105
M190 S60
M104 S200
M105
M109 S200
G21 ;metric values
G90 ;absolute positioning
M82 ;set extruder to absolute mode
M107 ;start with the fan off
M117 Homing X/Y ...
G28 X0 Y0 ;move X/Y to min endstops
M117 Homing Z ...
G28 Z0 ;move Z to min endstops
G1 Z15.0 F240 ;move the platform down 15mm
M117 Heating ...
M104 S[first_layer_temperature]
; set extruder temp
M109 S[first_layer_temperature]
; wait for extruder temp
M117 Start cleaning ...
M420 S1 ; Enable Bed Levelling Mesh
G92 E0 ;zero the extruded length
M413 S0 ; disable power loss recovery - may reduce blobbing and avoid unexpected recovery
; M500 ; store eeprom settings
M117 Intro line ...
G1 Z2.0 F3000 ; Move Z Axis up little to prevent scratching of Heat Bed
G1 X0.1 Y20 Z[first_layer_height] F5000.0 ; Move to start position
G1 X0.1 Y200.0 Z[first_layer_height] F1500.0 E15 ; Draw the first line
G1 X0.4 Y200.0 Z[first_layer_height] F5000.0 ; Move to side a little
G1 X0.4 Y20 Z0.3[first_layer_height] F1500.0 E30 ; Draw the second line
G92 E0 ; Reset Extruder
G1 X5 Y20 Z0.3 F240 ; Move over to prevent blob squish
G92 E0 ; Reset Extruder
M420 S1 ; Enable Bed Levelling Mesh
M117 Printing...
M82 ;absolute extrusion mode
G92 E0
G92 E0
G1 F3600 E-4
;LAYER_COUNT:340
;LAYER:0
M107
M204 S2000
M205 X10 Y10
G0 X108.299 Y107.935 Z0.2
M204 S1000
M205 X8 Y8
;TYPE:SKIRT
G1 F3600 E0
G1 F1200 X108.815 Y107.523 E0.02745
G1 X109.515 Y107.112 E0.0612
G1 X110.425 Y106.763 E0.10172
G1 X111.046 Y106.632 E0.12811
G1 X111.743 Y106.567 E0.15721
G1 X117.561 Y106.562 E0.3991
G1 X118.346 Y106.577 E0.43174
G1 X119.254 Y106.689 E0.46977
G1 X120.045 Y106.92 E0.50403
G1 X120.787 Y107.27 E0.53814
G1 X121.448 Y107.718 E0.57134
G1 X121.934 Y108.16 E0.59865
G1 X122.499 Y108.847 E0.63563
G1 X122.877 Y109.468 E0.66586
G1 X123.237 Y110.429 E0.70852
G1 X123.377 Y111.107 E0.73731
G1 X123.431 Y111.695 E0.76186
G1 X123.438 Y117.53 E1.00445
G1 X123.422 Y118.375 E1.03958
G1 X123.36 Y118.997 E1.06557
G1 X123.119 Y119.94 E1.10604
G1 X122.806 Y120.671 E1.1391
G1 X122.283 Y121.447 E1.178
G1 X121.841 Y121.933 E1.20532
G1 X121.154 Y122.498 E1.2423
G1 X120.534 Y122.875 E1.27246
G1 X119.655 Y123.213 E1.31162
G1 X118.966 Y123.367 E1.34097
G1 X118.311 Y123.431 E1.36833
G1 X112.439 Y123.438 E1.61246
G1 X111.654 Y123.423 E1.6451
G1 X110.746 Y123.311 E1.68314
G1 X109.955 Y123.08 E1.7174
G1 X109.213 Y122.73 E1.75151
G1 X108.552 Y122.282 E1.78471
G1 X108.066 Y121.84 E1.81202
G1 X107.501 Y121.153 E1.849
G1 X107.123 Y120.534 E1.87915
G1 X106.764 Y119.578 E1.92161
G1 X106.633 Y118.959 E1.94791
G1 X106.567 Y118.257 E1.97723
G1 X106.562 Y112.401 E2.22069
G1 X106.58 Y111.584 E2.25467
G1 X106.64 Y111.006 E2.27883
G1 X106.866 Y110.074 E2.3187
G1 X107.235 Y109.277 E2.35521
G1 X107.69 Y108.592 E2.3894
G1 X108.299 Y107.935 E2.42665
M204 S2000
M205 X10 Y10
G0 F3600 X108.611 Y108.326
M204 S1000
M205 X8 Y8
G1 F1200 X109.127 Y107.914 E2.4541
G1 X109.765 Y107.545 E2.48474
G1 X110.531 Y107.252 E2.51884
G1 X111.092 Y107.13 E2.54271
G1 X111.789 Y107.065 E2.57181
G1 X117.551 Y107.062 E2.81137
G1 X118.336 Y107.077 E2.84401
G1 X119.117 Y107.17 E2.87671
G1 X119.835 Y107.374 E2.90774
G1 X120.509 Y107.686 E2.93862
G1 X121.115 Y108.091 E2.96892
G1 X121.55 Y108.48 E2.99318
G1 X122.072 Y109.107 E3.0271
G1 X122.426 Y109.688 E3.05539
G1 X122.748 Y110.532 E3.09294
G1 X122.879 Y111.153 E3.11933
G1 X122.933 Y111.741 E3.14388
G1 X122.938 Y117.521 E3.38418
G1 X122.924 Y118.325 E3.41762
G1 X122.862 Y118.947 E3.4436
G1 X122.659 Y119.743 E3.47776
G1 X122.363 Y120.434 E3.50901
G1 X121.91 Y121.114 E3.54298
G1 X121.521 Y121.549 E3.56724
G1 X120.894 Y122.071 E3.60116
G1 X120.314 Y122.424 E3.62939
G1 X119.476 Y122.746 E3.66671
G1 X118.917 Y122.869 E3.69051
G1 X118.262 Y122.933 E3.71787
G1 X112.449 Y122.938 E3.95955
G1 X111.664 Y122.923 E3.99219
G1 X110.883 Y122.83 E4.02489
G1 X110.165 Y122.626 E4.05592
G1 X109.491 Y122.314 E4.0868
G1 X108.885 Y121.909 E4.1171
G1 X108.45 Y121.52 E4.14137
G1 X107.928 Y120.893 E4.17528
G1 X107.574 Y120.313 E4.20353
G1 X107.253 Y119.472 E4.24096
G1 X107.131 Y118.912 E4.26479
G1 X107.065 Y118.21 E4.2941
G1 X107.062 Y112.411 E4.5352
G1 X107.078 Y111.631 E4.56763
G1 X107.126 Y111.124 E4.58881
G1 X107.34 Y110.24 E4.62662
G1 X107.689 Y109.487 E4.66112
G1 X108.104 Y108.872 E4.69197
G1 X108.611 Y108.326 E4.72295
M204 S2000
M205 X10 Y10
G0 F3600 X108.923 Y108.717
M204 S1000
M205 X8 Y8
G1 F1200 X109.439 Y108.305 E4.7504
G1 X109.947 Y108.011 E4.7748
G1 X110.641 Y107.74 E4.80578
G1 X111.138 Y107.628 E4.82696
G1 X111.835 Y107.563 E4.85606
G1 X117.543 Y107.562 E5.09337
G1 X118.281 Y107.574 E5.12406
G1 X118.984 Y107.652 E5.15347
G1 X119.628 Y107.829 E5.18123
G1 X120.234 Y108.104 E5.2089
G1 X120.785 Y108.467 E5.23633
G1 X121.168 Y108.803 E5.25751
G1 X121.645 Y109.367 E5.28823
G1 X121.974 Y109.907 E5.31451
G1 X122.259 Y110.638 E5.34713
G1 X122.381 Y111.199 E5.371
G1 X122.435 Y111.787 E5.39555
G1 X122.438 Y117.512 E5.63357
G1 X122.424 Y118.316 E5.667
G1 X122.365 Y118.896 E5.69124
G1 X122.199 Y119.546 E5.71913
G1 X121.921 Y120.195 E5.74848
G1 X121.534 Y120.784 E5.77778
G1 X121.198 Y121.167 E5.79897
G1 X120.634 Y121.644 E5.82968
G1 X120.094 Y121.973 E5.85597
G1 X119.365 Y122.258 E5.88851
G1 X118.868 Y122.371 E5.9097
G1 X118.213 Y122.435 E5.93706
G1 X112.457 Y122.438 E6.17637
G1 X111.719 Y122.426 E6.20705
G1 X111.016 Y122.348 E6.23646
G1 X110.372 Y122.171 E6.26423
G1 X109.766 Y121.896 E6.29189
G1 X109.215 Y121.533 E6.31933
G1 X108.832 Y121.197 E6.34051
G1 X108.355 Y120.633 E6.37122
G1 X108.026 Y120.093 E6.39751
G1 X107.741 Y119.362 E6.43013
G1 X107.629 Y118.865 E6.45131
G1 X107.563 Y118.163 E6.48062
G1 X107.562 Y112.42 E6.71939
G1 X107.576 Y111.678 E6.75024
G1 X107.624 Y111.171 E6.77142
G1 X107.814 Y110.406 E6.80419
G1 X108.106 Y109.763 E6.83355
G1 X108.473 Y109.209 E6.86118
G1 X108.923 Y108.717 E6.8889
M204 S2000
M205 X10 Y10
G0 F3600 X109.238 Y109.105
M204 S1000
M205 X8 Y8
G1 F1200 X109.694 Y108.735 E6.91331
G1 X110.132 Y108.475 E6.93449
G1 X110.751 Y108.228 E6.9622
G1 X111.248 Y108.116 E6.98338
G1 X111.835 Y108.063 E7.00788
G1 X117.535 Y108.062 E7.24486
G1 X118.273 Y108.074 E7.27555
G1 X118.856 Y108.135 E7.29992
G1 X119.425 Y108.286 E7.32439
G1 X119.962 Y108.524 E7.34881
G1 X120.455 Y108.843 E7.37323
G1 X120.838 Y109.179 E7.39441
G1 X121.218 Y109.627 E7.41883
G1 X121.524 Y110.13 E7.44331
G1 X121.771 Y110.748 E7.47098
G1 X121.883 Y111.245 E7.49216
G1 X121.937 Y111.833 E7.51671
G1 X121.938 Y117.504 E7.75248
G1 X121.926 Y118.27 E7.78433
G1 X121.879 Y118.777 E7.8055
G1 X121.739 Y119.349 E7.82998
G1 X121.477 Y119.96 E7.85762
G1 X121.158 Y120.454 E7.88207
G1 X120.822 Y120.837 E7.90325
G1 X120.374 Y121.217 E7.92768
G1 X119.871 Y121.523 E7.95216
G1 X119.254 Y121.77 E7.97979
G1 X118.757 Y121.883 E8.00098
G1 X118.167 Y121.937 E8.02561
G1 X112.465 Y121.938 E8.26267
G1 X111.727 Y121.926 E8.29336
G1 X111.144 Y121.865 E8.31773
G1 X110.575 Y121.714 E8.3422
G1 X110.038 Y121.476 E8.36662
G1 X109.545 Y121.157 E8.39104
G1 X109.162 Y120.821 E8.41222
G1 X108.782 Y120.373 E8.43664
G1 X108.476 Y119.87 E8.46112
G1 X108.229 Y119.252 E8.48879
G1 X108.117 Y118.755 E8.50997
G1 X108.063 Y118.163 E8.53468
G1 X108.062 Y112.429 E8.77308
G1 X108.074 Y111.725 E8.80235
G1 X108.122 Y111.218 E8.82352
G1 X108.287 Y110.573 E8.8512
G1 X108.526 Y110.035 E8.87568
G1 X108.845 Y109.543 E8.90006
G1 X109.238 Y109.105 E8.92452
M204 S2000
M205 X10 Y10
G0 F3600 X109.557 Y109.49
M204 S1000
M205 X8 Y8
G1 F1200 X109.949 Y109.165 E8.94569
G1 X110.387 Y108.905 E8.96687
G1 X110.861 Y108.716 E8.98808
G1 X111.358 Y108.604 E9.00926
G1 X111.835 Y108.563 E9.02917
G1 X117.528 Y108.562 E9.26586
G1 X118.226 Y108.572 E9.29488
G1 X118.733 Y108.62 E9.31605
G1 X119.227 Y108.745 E9.33724
G1 X119.695 Y108.947 E9.35843
G1 X120.125 Y109.219 E9.37958
G1 X120.508 Y109.555 E9.40077
G1 X120.834 Y109.947 E9.42196
G1 X121.094 Y110.385 E9.44314
G1 X121.283 Y110.858 E9.46432
G1 X121.395 Y111.355 E9.4855
G1 X121.437 Y111.833 E9.50545
G1 X121.438 Y117.497 E9.74093
G1 X121.428 Y118.224 E9.77116
G1 X121.381 Y118.731 E9.79233
G1 X121.255 Y119.225 E9.81352
G1 X121.054 Y119.693 E9.8347
G1 X120.782 Y120.124 E9.85589
G1 X120.446 Y120.507 E9.87707
G1 X120.054 Y120.833 E9.89826
G1 X119.616 Y121.093 E9.91944
G1 X119.143 Y121.282 E9.94062
G1 X118.646 Y121.395 E9.96181
G1 X118.167 Y121.437 E9.9818
G1 X112.472 Y121.438 E10.21857
G1 X111.774 Y121.428 E10.24759
G1 X111.267 Y121.38 E10.26877
G1 X110.773 Y121.255 E10.28995
G1 X110.305 Y121.053 E10.31114
G1 X109.875 Y120.781 E10.3323
G1 X109.492 Y120.445 E10.35348
G1 X109.166 Y120.053 E10.37468
G1 X108.906 Y119.615 E10.39585
G1 X108.717 Y119.142 E10.41703
G1 X108.605 Y118.645 E10.43821
G1 X108.563 Y118.163 E10.45833
G1 X108.562 Y112.437 E10.69638
G1 X108.572 Y111.772 E10.72404
G1 X108.62 Y111.265 E10.74521
G1 X108.746 Y110.771 E10.7664
G1 X108.948 Y110.303 E10.7876
G1 X109.221 Y109.873 E10.80877
G1 X109.557 Y109.49 E10.82995
M204 S2000
M205 X10 Y10
G1 F3600 E6.82995
;MESH:ballista-pK.stl
G0 X112.336 Y111.147
G0 X117.938 Y117.938
M204 S1000
M205 X8 Y8
;TYPE:WALL-OUTER
G1 F3600 E10.82995
G1 F1200 X117.938 Y112.062 E11.07425
G1 X112.062 Y112.062 E11.31855
G1 X112.062 Y117.938 E11.56284
G1 X117.938 Y117.938 E11.80714
M204 S2000
M205 X10 Y10
G0 F3600 X117.938 Y117.688
G0 X117.438 Y117.438
M204 S1000
M205 X8 Y8
;TYPE:WALL-INNER
G1 F1200 X117.438 Y112.562 E12.00986
G1 X112.562 Y112.562 E12.21258
G1 X112.562 Y117.438 E12.4153
G1 X117.438 Y117.438 E12.61802
M204 S2000
M205 X10 Y10
G0 F3600 X116.962 Y116.962
M204 S1000
M205 X8 Y8
;TYPE:SKIN
G1 F1200 X116.962 Y113.034 E12.78133
G1 X113.034 Y113.034 E12.94463
G1 X113.034 Y116.962 E13.10794
G1 X116.962 Y116.962 E13.27125
M204 S2000
M205 X10 Y10
G0 F3600 X116.712 Y113.884
M204 S1000
M205 X8 Y8
G1 F1200 X116.113 Y113.284 E13.3065
M204 S2000
M205 X10 Y10
G0 F3600 X115.405 Y113.284
M204 S1000
M205 X8 Y8
G1 F1200 X116.712 Y114.591 E13.38334
M204 S2000
M205 X10 Y10
G0 F3600 X116.712 Y115.298
M204 S1000
M205 X8 Y8
G1 F1200 X114.698 Y113.284 E13.50176
M204 S2000
M205 X10 Y10
G0 F3600 X113.991 Y113.284
M204 S1000
M205 X8 Y8
G1 F1200 X116.712 Y116.005 E13.66174
M204 S2000
M205 X10 Y10
G0 F3600 X116.712 Y116.712
M204 S1000
M205 X8 Y8
G1 F1200 X113.284 Y113.284 E13.8633
M204 S2000
M205 X10 Y10
G0 F3600 X113.284 Y113.991
M204 S1000
M205 X8 Y8
G1 F1200 X116.005 Y116.712 E14.02328
M204 S2000
M205 X10 Y10
G0 F3600 X115.298 Y116.712
M204 S1000
M205 X8 Y8
G1 F1200 X113.284 Y114.698 E14.1417
M204 S2000
M205 X10 Y10
G0 F3600 X113.284 Y115.405
M204 S1000
M205 X8 Y8
G1 F1200 X114.591 Y116.712 E14.21854
M204 S2000
M205 X10 Y10
G0 F3600 X113.884 Y116.712
M204 S1000
M205 X8 Y8
G1 F1200 X113.284 Y116.113 E14.25379
M204 S2000
M205 X10 Y10
G0 F3600 X113.322 Y116.113
G1 F3600 E10.25379
;MESH:NONMESH
G0 F600 X113.322 Y116.113 Z0.4
G0 F3600 X112.336 Y112.336
G0 X112.336 Y111.147
G0 X109.557 Y109.49
;TIME_ELAPSED:22.875254
;LAYER:1
M106 S255
M204 S1000
M205 X8 Y8
;TYPE:SKIRT
G1 F3600 E14.25379
G1 F1200 X109.949 Y109.165 E14.27496
G1 X110.387 Y108.905 E14.29614
G1 X110.861 Y108.716 E14.31735
G1 X111.358 Y108.604 E14.33853
G1 X111.835 Y108.563 E14.35844
G1 X117.528 Y108.562 E14.59513
G1 X118.226 Y108.572 E14.62415
G1 X118.733 Y108.62 E14.64532
G1 X119.227 Y108.745 E14.66651
G1 X119.695 Y108.947 E14.6877
G1 X120.125 Y109.219 E14.70885
G1 X120.508 Y109.555 E14.73004
G1 X120.834 Y109.947 E14.75123
G1 X121.094 Y110.385 E14.77241
G1 X121.283 Y110.858 E14.79359
G1 X121.395 Y111.355 E14.81477
G1 X121.437 Y111.833 E14.83472
G1 X121.438 Y117.497 E15.0702
G1 X121.428 Y118.224 E15.10043
G1 X121.381 Y118.731 E15.1216
G1 X121.255 Y119.225 E15.14279
G1 X121.054 Y119.693 E15.16397
G1 X120.782 Y120.124 E15.18516
G1 X120.446 Y120.507 E15.20634
G1 X120.054 Y120.833 E15.22753
G1 X119.616 Y121.093 E15.24871
G1 X119.143 Y121.282 E15.26989
G1 X118.646 Y121.395 E15.29108
G1 X118.167 Y121.437 E15.31107
G1 X112.472 Y121.438 E15.54784
G1 X111.774 Y121.428 E15.57686
G1 X111.267 Y121.38 E15.59803
G1 X110.773 Y121.255 E15.61922
G1 X110.305 Y121.053 E15.64041
G1 X109.875 Y120.781 E15.66157
G1 X109.492 Y120.445 E15.68275
G1 X109.166 Y120.053 E15.70395
G1 X108.906 Y119.615 E15.72512
G1 X108.717 Y119.142 E15.7463
G1 X108.605 Y118.645 E15.76748
G1 X108.563 Y118.163 E15.7876
G1 X108.562 Y112.437 E16.02565
G1 X108.572 Y111.772 E16.05331
G1 X108.62 Y111.265 E16.07448
G1 X108.746 Y110.771 E16.09567
G1 X108.948 Y110.303 E16.11687
G1 X109.221 Y109.873 E16.13804
G1 X109.557 Y109.49 E16.15922
M204 S3500
M205 X10 Y10
G1 F3600 E12.15922
;MESH:ballista-pK.stl
G0 F5400 X112.336 Y111.147
G0 X112.336 Y112.336
G0 X112.762 Y112.762
M204 S1000
M205 X8 Y8
;TYPE:FILL
G1 F3600 E16.15922
G1 F1800 X117.238 Y117.238 E16.4224
M204 S3500
M205 X10 Y10
G0 F5400 X116.296 Y117.238
M204 S1000
M205 X8 Y8
G1 F1800 X117.238 Y116.296 E16.47778
M204 S3500
M205 X10 Y10
G0 F5400 X117.238 Y115.471
M204 S1000
M205 X8 Y8
G1 F1800 X114.53 Y112.762 E16.63703
M204 S3500
M205 X10 Y10
G0 F5400 X113.701 Y112.762
M204 S1000
M205 X8 Y8
G1 F1800 X112.762 Y113.701 E16.69224
M204 S3500
M205 X10 Y10
G0 F5400 X112.762 Y114.53
M204 S1000
M205 X8 Y8
G1 F1800 X115.471 Y117.238 E16.85149
M204 S3500
M205 X10 Y10
G0 F5400 X114.529 Y117.238
M204 S1000
M205 X8 Y8
G1 F1800 X117.238 Y114.529 E17.01077
M204 S3500
M205 X10 Y10
G0 F5400 X117.238 Y113.703
M204 S1000
M205 X8 Y8
G1 F1800 X116.298 Y112.762 E17.06607
M204 S3500
M205 X10 Y10
G0 F5400 X115.469 Y112.762
M204 S1000
M205 X8 Y8
G1 F1800 X112.762 Y115.469 E17.22523
M204 S3500
M205 X10 Y10
G0 F5400 X112.762 Y116.298
M204 S1000
M205 X8 Y8
G1 F1800 X113.703 Y117.238 E17.28053
M204 S3500
M205 X10 Y10
G0 F5400 X112.762 Y117.237
M204 S1000
M205 X8 Y8
G1 F1800 X117.237 Y112.762 E17.54364
G1 X117.325 Y112.674
M204 S3500
M205 X10 Y10
G0 F5400 X117.108 Y112.922
G0 X117.608 Y117.608
G0 X117.938 Y117.938
M204 S1000
M205 X8 Y8
;TYPE:WALL-OUTER
G1 F1200 X117.938 Y112.062 E17.78793
G1 X112.062 Y112.062 E18.03223
G1 X112.062 Y117.938 E18.27653
G1 X117.938 Y117.938 E18.52082
M204 S3500
M205 X10 Y10
G0 F5400 X117.938 Y117.688
G0 X117.438 Y117.438
M204 S1000
M205 X8 Y8
;TYPE:WALL-INNER
G1 F1800 X117.438 Y112.562 E18.72354
G1 X112.562 Y112.562 E18.92626
G1 X112.562 Y117.438 E19.12898
G1 X117.438 Y117.438 E19.3317
M204 S3500
M205 X10 Y10
G0 F5400 X116.678 Y116.825
G1 F3600 E15.3317
;MESH:NONMESH
G0 F600 X116.678 Y116.825 Z0.6
G0 F5400 X112.336 Y112.336
G0 X112.336 Y111.147
G0 X109.557 Y109.49
;TIME_ELAPSED:29.604457
;LAYER:2
M204 S1000
M205 X8 Y8
;TYPE:SKIRT
G1 F3600 E19.3317
G1 F1200 X109.949 Y109.165 E19.35287
G1 X110.387 Y108.905 E19.37405
G1 X110.861 Y108.716 E19.39527
G1 X111.358 Y108.604 E19.41645
G1 X111.835 Y108.563 E19.43635
G1 X117.528 Y108.562 E19.67304
G1 X118.226 Y108.572 E19.70206
G1 X118.733 Y108.62 E19.72323
G1 X119.227 Y108.745 E19.74442
G1 X119.695 Y108.947 E19.76561
G1 X120.125 Y109.219 E19.78677
G1 X120.508 Y109.555 E19.80795
G1 X120.834 Y109.947 E19.82914
G1 X121.094 Y110.385 E19.85032
G1 X121.283 Y110.858 E19.8715
G1 X121.395 Y111.355 E19.89268
G1 X121.437 Y111.833 E19.91263
G1 X121.438 Y117.497 E20.14811
G1 X121.428 Y118.224 E20.17834
G1 X121.381 Y118.731 E20.19951
G1 X121.255 Y119.225 E20.2207
G1 X121.054 Y119.693 E20.24188
G1 X120.782 Y120.124 E20.26307
G1 X120.446 Y120.507 E20.28425
G1 X120.054 Y120.833 E20.30545
G1 X119.616 Y121.093 E20.32662
G1 X119.143 Y121.282 E20.3478
G1 X118.646 Y121.395 E20.36899
G1 X118.167 Y121.437 E20.38898
G1 X112.472 Y121.438 E20.62575
G1 X111.774 Y121.428 E20.65477
G1 X111.267 Y121.38 E20.67595
G1 X110.773 Y121.255 E20.69713
G1 X110.305 Y121.053 E20.71832
G1 X109.875 Y120.781 E20.73948
G1 X109.492 Y120.445 E20.76066
G1 X109.166 Y120.053 E20.78186
G1 X108.906 Y119.615 E20.80303
G1 X108.717 Y119.142 E20.82421
G1 X108.605 Y118.645 E20.84539
G1 X108.563 Y118.163 E20.86551
G1 X108.562 Y112.437 E21.10357
G1 X108.572 Y111.772 E21.13122
G1 X108.62 Y111.265 E21.15239
G1 X108.746 Y110.771 E21.17359
G1 X108.948 Y110.303 E21.19478
G1 X109.221 Y109.873 E21.21595
