;FLAVOR:Marlin
;TIME:127
;Filament used: 0.0496158m
;Layer height: 0.2
;MINX:107.686
;MINY:107.672
;MINZ:0.2
;MAXX:122.29
;MAXY:122.327
;MAXZ:25.4
;TARGET_MACHINE.NAME:Anycubic Kobra
;Generated with Cura_SteamEngine 5.10.1
M140 S60
M105
M190 S60
M104 S200
M105
M109 S200
G21 ;metric values
G90 ;absolute positioning
M82 ;set extruder to absolute mode
M107 ;start with the fan off
M117 Homing X/Y ...
G28 X0 Y0 ;move X/Y to min endstops
M117 Homing Z ...
G28 Z0 ;move Z to min endstops
G1 Z15.0 F240 ;move the platform down 15mm
M117 Heating ...
M104 S[first_layer_temperature]
; set extruder temp
M109 S[first_layer_temperature]
; wait for extruder temp
M117 Start cleaning ...
M420 S1 ; Enable Bed Levelling Mesh
G92 E0 ;zero the extruded length
M413 S0 ; disable power loss recovery - may reduce blobbing and avoid unexpected recovery
; M500 ; store eeprom settings
M117 Intro line ...
G1 Z2.0 F3000 ; Move Z Axis up little to prevent scratching of Heat Bed
G1 X0.1 Y20 Z[first_layer_height] F5000.0 ; Move to start position
G1 X0.1 Y200.0 Z[first_layer_height] F1500.0 E15 ; Draw the first line
G1 X0.4 Y200.0 Z[first_layer_height] F5000.0 ; Move to side a little
G1 X0.4 Y20 Z0.3[first_layer_height] F1500.0 E30 ; Draw the second line
G92 E0 ; Reset Extruder
G1 X5 Y20 Z0.3 F240 ; Move over to prevent blob squish
G92 E0 ; Reset Extruder
M420 S1 ; Enable Bed Levelling Mesh
M117 Printing...
M82 ;absolute extrusion mode
G92 E0
G92 E0
G1 F3600 E-4
;LAYER_COUNT:127
;LAYER:0
M107
M204 S2000
M205 X10 Y10
G0 X109.832 Y109.851 Z0.2
M204 S1000
M205 X8 Y8
;TYPE:SKIRT
G1 F3600 E0
G1 F1200 X110.524 Y109.24 E0.03838
G1 X111.395 Y108.656 E0.08198
G1 X112.072 Y108.319 E0.11342
G1 X113.089 Y107.963 E0.15822
G1 X113.971 Y107.777 E0.19569
G1 X115.136 Y107.672 E0.24432
G1 X116.687 Y107.853 E0.30924
G1 X117.944 Y108.336 E0.36523
G1 X119.053 Y108.907 E0.41709
G1 X120.053 Y109.737 E0.47112
G1 X120.726 Y110.445 E0.51173
G1 X121.589 Y111.808 E0.5788
G1 X122.124 Y113.414 E0.64918
G1 X122.227 Y113.966 E0.67252
G1 X122.29 Y115.326 E0.72913
G1 X122.226 Y115.996 E0.75711
G1 X121.98 Y117.114 E0.8047
G1 X121.744 Y117.784 E0.83424
G1 X121.269 Y118.72 E0.87787
G1 X120.664 Y119.598 E0.9222
G1 X120.005 Y120.312 E0.9626
G1 X119.456 Y120.779 E0.99257
G1 X118.574 Y121.364 E1.03657
G1 X117.506 Y121.895 E1.08615
G1 X116.124 Y122.214 E1.14512
G1 X114.862 Y122.327 E1.1978
G1 X113.304 Y122.142 E1.26303
G1 X111.658 Y121.532 E1.33601
G1 X110.348 Y120.644 E1.40181
G1 X109.438 Y119.72 E1.45572
G1 X108.837 Y118.907 E1.49776
G1 X108.435 Y118.177 E1.53241
G1 X108.098 Y117.357 E1.56926
G1 X107.82 Y116.41 E1.6103
G1 X107.686 Y114.974 E1.67026
G1 X107.768 Y114.059 E1.70845
G1 X108.044 Y112.814 E1.76147
G1 X108.391 Y111.902 E1.80204
G1 X108.685 Y111.351 E1.828
G1 X109.407 Y110.311 E1.88064
G1 X109.832 Y109.851 E1.90668
M204 S2000
M205 X10 Y10
G0 F3600 X110.165 Y110.224
M204 S1000
M205 X8 Y8
G1 F1200 X110.804 Y109.654 E1.94228
G1 X111.618 Y109.104 E1.98312
G1 X112.295 Y108.767 E2.01456
G1 X113.252 Y108.436 E2.05666
G1 X114.016 Y108.275 E2.08912
G1 X115.128 Y108.175 E2.13554
G1 X116.567 Y108.343 E2.19577
G1 X117.765 Y108.803 E2.24913
G1 X118.775 Y109.326 E2.29641
G1 X119.69 Y110.081 E2.34573
G1 X120.332 Y110.757 E2.38449
G1 X121.133 Y112.022 E2.44674
G1 X121.632 Y113.506 E2.51183
G1 X121.735 Y114.058 E2.53518
G1 X121.792 Y115.278 E2.58596
G1 X121.728 Y115.948 E2.61394
G1 X121.508 Y116.948 E2.65651
G1 X121.272 Y117.618 E2.68604
G1 X120.857 Y118.436 E2.72418
G1 X120.252 Y119.314 E2.76851
G1 X119.639 Y119.971 E2.80586
G1 X119.178 Y120.363 E2.83102
G1 X118.351 Y120.916 E2.87238
G1 X117.335 Y121.421 E2.91955
G1 X116.079 Y121.716 E2.97319
G1 X114.871 Y121.824 E3.02362
G1 X113.421 Y121.652 E3.08432
G1 X111.889 Y121.084 E3.15225
G1 X110.668 Y120.256 E3.21359
G1 X109.839 Y119.421 E3.26251
G1 X109.274 Y118.664 E3.30178
G1 X108.897 Y117.985 E3.33407
G1 X108.578 Y117.216 E3.36868
G1 X108.314 Y116.315 E3.40771
G1 X108.188 Y114.972 E3.46379
G1 X108.266 Y114.104 E3.50003
G1 X108.512 Y112.99 E3.54746
G1 X108.834 Y112.135 E3.58544
G1 X109.097 Y111.635 E3.60893
G1 X109.776 Y110.649 E3.6587
G1 X110.165 Y110.224 E3.68266
M204 S2000
M205 X10 Y10
G0 F3600 X110.534 Y110.562
M204 S1000
M205 X8 Y8
G1 F1200 X111.086 Y110.067 E3.71348
G1 X111.841 Y109.552 E3.75148
G1 X112.518 Y109.215 E3.78292
G1 X113.358 Y108.925 E3.81986
G1 X114.061 Y108.773 E3.84977
G1 X115.12 Y108.678 E3.89397
G1 X116.447 Y108.833 E3.94952
G1 X117.586 Y109.27 E4.00024
G1 X118.495 Y109.744 E4.04286
G1 X119.327 Y110.425 E4.08756
G1 X119.936 Y111.067 E4.12435
G1 X120.679 Y112.239 E4.18204
G1 X121.14 Y113.598 E4.2417
G1 X121.243 Y114.15 E4.26505
G1 X121.294 Y115.23 E4.31
G1 X121.23 Y115.9 E4.33798
G1 X121.036 Y116.782 E4.37553
G1 X120.8 Y117.452 E4.40506
G1 X120.444 Y118.154 E4.43779
G1 X119.885 Y118.974 E4.47905
G1 X119.315 Y119.59 E4.51394
G1 X118.854 Y119.982 E4.5391
G1 X118.128 Y120.468 E4.57542
G1 X117.161 Y120.949 E4.62032
G1 X116.035 Y121.218 E4.66845
G1 X114.881 Y121.321 E4.71662
G1 X113.538 Y121.162 E4.77285
G1 X112.12 Y120.636 E4.83573
G1 X110.987 Y119.868 E4.89263
G1 X110.238 Y119.12 E4.93664
G1 X109.71 Y118.419 E4.97313
G1 X109.359 Y117.793 E5.00297
G1 X109.04 Y117.024 E5.03758
G1 X108.808 Y116.223 E5.07225
G1 X108.69 Y114.969 E5.12461
G1 X108.755 Y114.21 E5.15629
G1 X108.981 Y113.164 E5.20078
G1 X109.277 Y112.368 E5.23608
G1 X109.54 Y111.868 E5.25957
G1 X110.145 Y110.987 E5.304
G1 X110.534 Y110.562 E5.32796
M204 S2000
M205 X10 Y10
G0 F3600 X110.903 Y110.9
M204 S1000
M205 X8 Y8
G1 F1200 X111.37 Y110.479 E5.3541
G1 X112.064 Y110 E5.38916
G1 X112.741 Y109.663 E5.4206
G1 X113.464 Y109.414 E5.45239
G1 X114.167 Y109.262 E5.48229
G1 X115.111 Y109.181 E5.52168
G1 X116.329 Y109.323 E5.57266
G1 X117.355 Y109.713 E5.6183
G1 X118.218 Y110.163 E5.65876
G1 X118.964 Y110.769 E5.69872
G1 X119.54 Y111.377 E5.73354
G1 X120.225 Y112.456 E5.78668
G1 X120.648 Y113.69 E5.84091
G1 X120.751 Y114.242 E5.86426
G1 X120.796 Y115.182 E5.90338
G1 X120.732 Y115.852 E5.93136
G1 X120.564 Y116.616 E5.96389
G1 X120.328 Y117.286 E5.99342
G1 X120.029 Y117.875 E6.02088
G1 X119.517 Y118.636 E6.05902
G1 X118.991 Y119.209 E6.09135
G1 X118.53 Y119.601 E6.11651
G1 X117.905 Y120.02 E6.1478
G1 X116.989 Y120.476 E6.19034
G1 X115.99 Y120.72 E6.23309
G1 X114.886 Y120.819 E6.27917
G1 X113.659 Y120.673 E6.33055
G1 X112.349 Y120.187 E6.38864
G1 X111.307 Y119.481 E6.44097
G1 X110.636 Y118.817 E6.48021
G1 X110.145 Y118.173 E6.51388
G1 X109.821 Y117.601 E6.54121
G1 X109.502 Y116.832 E6.57583
G1 X109.302 Y116.13 E6.60617
G1 X109.192 Y114.965 E6.65482
G1 X109.253 Y114.253 E6.68453
G1 X109.469 Y113.272 E6.7263
G1 X109.72 Y112.601 E6.75608
G1 X109.983 Y112.101 E6.77957
G1 X110.514 Y111.325 E6.81866
G1 X110.903 Y110.9 E6.84261
M204 S2000
M205 X10 Y10
G0 F3600 X111.238 Y111.271
M204 S1000
M205 X8 Y8
G1 F1200 X111.705 Y110.85 E6.86875
G1 X112.287 Y110.448 E6.89816
G1 X112.964 Y110.111 E6.9296
G1 X113.57 Y109.903 E6.95624
G1 X114.273 Y109.751 E6.98614
G1 X115.1 Y109.683 E7.02064
G1 X116.211 Y109.813 E7.06715
G1 X117.124 Y110.156 E7.1077
G1 X117.94 Y110.582 E7.14597
G1 X118.601 Y111.113 E7.18122
G1 X119.144 Y111.687 E7.21407
G1 X119.772 Y112.675 E7.26274
G1 X120.156 Y113.782 E7.31145
G1 X120.259 Y114.334 E7.3348
G1 X120.298 Y115.134 E7.3681
G1 X120.234 Y115.804 E7.39608
G1 X120.091 Y116.453 E7.42371
G1 X119.882 Y117.06 E7.4504
G1 X119.583 Y117.649 E7.47786
G1 X119.147 Y118.3 E7.51044
G1 X118.665 Y118.83 E7.54022
G1 X118.249 Y119.187 E7.56301
G1 X117.682 Y119.572 E7.59151
G1 X116.816 Y120.003 E7.63172
G1 X115.871 Y120.234 E7.67217
G1 X114.892 Y120.317 E7.71302
G1 X113.78 Y120.184 E7.75958
G1 X112.58 Y119.739 E7.81279
G1 X111.624 Y119.091 E7.8608
G1 X111.032 Y118.512 E7.89523
G1 X110.579 Y117.924 E7.92609
G1 X110.282 Y117.407 E7.95088
G1 X109.983 Y116.695 E7.98298
G1 X109.796 Y116.038 E8.01138
G1 X109.694 Y114.961 E8.05636
G1 X109.751 Y114.296 E8.08411
G1 X109.938 Y113.445 E8.12033
G1 X110.163 Y112.834 E8.1474
G1 X110.426 Y112.334 E8.17089
G1 X110.884 Y111.661 E8.20474
G1 X111.238 Y111.271 E8.22663
M204 S2000
M205 X10 Y10
G0 F3600 X111.573 Y111.642
M204 S1000
M205 X8 Y8
G1 F1200 X112.04 Y111.221 E8.25277
G1 X112.51 Y110.896 E8.27653
G1 X113.187 Y110.559 E8.30797
G1 X113.676 Y110.392 E8.32946
G1 X114.379 Y110.24 E8.35936
G1 X115.087 Y110.185 E8.38888
G1 X116.093 Y110.303 E8.43099
G1 X116.892 Y110.599 E8.46642
G1 X117.665 Y111.003 E8.50268
G1 X118.288 Y111.503 E8.53589
G1 X118.747 Y111.994 E8.56384
G1 X119.318 Y112.892 E8.60808
G1 X119.664 Y113.874 E8.65137
G1 X119.767 Y114.426 E8.67471
G1 X119.8 Y115.089 E8.70231
G1 X119.745 Y115.699 E8.72777
G1 X119.618 Y116.29 E8.75291
G1 X119.409 Y116.897 E8.7796
G1 X119.139 Y117.419 E8.80403
G1 X118.776 Y117.965 E8.83129
G1 X118.337 Y118.452 E8.85855
G1 X117.965 Y118.775 E8.87903
G1 X117.459 Y119.124 E8.90459
G1 X116.643 Y119.53 E8.94248
G1 X115.752 Y119.748 E8.98061
G1 X114.901 Y119.815 E9.0161
G1 X113.901 Y119.695 E9.05798
G1 X112.809 Y119.29 E9.1064
G1 X111.942 Y118.703 E9.14993
G1 X111.426 Y118.204 E9.17977
G1 X111.011 Y117.672 E9.20782
G1 X110.742 Y117.211 E9.23001
G1 X110.464 Y116.558 E9.25952
G1 X110.29 Y115.946 E9.28597
G1 X110.196 Y114.957 E9.32728
G1 X110.249 Y114.339 E9.35306
G1 X110.408 Y113.615 E9.38388
G1 X110.606 Y113.067 E9.40811
G1 X110.869 Y112.567 E9.43159
G1 X111.256 Y111.995 E9.46031
G1 X111.573 Y111.642 E9.48003
M204 S2000
M205 X10 Y10
G0 F3600 X111.91 Y112.011
M204 S1000
M205 X8 Y8
G1 F1200 X112.329 Y111.629 E9.50361
G1 X112.735 Y111.342 E9.52428
G1 X113.352 Y111.031 E9.553
G1 X113.785 Y110.88 E9.57207
G1 X114.417 Y110.739 E9.59899
G1 X114.923 Y110.7 E9.62009
G1 X114.933 Y111.002 E9.63265
G1 X115.196 Y111.005 E9.64359
G1 X115.214 Y110.704 E9.65612
G1 X115.976 Y110.793 E9.68802
G1 X116.718 Y111.068 E9.72092
G1 X117.39 Y111.424 E9.75253
G1 X117.975 Y111.893 E9.78371
G1 X118.349 Y112.3 E9.80669
G1 X118.864 Y113.11 E9.84659
G1 X119.192 Y114.04 E9.88759
G1 X119.274 Y114.512 E9.90751
G1 X119.302 Y115.047 E9.92978
G1 X119.256 Y115.594 E9.95261
G1 X119.129 Y116.185 E9.97774
G1 X118.965 Y116.667 E9.99891
G1 X118.695 Y117.189 E10.02334
G1 X118.402 Y117.633 E10.04546
G1 X118.008 Y118.076 E10.0701
G1 X117.677 Y118.366 E10.0884
G1 X117.236 Y118.676 E10.11081
G1 X116.469 Y119.058 E10.14643
G1 X115.669 Y119.253 E10.18067
G1 X115.061 Y119.301 E10.20603
G1 X115.052 Y118.998 E10.21863
G1 X114.784 Y118.994 E10.22977
G1 X114.764 Y119.295 E10.24231
G1 X114.022 Y119.206 E10.27338
G1 X113.038 Y118.841 E10.31702
G1 X112.259 Y118.314 E10.35612
G1 X111.818 Y117.894 E10.38144
G1 X111.441 Y117.417 E10.40672
G1 X111.201 Y117.013 E10.42625
G1 X110.945 Y116.421 E10.45307
G1 X110.784 Y115.854 E10.47757
G1 X110.698 Y114.951 E10.51528
G1 X110.738 Y114.444 E10.53643
G1 X110.88 Y113.781 E10.56462
G1 X111.049 Y113.3 E10.58581
G1 X111.312 Y112.8 E10.6093
G1 X111.63 Y112.327 E10.633
G1 X111.91 Y112.011 E10.65055
M204 S2000
M205 X10 Y10
G1 F3600 E6.65055
;MESH:ballista-pZ.stl
G0 X113.754 Y113.811
G0 X115.376 Y115.715
M204 S1000
M205 X8 Y8
;TYPE:WALL-OUTER
G1 F3600 E10.65055
G1 F1200 X115.654 Y115.477 E10.66577
G1 X115.746 Y115.304 E10.67391
G1 X115.808 Y115.02 E10.686
G1 X115.8 Y114.87 E10.69224
G1 X115.665 Y114.533 E10.70734
G1 X115.429 Y114.317 E10.72064
G1 X115.149 Y114.207 E10.73314
G1 X114.842 Y114.206 E10.74591
G1 X114.623 Y114.282 E10.75555
G1 X114.451 Y114.401 E10.76424
G1 X114.249 Y114.693 E10.779
G1 X114.189 Y114.974 E10.79095
G1 X114.264 Y115.34 E10.80648
G1 X114.334 Y115.462 E10.81233
G1 X114.569 Y115.681 E10.82568
G1 X114.849 Y115.793 E10.83822
G1 X115.153 Y115.794 E10.85086
G1 X115.376 Y115.715 E10.8607
M204 S2000
M205 X10 Y10
G0 F3600 X115.565 Y115.553
G0 X115.134 Y115.248
M204 S1000
M205 X8 Y8
;TYPE:WALL-INNER
G1 F1107 X115.226 Y115.172 E10.86608
G1 X115.283 Y114.963 E10.87584
G1 X115.249 Y114.858 E10.88081
G1 X115.148 Y114.767 E10.88694
G1 X114.929 Y114.727 E10.89697
G1 X114.773 Y114.823 E10.90523
G1 X114.714 Y115.01 E10.91406
G1 X114.747 Y115.135 E10.91989
G1 X114.95 Y115.272 E10.93093
G1 X115.134 Y115.248 E10.93929
M204 S2000
M205 X10 Y10
G1 F3600 E6.93929
;MESH:NONMESH
G0 F600 X115.134 Y115.248 Z0.4
G0 F3600 X114.998 Y115.016
G0 X113.754 Y113.811
G0 X111.91 Y112.011
;TIME_ELAPSED:18.326942
;LAYER:1
;note -- min layer time used
M106 S255
M204 S1000
M205 X8 Y8
;TYPE:SKIRT
G1 F3600 E10.93929
G1 F600 X112.329 Y111.629 E10.96286
G1 X112.735 Y111.342 E10.98353
G1 X113.352 Y111.031 E11.01226
G1 X113.785 Y110.88 E11.03133
G1 X114.417 Y110.739 E11.05825
G1 X114.923 Y110.7 E11.07935
G1 X114.933 Y111.002 E11.09191
G1 X115.196 Y111.005 E11.10284
G1 X115.214 Y110.704 E11.11538
G1 X115.976 Y110.793 E11.14728
G1 X116.718 Y111.068 E11.18018
G1 X117.39 Y111.424 E11.21179
G1 X117.975 Y111.893 E11.24297
G1 X118.349 Y112.3 E11.26595
G1 X118.864 Y113.11 E11.30585
G1 X119.192 Y114.04 E11.34685
G1 X119.274 Y114.512 E11.36677
G1 X119.302 Y115.047 E11.38904
G1 X119.256 Y115.594 E11.41186
G1 X119.129 Y116.185 E11.437
G1 X118.965 Y116.667 E11.45816
G1 X118.695 Y117.189 E11.4826
G1 X118.402 Y117.633 E11.50471
G1 X118.008 Y118.076 E11.52936
G1 X117.677 Y118.366 E11.54766
G1 X117.236 Y118.676 E11.57007
G1 X116.469 Y119.058 E11.60569
G1 X115.669 Y119.253 E11.63993
G1 X115.061 Y119.301 E11.66528
G1 X115.052 Y118.998 E11.67789
G1 X114.784 Y118.994 E11.68903
G1 X114.764 Y119.295 E11.70157
G1 X114.022 Y119.206 E11.73264
G1 X113.038 Y118.841 E11.77627
G1 X112.259 Y118.314 E11.81538
G1 X111.818 Y117.894 E11.8407
G1 X111.441 Y117.417 E11.86597
G1 X111.201 Y117.013 E11.88551
G1 X110.945 Y116.421 E11.91233
G1 X110.784 Y115.854 E11.93683
G1 X110.698 Y114.951 E11.97454
G1 X110.738 Y114.444 E11.99569
G1 X110.88 Y113.781 E12.02388
G1 X111.049 Y113.3 E12.04507
G1 X111.312 Y112.8 E12.06856
G1 X111.63 Y112.327 E12.09226
G1 X111.91 Y112.011 E12.10981
M204 S3500
M205 X10 Y10
G1 F3600 E8.10981
;MESH:ballista-pZ.stl
G0 F5400 X113.754 Y113.811
G0 X115.376 Y115.715
M204 S1000
M205 X8 Y8
;TYPE:WALL-OUTER
G1 F3600 E12.10981
G1 F600 X115.654 Y115.477 E12.12502
G1 X115.746 Y115.304 E12.13317
G1 X115.808 Y115.02 E12.14526
G1 X115.8 Y114.87 E12.1515
G1 X115.665 Y114.533 E12.16659
G1 X115.429 Y114.317 E12.1799
G1 X115.149 Y114.207 E12.1924
G1 X114.842 Y114.206 E12.20517
G1 X114.623 Y114.282 E12.2148
G1 X114.451 Y114.401 E12.2235
G1 X114.249 Y114.693 E12.23826
G1 X114.189 Y114.974 E12.25021
G1 X114.264 Y115.34 E12.26574
G1 X114.334 Y115.462 E12.27159
G1 X114.569 Y115.681 E12.28494
G1 X114.849 Y115.793 E12.29748
G1 X115.153 Y115.794 E12.31012
G1 X115.376 Y115.715 E12.31996
M204 S3500
M205 X10 Y10
G0 F5400 X115.565 Y115.553
G0 X115.134 Y115.248
M204 S1000
M205 X8 Y8
;TYPE:WALL-INNER
G1 F553.5 X115.226 Y115.172 E12.32533
G1 X115.283 Y114.963 E12.3351
G1 X115.249 Y114.858 E12.34007
G1 X115.148 Y114.767 E12.3462
G1 X114.929 Y114.727 E12.35623
G1 X114.773 Y114.823 E12.36449
G1 X114.714 Y115.01 E12.37332
G1 X114.747 Y115.135 E12.37915
G1 X114.95 Y115.272 E12.39019
G1 X115.134 Y115.248 E12.39855
M204 S3500
M205 X10 Y10
G1 F3600 E8.39855
;MESH:NONMESH
G0 F600 X115.134 Y115.248 Z0.6
G0 F5400 X114.998 Y115.016
G0 X113.754 Y113.811
G0 X111.91 Y112.011
;TIME_ELAPSED:22.527628
;LAYER:2
;note -- min layer time used
M204 S1000
M205 X8 Y8
;TYPE:SKIRT
G1 F3600 E12.39855
G1 F600 X112.329 Y111.629 E12.42212
G1 X112.735 Y111.342 E12.44279
G1 X113.352 Y111.031 E12.47152
G1 X113.785 Y110.88 E12.49058
G1 X114.417 Y110.739 E12.51751
G1 X114.923 Y110.7 E12.53861
G1 X114.933 Y111.002 E12.55117
G1 X115.196 Y111.005 E12.5621
G1 X115.214 Y110.704 E12.57464
G1 X115.976 Y110.793 E12.60654
G1 X116.718 Y111.068 E12.63943
G1 X117.39 Y111.424 E12.67105
G1 X117.975 Y111.893 E12.70222
G1 X118.349 Y112.3 E12.7252
G1 X118.864 Y113.11 E12.76511
G1 X119.192 Y114.04 E12.80611
G1 X119.274 Y114.512 E12.82603
G1 X119.302 Y115.047 E12.8483
G1 X119.256 Y115.594 E12.87112
G1 X119.129 Y116.185 E12.89625
G1 X118.965 Y116.667 E12.91742
G1 X118.695 Y117.189 E12.94186
G1 X118.402 Y117.633 E12.96397
G1 X118.008 Y118.076 E12.98862
G1 X117.677 Y118.366 E13.00692
G1 X117.236 Y118.676 E13.02933
G1 X116.469 Y119.058 E13.06495
G1 X115.669 Y119.253 E13.09919
G1 X115.061 Y119.301 E13.12454
G1 X115.052 Y118.998 E13.13714
G1 X114.784 Y118.994 E13.14829
