;FLAVOR:Marlin
;TIME:1222
;Filament used: 1.24018m
;Layer height: 0.2
;MINX:71.406
;MINY:108.062
;MINZ:0.2
;MAXX:158.594
;MAXY:121.938
;MAXZ:6.4
;TARGET_MACHINE.NAME:Anycubic Kobra
;Generated with Cura_SteamEngine 5.10.1
M140 S60
M105
M190 S60
M104 S200
M105
M109 S200
G21 ;metric values
G90 ;absolute positioning
M82 ;set extruder to absolute mode
M107 ;start with the fan off
M117 Homing X/Y ...
G28 X0 Y0 ;move X/Y to min endstops
M117 Homing Z ...
G28 Z0 ;move Z to min endstops
G1 Z15.0 F240 ;move the platform down 15mm
M117 Heating ...
M104 S[first_layer_temperature]
; set extruder temp
M109 S[first_layer_temperature]
; wait for extruder temp
M117 Start cleaning ...
M420 S1 ; Enable Bed Levelling Mesh
G92 E0 ;zero the extruded length
M413 S0 ; disable power loss recovery - may reduce blobbing and avoid unexpected recovery
; M500 ; store eeprom settings
M117 Intro line ...
G1 Z2.0 F3000 ; Move Z Axis up little to prevent scratching of Heat Bed
G1 X0.1 Y20 Z[first_layer_height] F5000.0 ; Move to start position
G1 X0.1 Y200.0 Z[first_layer_height] F1500.0 E15 ; Draw the first line
G1 X0.4 Y200.0 Z[first_layer_height] F5000.0 ; Move to side a little
G1 X0.4 Y20 Z0.3[first_layer_height] F1500.0 E30 ; Draw the second line
G92 E0 ; Reset Extruder
G1 X5 Y20 Z0.3 F240 ; Move over to prevent blob squish
G92 E0 ; Reset Extruder
M420 S1 ; Enable Bed Levelling Mesh
M117 Printing...
M82 ;absolute extrusion mode
G92 E0
G92 E0
G1 F3600 E-4
;LAYER_COUNT:32
;LAYER:0
M107
M204 S2000
M205 X10 Y10
G0 X73.038 Y108.735 Z0.2
M204 S1000
M205 X8 Y8
;TYPE:SKIRT
G1 F3600 E0
G1 F1200 X73.476 Y108.475 E0.02118
G1 X74.095 Y108.228 E0.04888
G1 X74.592 Y108.116 E0.07007
G1 X75.18 Y108.063 E0.09461
G1 X152.066 Y108.062 E3.29116
G1 X153.14 Y108.078 E3.33582
G1 X153.909 Y108.269 E3.36876
G1 X154.45 Y108.499 E3.3932
G1 X155.045 Y108.863 E3.4222
G1 X155.654 Y109.444 E3.45719
G1 X157.053 Y110.844 E3.53948
G1 X157.55 Y111.358 E3.5692
G1 X157.922 Y111.815 E3.5937
G1 X158.217 Y112.324 E3.61816
G1 X158.428 Y112.872 E3.64257
G1 X158.576 Y113.531 E3.67065
G1 X158.594 Y114.462 E3.70937
G1 X158.582 Y116.142 E3.77922
G1 X158.53 Y116.684 E3.80185
G1 X158.387 Y117.253 E3.82625
G1 X158.157 Y117.794 E3.85069
G1 X157.792 Y118.391 E3.87978
G1 X157.189 Y119.022 E3.91606
G1 X155.822 Y120.388 E3.99641
G1 X155.046 Y121.137 E4.04125
G1 X154.356 Y121.548 E4.07464
G1 X153.81 Y121.763 E4.09904
G1 X153.138 Y121.92 E4.12773
G1 X152.207 Y121.938 E4.16644
G1 X75.809 Y121.938 E7.3427
G1 X75.071 Y121.926 E7.37339
G1 X74.488 Y121.865 E7.39776
G1 X73.919 Y121.714 E7.42223
G1 X73.382 Y121.476 E7.44665
G1 X72.889 Y121.157 E7.47107
G1 X72.506 Y120.821 E7.49225
G1 X72.126 Y120.373 E7.51667
G1 X71.82 Y119.87 E7.54115
G1 X71.573 Y119.252 E7.56882
G1 X71.461 Y118.755 E7.59
G1 X71.407 Y118.155 E7.61505
G1 X71.406 Y112.429 E7.85311
G1 X71.418 Y111.725 E7.88238
G1 X71.466 Y111.218 E7.90355
G1 X71.631 Y110.573 E7.93123
G1 X71.87 Y110.035 E7.95571
G1 X72.189 Y109.543 E7.98008
G1 X72.582 Y109.105 E8.00455
G1 X73.038 Y108.735 E8.02896
M204 S2000
M205 X10 Y10
G0 F3600 X73.293 Y109.165
M204 S1000
M205 X8 Y8
G1 F1200 X73.731 Y108.905 E8.05014
G1 X74.205 Y108.716 E8.07136
G1 X74.702 Y108.604 E8.09254
G1 X75.18 Y108.563 E8.11248
G1 X152.059 Y108.562 E11.30874
G1 X153.076 Y108.577 E11.35103
G1 X153.718 Y108.731 E11.37848
G1 X154.189 Y108.926 E11.39967
G1 X154.74 Y109.263 E11.42652
G1 X155.3 Y109.797 E11.45869
G1 X156.694 Y111.192 E11.54068
G1 X157.166 Y111.678 E11.56885
G1 X157.492 Y112.07 E11.59005
G1 X157.752 Y112.508 E11.61122
G1 X157.94 Y112.982 E11.63242
G1 X158.077 Y113.592 E11.65842
G1 X158.094 Y114.459 E11.69447
G1 X158.084 Y116.099 E11.76265
G1 X158.044 Y116.567 E11.78218
G1 X157.925 Y117.062 E11.80335
G1 X157.73 Y117.533 E11.82454
G1 X157.392 Y118.086 E11.85149
G1 X156.835 Y118.668 E11.88498
G1 X155.475 Y120.028 E11.96494
G1 X154.738 Y120.739 E12.00752
G1 X154.168 Y121.085 E12.03524
G1 X153.696 Y121.276 E12.05641
G1 X153.075 Y121.421 E12.08292
G1 X152.197 Y121.438 E12.11943
G1 X75.816 Y121.438 E15.29498
G1 X75.118 Y121.428 E15.32401
G1 X74.611 Y121.38 E15.34518
G1 X74.117 Y121.255 E15.36637
G1 X73.649 Y121.053 E15.38756
G1 X73.219 Y120.781 E15.40871
G1 X72.836 Y120.445 E15.42989
G1 X72.51 Y120.053 E15.45109
G1 X72.25 Y119.615 E15.47227
G1 X72.061 Y119.142 E15.49344
G1 X71.949 Y118.645 E15.51462
G1 X71.907 Y118.155 E15.53507
G1 X71.906 Y112.437 E15.7728
G1 X71.916 Y111.772 E15.80045
G1 X71.964 Y111.265 E15.82162
G1 X72.09 Y110.771 E15.84282
G1 X72.292 Y110.303 E15.86401
G1 X72.565 Y109.873 E15.88519
G1 X72.901 Y109.49 E15.90637
G1 X73.293 Y109.165 E15.92754
M204 S2000
M205 X10 Y10
G1 F3600 E11.92754
;MESH:ballista-pS.stl
G0 X75.68 Y111.147
G0 X151.272 Y116.12
M204 S1000
M205 X8 Y8
;TYPE:WALL-OUTER
G1 F3600 E15.92754
G1 F1200 X151.006 Y116.242 E15.9397
G1 X150.66 Y116.307 E15.95434
G1 X150.369 Y116.29 E15.96646
G1 X149.96 Y116.148 E15.98446
G1 X149.735 Y115.989 E15.99591
G1 X149.51 Y115.74 E16.00987
G1 X149.342 Y115.394 E16.02586
G1 X149.282 Y115.025 E16.0414
G1 X149.317 Y114.688 E16.05549
G1 X149.425 Y114.4 E16.06827
G1 X149.582 Y114.161 E16.08016
G1 X149.86 Y113.91 E16.09574
G1 X150.112 Y113.776 E16.1076
G1 X150.525 Y113.689 E16.12515
G1 X150.815 Y113.706 E16.13723
G1 X151.166 Y113.819 E16.15256
G1 X151.481 Y114.03 E16.16832
G1 X151.681 Y114.264 E16.18112
G1 X151.825 Y114.554 E16.19458
G1 X151.906 Y114.975 E16.2124
G1 X151.881 Y115.248 E16.2238
G1 X151.759 Y115.599 E16.23925
G1 X151.578 Y115.865 E16.25263
G1 X151.272 Y116.12 E16.26919
M204 S2000
M205 X10 Y10
G0 F3600 X151.046 Y116.224
G0 X151.431 Y117.003
G0 X152.616 Y117.938
M204 S1000
M205 X8 Y8
G1 F1200 X154.594 Y115.96 E16.38549
G1 X154.594 Y114.04 E16.46531
G1 X152.616 Y112.062 E16.58161
G1 X75.406 Y112.062 E19.79163
G1 X75.406 Y117.938 E20.03592
G1 X152.616 Y117.938 E23.24594
M204 S2000
M205 X10 Y10
G0 F3600 X152.792 Y117.762
G0 X152.409 Y117.438
M204 S1000
M205 X8 Y8
;TYPE:WALL-INNER
G1 F1200 X154.094 Y115.753 E23.34501
G1 X154.094 Y114.247 E23.40763
G1 X152.409 Y112.562 E23.5067
G1 X151.458 Y112.562 E23.54623
G1 F1117.3 X150.888 Y112.599 E23.57174
G1 F1049 X150.372 Y112.597 E23.59628
G1 F1119.4 X149.707 Y112.562 E23.62596
G1 F1200 X75.906 Y112.562 E26.69425
G1 X75.906 Y117.438 E26.89697
G1 X149.726 Y117.438 E29.96605
G1 F1115.2 X150.296 Y117.4 E29.99161
G1 F1045.3 X150.801 Y117.402 E30.01571
G1 F1111.1 X151.282 Y117.438 E30.03737
G1 F1190.5 X152.409 Y117.438 E30.0846
M204 S2000
M205 X10 Y10
G0 F3600 X152.263 Y117.086
G0 X151.496 Y116.567
M204 S1000
M205 X8 Y8
G1 F1176.5 X151.099 Y116.742 E30.10299
G1 F1098.9 X150.752 Y116.835 E30.1193
G1 F1045.3 X150.321 Y116.826 E30.13988
G1 F1115.2 X149.68 Y116.562 E30.17089
G1 F1200 X149.374 Y116.335 E30.18673
G1 X149.067 Y115.971 E30.20653
G1 X148.85 Y115.484 E30.2287
G1 X148.782 Y115.033 E30.24766
G1 X148.849 Y114.512 E30.2695
G1 X148.957 Y114.224 E30.28228
G1 X149.172 Y113.875 E30.29933
G1 X149.688 Y113.428 E30.32771
G1 F1176.5 X150.084 Y113.253 E30.34607
G1 F1098.9 X150.433 Y113.162 E30.36244
G1 F1049 X150.863 Y113.171 E30.3829
G1 F1117.3 X151.511 Y113.438 E30.41419
G1 F1200 X151.835 Y113.676 E30.43091
G1 X152.091 Y113.976 E30.4473
G1 X152.313 Y114.446 E30.46892
G1 X152.406 Y114.952 E30.4903
G1 X152.378 Y115.303 E30.50494
G1 X152.228 Y115.773 E30.52546
G1 X151.932 Y116.219 E30.54771
G1 X151.496 Y116.567 E30.5709
M204 S2000
M205 X10 Y10
G0 F3600 X152.155 Y116.822
M204 S1000
M205 X8 Y8
;TYPE:SKIN
G1 F780.2 X152.409 Y116.583 E30.5932
M204 S2000
M205 X10 Y10
G0 F3600 X152.916 Y115.361
M204 S1000
M205 X8 Y8
G1 F943.4 X152.74 Y115.943 E30.62536
G1 F860.8 X152.409 Y116.583 E30.66712
G1 X152.898 Y116.18 E30.70384
G1 F943.4 X153.55 Y115.528 E30.7526
G1 F940.4 X153.564 Y114.492 E30.80757
G1 F934.6 X153.125 Y114.053 E30.84071
G1 F840.3 X152.593 Y113.617 E30.88155
G1 X152.85 Y114.344 E30.92733
G1 F944.9 X152.936 Y114.898 E30.95693
G1 F952.4 X152.916 Y115.361 E30.9812
M204 S2000
M205 X10 Y10
G0 F3600 X152.593 Y113.617
M204 S1000
M205 X8 Y8
G1 F776.2 X152.158 Y113.165 E31.02153
M204 S2000
M205 X10 Y10
G0 F3600 X151.011 Y112.921
G0 X149.886 Y113.001
G0 X149.003 Y113.6
G0 X148.521 Y114.546
G0 X148.649 Y116.205
M204 S1000
M205 X8 Y8
G1 F1200 X148.384 Y115.591 E31.04933
G1 X148.306 Y115.005 E31.07391
G1 X148.33 Y114.681 E31.08741
G1 X148.513 Y114.042 E31.11505
G1 X148.81 Y113.563 E31.13848
G1 X149.24 Y113.156 E31.1631
G1 X149.424 Y113.034 E31.17227
G1 X76.378 Y113.034 E34.20917
G1 X76.378 Y116.962 E34.37248
G1 X149.424 Y116.962 E37.40938
G1 X149.015 Y116.648 E37.43082
G1 X148.649 Y116.205 E37.45471
M204 S2000
M205 X10 Y10
G0 F3600 X148.403 Y113.755
M204 S1000
M205 X8 Y8
G1 F1200 X147.934 Y113.286 E37.48228
M204 S2000
M205 X10 Y10
G0 F3600 X147.227 Y113.286
M204 S1000
M205 X8 Y8
G1 F1200 X148.191 Y114.25 E37.53896
M204 S2000
M205 X10 Y10
G0 F3600 X148.073 Y114.839
M204 S1000
M205 X8 Y8
G1 F1200 X146.52 Y113.286 E37.63027
M204 S2000
M205 X10 Y10
G0 F3600 X145.812 Y113.286
M204 S1000
M205 X8 Y8
G1 F1200 X148.135 Y115.608 E37.76683
G1 X148.223 Y115.696
M204 S2000
M205 X10 Y10
G0 F3600 X147.825 Y116.712
M204 S1000
M205 X8 Y8
G1 F1200 X144.398 Y113.286 E37.96829
M204 S2000
M205 X10 Y10
G0 F3600 X143.691 Y113.286
M204 S1000
M205 X8 Y8
G1 F1200 X147.118 Y116.712 E38.16976
M204 S2000
M205 X10 Y10
G0 F3600 X146.411 Y116.712
M204 S1000
M205 X8 Y8
G1 F1200 X142.984 Y113.286 E38.37122
M204 S2000
M205 X10 Y10
G0 F3600 X142.277 Y113.286
M204 S1000
M205 X8 Y8
G1 F1200 X145.704 Y116.712 E38.57269
M204 S2000
M205 X10 Y10
G0 F3600 X144.996 Y116.712
M204 S1000
M205 X8 Y8
G1 F1200 X141.57 Y113.286 E38.77412
M204 S2000
M205 X10 Y10
G0 F3600 X140.863 Y113.286
M204 S1000
M205 X8 Y8
G1 F1200 X144.289 Y116.712 E38.97556
M204 S2000
M205 X10 Y10
G0 F3600 X143.582 Y116.712
M204 S1000
M205 X8 Y8
G1 F1200 X140.156 Y113.286 E39.177
M204 S2000
M205 X10 Y10
G0 F3600 X139.449 Y113.286
M204 S1000
M205 X8 Y8
G1 F1200 X142.875 Y116.712 E39.37843
M204 S2000
M205 X10 Y10
G0 F3600 X142.168 Y116.712
M204 S1000
M205 X8 Y8
G1 F1200 X138.741 Y113.286 E39.5799
M204 S2000
M205 X10 Y10
G0 F3600 X138.034 Y113.286
M204 S1000
M205 X8 Y8
G1 F1200 X141.461 Y116.712 E39.78136
M204 S2000
M205 X10 Y10
G0 F3600 X140.754 Y116.712
M204 S1000
M205 X8 Y8
G1 F1200 X137.327 Y113.286 E39.98283
M204 S2000
M205 X10 Y10
G0 F3600 X136.62 Y113.286
M204 S1000
M205 X8 Y8
G1 F1200 X140.047 Y116.712 E40.18429
M204 S2000
M205 X10 Y10
G0 F3600 X139.34 Y116.712
M204 S1000
M205 X8 Y8
G1 F1200 X135.913 Y113.286 E40.38576
M204 S2000
M205 X10 Y10
G0 F3600 X135.206 Y113.286
M204 S1000
M205 X8 Y8
G1 F1200 X138.633 Y116.712 E40.58722
M204 S2000
M205 X10 Y10
G0 F3600 X137.925 Y116.712
M204 S1000
M205 X8 Y8
G1 F1200 X134.499 Y113.286 E40.78866
M204 S2000
M205 X10 Y10
G0 F3600 X133.792 Y113.286
M204 S1000
M205 X8 Y8
G1 F1200 X137.218 Y116.712 E40.99009
M204 S2000
M205 X10 Y10
G0 F3600 X136.511 Y116.712
M204 S1000
M205 X8 Y8
G1 F1200 X133.085 Y113.286 E41.19153
M204 S2000
M205 X10 Y10
G0 F3600 X132.377 Y113.286
M204 S1000
M205 X8 Y8
G1 F1200 X135.804 Y116.712 E41.39299
M204 S2000
M205 X10 Y10
G0 F3600 X135.097 Y116.712
M204 S1000
M205 X8 Y8
G1 F1200 X131.67 Y113.286 E41.59446
M204 S2000
M205 X10 Y10
G0 F3600 X130.963 Y113.286
M204 S1000
M205 X8 Y8
G1 F1200 X134.39 Y116.712 E41.79592
M204 S2000
M205 X10 Y10
G0 F3600 X133.683 Y116.712
M204 S1000
M205 X8 Y8
G1 F1200 X130.256 Y113.286 E41.99739
M204 S2000
M205 X10 Y10
G0 F3600 X129.549 Y113.286
M204 S1000
M205 X8 Y8
G1 F1200 X132.976 Y116.712 E42.19885
M204 S2000
M205 X10 Y10
G0 F3600 X132.269 Y116.712
M204 S1000
M205 X8 Y8
G1 F1200 X128.842 Y113.286 E42.40032
M204 S2000
M205 X10 Y10
G0 F3600 X128.135 Y113.286
M204 S1000
M205 X8 Y8
G1 F1200 X131.561 Y116.712 E42.60176
M204 S2000
M205 X10 Y10
G0 F3600 X130.854 Y116.712
M204 S1000
M205 X8 Y8
G1 F1200 X127.428 Y113.286 E42.80319
M204 S2000
M205 X10 Y10
G0 F3600 X126.721 Y113.286
M204 S1000
M205 X8 Y8
G1 F1200 X130.147 Y116.712 E43.00463
M204 S2000
M205 X10 Y10
G0 F3600 X129.44 Y116.712
M204 S1000
M205 X8 Y8
G1 F1200 X126.013 Y113.286 E43.20609
M204 S2000
M205 X10 Y10
G0 F3600 X125.306 Y113.286
M204 S1000
M205 X8 Y8
G1 F1200 X128.733 Y116.712 E43.40756
M204 S2000
M205 X10 Y10
G0 F3600 X128.026 Y116.712
M204 S1000
M205 X8 Y8
G1 F1200 X124.599 Y113.286 E43.60902
M204 S2000
M205 X10 Y10
G0 F3600 X123.892 Y113.286
M204 S1000
M205 X8 Y8
G1 F1200 X127.319 Y116.712 E43.81049
M204 S2000
M205 X10 Y10
G0 F3600 X126.612 Y116.712
M204 S1000
M205 X8 Y8
G1 F1200 X123.185 Y113.286 E44.01195
M204 S2000
M205 X10 Y10
G0 F3600 X122.478 Y113.286
M204 S1000
M205 X8 Y8
G1 F1200 X125.905 Y116.712 E44.21342
M204 S2000
M205 X10 Y10
G0 F3600 X125.197 Y116.712
M204 S1000
M205 X8 Y8
G1 F1200 X121.771 Y113.286 E44.41485
M204 S2000
M205 X10 Y10
G0 F3600 X121.064 Y113.286
M204 S1000
M205 X8 Y8
G1 F1200 X124.49 Y116.712 E44.61629
M204 S2000
M205 X10 Y10
G0 F3600 X123.783 Y116.712
M204 S1000
M205 X8 Y8
G1 F1200 X120.357 Y113.286 E44.81772
M204 S2000
M205 X10 Y10
G0 F3600 X119.65 Y113.286
M204 S1000
M205 X8 Y8
G1 F1200 X123.076 Y116.712 E45.01916
M204 S2000
M205 X10 Y10
G0 F3600 X122.369 Y116.712
M204 S1000
M205 X8 Y8
G1 F1200 X118.942 Y113.286 E45.22062
M204 S2000
M205 X10 Y10
G0 F3600 X118.235 Y113.286
M204 S1000
M205 X8 Y8
G1 F1200 X121.662 Y116.712 E45.42209
M204 S2000
M205 X10 Y10
G0 F3600 X120.955 Y116.712
M204 S1000
M205 X8 Y8
G1 F1200 X117.528 Y113.286 E45.62356
M204 S2000
M205 X10 Y10
G0 F3600 X116.821 Y113.286
M204 S1000
M205 X8 Y8
G1 F1200 X120.248 Y116.712 E45.82502
M204 S2000
M205 X10 Y10
G0 F3600 X119.541 Y116.712
M204 S1000
M205 X8 Y8
G1 F1200 X116.114 Y113.286 E46.02649
M204 S2000
M205 X10 Y10
G0 F3600 X115.407 Y113.286
M204 S1000
M205 X8 Y8
G1 F1200 X118.834 Y116.712 E46.22795
M204 S2000
M205 X10 Y10
G0 F3600 X118.126 Y116.712
M204 S1000
M205 X8 Y8
G1 F1200 X114.7 Y113.286 E46.42939
M204 S2000
M205 X10 Y10
G0 F3600 X113.993 Y113.286
M204 S1000
M205 X8 Y8
G1 F1200 X117.419 Y116.712 E46.63082
M204 S2000
M205 X10 Y10
G0 F3600 X116.712 Y116.712
M204 S1000
M205 X8 Y8
G1 F1200 X113.286 Y113.286 E46.83226
M204 S2000
M205 X10 Y10
G0 F3600 X112.578 Y113.285
M204 S1000
M205 X8 Y8
G1 F1200 X116.005 Y116.712 E47.03375
M204 S2000
M205 X10 Y10
G0 F3600 X115.298 Y116.712
M204 S1000
M205 X8 Y8
G1 F1200 X111.871 Y113.285 E47.23525
M204 S2000
M205 X10 Y10
G0 F3600 X111.164 Y113.285
M204 S1000
M205 X8 Y8
G1 F1200 X114.591 Y116.712 E47.43674
M204 S2000
M205 X10 Y10
G0 F3600 X113.884 Y116.712
M204 S1000
M205 X8 Y8
G1 F1200 X110.456 Y113.285 E47.63826
M204 S2000
M205 X10 Y10
G0 F3600 X109.749 Y113.285
M204 S1000
M205 X8 Y8
G1 F1200 X113.177 Y116.712 E47.83979
M204 S2000
M205 X10 Y10
G0 F3600 X112.47 Y116.712
M204 S1000
M205 X8 Y8
G1 F1200 X109.042 Y113.285 E48.04131
M204 S2000
M205 X10 Y10
G0 F3600 X108.335 Y113.285
M204 S1000
M205 X8 Y8
G1 F1200 X111.762 Y116.712 E48.24281
M204 S2000
M205 X10 Y10
G0 F3600 X111.055 Y116.712
M204 S1000
M205 X8 Y8
G1 F1200 X107.628 Y113.285 E48.4443
M204 S2000
M205 X10 Y10
G0 F3600 X106.921 Y113.285
M204 S1000
M205 X8 Y8
G1 F1200 X110.348 Y116.712 E48.6458
M204 S2000
M205 X10 Y10
G0 F3600 X109.641 Y116.712
M204 S1000
M205 X8 Y8
G1 F1200 X106.214 Y113.285 E48.84729
M204 S2000
M205 X10 Y10
G0 F3600 X105.507 Y113.285
M204 S1000
M205 X8 Y8
G1 F1200 X108.934 Y116.712 E49.04878
M204 S2000
M205 X10 Y10
G0 F3600 X108.227 Y116.712
M204 S1000
M205 X8 Y8
G1 F1200 X104.8 Y113.285 E49.25028
M204 S2000
M205 X10 Y10
G0 F3600 X104.092 Y113.285
M204 S1000
M205 X8 Y8
G1 F1200 X107.52 Y116.712 E49.4518
M204 S2000
M205 X10 Y10
G0 F3600 X106.813 Y116.712
M204 S1000
M205 X8 Y8
G1 F1200 X103.385 Y113.285 E49.65333
M204 S2000
M205 X10 Y10
G0 F3600 X102.678 Y113.285
M204 S1000
M205 X8 Y8
G1 F1200 X106.106 Y116.712 E49.85485
M204 S2000
M205 X10 Y10
G0 F3600 X105.399 Y116.712
M204 S1000
M205 X8 Y8
G1 F1200 X101.971 Y113.285 E50.05637
M204 S2000
M205 X10 Y10
G0 F3600 X101.264 Y113.285
M204 S1000
M205 X8 Y8
G1 F1200 X104.691 Y116.712 E50.25787
M204 S2000
M205 X10 Y10
G0 F3600 X103.984 Y116.712
M204 S1000
M205 X8 Y8
G1 F1200 X100.557 Y113.285 E50.45936
M204 S2000
M205 X10 Y10
G0 F3600 X99.85 Y113.285
M204 S1000
M205 X8 Y8
G1 F1200 X103.277 Y116.712 E50.66086
M204 S2000
M205 X10 Y10
G0 F3600 X102.57 Y116.712
