;FLAVOR:Marlin
;TIME:66
;Filament used: 0.0281291m
;Layer height: 0.2
;MINX:107.686
;MINY:107.69
;MINZ:0.2
;MAXX:122.292
;MAXY:122.31
;MAXZ:10.6
;TARGET_MACHINE.NAME:Anycubic Kobra
;Generated with Cura_SteamEngine 5.10.1
M140 S60
M105
M190 S60
M104 S200
M105
M109 S200
G21 ;metric values
G90 ;absolute positioning
M82 ;set extruder to absolute mode
M107 ;start with the fan off
M117 Homing X/Y ...
G28 X0 Y0 ;move X/Y to min endstops
M117 Homing Z ...
G28 Z0 ;move Z to min endstops
G1 Z15.0 F240 ;move the platform down 15mm
M117 Heating ...
M104 S[first_layer_temperature]
; set extruder temp
M109 S[first_layer_temperature]
; wait for extruder temp
M117 Start cleaning ...
M420 S1 ; Enable Bed Levelling Mesh
G92 E0 ;zero the extruded length
M413 S0 ; disable power loss recovery - may reduce blobbing and avoid unexpected recovery
; M500 ; store eeprom settings
M117 Intro line ...
G1 Z2.0 F3000 ; Move Z Axis up little to prevent scratching of Heat Bed
G1 X0.1 Y20 Z[first_layer_height] F5000.0 ; Move to start position
G1 X0.1 Y200.0 Z[first_layer_height] F1500.0 E15 ; Draw the first line
G1 X0.4 Y200.0 Z[first_layer_height] F5000.0 ; Move to side a little
G1 X0.4 Y20 Z0.3[first_layer_height] F1500.0 E30 ; Draw the second line
G92 E0 ; Reset Extruder
G1 X5 Y20 Z0.3 F240 ; Move over to prevent blob squish
G92 E0 ; Reset Extruder
M420 S1 ; Enable Bed Levelling Mesh
M117 Printing...
M82 ;absolute extrusion mode
G92 E0
G92 E0
G1 F3600 E-4
;LAYER_COUNT:53
;LAYER:0
M107
M204 S2000
M205 X10 Y10
G0 X110.06 Y109.63 Z0.2
M204 S1000
M205 X8 Y8
;TYPE:SKIRT
G1 F3600 E0
G1 F1200 X110.723 Y109.093 E0.03547
G1 X111.812 Y108.438 E0.08831
G1 X112.728 Y108.069 E0.12936
G1 X113.795 Y107.804 E0.17507
G1 X114.789 Y107.69 E0.21667
G1 X116.21 Y107.784 E0.27587
G1 X117.367 Y108.079 E0.32552
G1 X118.577 Y108.618 E0.38059
G1 X119.753 Y109.463 E0.44079
G1 X120.291 Y109.979 E0.47178
G1 X120.975 Y110.819 E0.51682
G1 X121.565 Y111.825 E0.56531
G1 X121.953 Y112.796 E0.60878
G1 X122.155 Y113.568 E0.64196
G1 X122.292 Y114.874 E0.69655
G1 X122.241 Y116.062 E0.74599
G1 X121.919 Y117.378 E0.80232
G1 X121.296 Y118.7 E0.86308
G1 X120.891 Y119.31 E0.89352
G1 X120.01 Y120.319 E0.94921
G1 X119.213 Y120.952 E0.99152
G1 X118.078 Y121.616 E1.04619
G1 X117.265 Y121.935 E1.0825
G1 X116.467 Y122.145 E1.11681
G1 X115.221 Y122.31 E1.16906
G1 X113.771 Y122.216 E1.22947
G1 X112.437 Y121.831 E1.2872
G1 X111.46 Y121.403 E1.33154
G1 X110.262 Y120.547 E1.39276
G1 X109.694 Y120.004 E1.42543
G1 X108.943 Y119.069 E1.47529
G1 X108.435 Y118.185 E1.51768
G1 X108.163 Y117.542 E1.5467
G1 X107.82 Y116.407 E1.596
G1 X107.686 Y114.963 E1.65629
G1 X107.784 Y113.935 E1.69922
G1 X108.005 Y112.855 E1.74506
G1 X108.565 Y111.574 E1.80318
G1 X109.157 Y110.596 E1.85071
G1 X110.06 Y109.63 E1.90569
M204 S2000
M205 X10 Y10
G0 F3600 X110.375 Y110.019
M204 S1000
M205 X8 Y8
G1 F1200 X111.038 Y109.482 E1.94116
G1 X112.001 Y108.901 E1.98792
G1 X112.851 Y108.554 E2.02609
G1 X113.852 Y108.301 E2.06901
G1 X114.802 Y108.192 E2.10877
G1 X116.13 Y108.28 E2.1641
G1 X117.202 Y108.553 E2.21009
G1 X118.33 Y109.056 E2.26144
G1 X119.409 Y109.826 E2.31655
G1 X119.905 Y110.297 E2.34499
G1 X120.545 Y111.074 E2.38684
G1 X121.101 Y112.012 E2.43217
G1 X121.469 Y112.923 E2.47302
G1 X121.671 Y113.695 E2.5062
G1 X121.792 Y114.853 E2.5546
G1 X121.743 Y115.992 E2.602
G1 X121.445 Y117.211 E2.65418
G1 X120.879 Y118.423 E2.70979
G1 X120.474 Y119.033 E2.74023
G1 X119.664 Y119.955 E2.79125
G1 X118.902 Y120.56 E2.83171
G1 X117.894 Y121.151 E2.88028
G1 X117.138 Y121.451 E2.9141
G1 X116.34 Y121.661 E2.94841
G1 X115.204 Y121.808 E2.99603
G1 X113.858 Y121.72 E3.05211
G1 X112.638 Y121.373 E3.10484
G1 X111.709 Y120.966 E3.14701
G1 X110.553 Y120.14 E3.20608
G1 X110.082 Y119.689 E3.23319
G1 X109.376 Y118.818 E3.2798
G1 X108.895 Y117.988 E3.31969
G1 X108.642 Y117.397 E3.34642
G1 X108.313 Y116.309 E3.39367
G1 X108.188 Y114.964 E3.44983
G1 X108.274 Y114.035 E3.48862
G1 X108.484 Y113.008 E3.5322
G1 X108.993 Y111.833 E3.58544
G1 X109.56 Y110.897 E3.63094
G1 X110.375 Y110.019 E3.68074
M204 S2000
M205 X10 Y10
G0 F3600 X110.69 Y110.408
M204 S1000
M205 X8 Y8
G1 F1200 X111.353 Y109.871 E3.71621
G1 X112.258 Y109.33 E3.76005
G1 X112.976 Y109.038 E3.79227
G1 X113.909 Y108.798 E3.83233
G1 X114.815 Y108.694 E3.87024
G1 X116.05 Y108.776 E3.9217
G1 X117.039 Y109.028 E3.96413
G1 X118.081 Y109.492 E4.01155
G1 X119.067 Y110.191 E4.0618
G1 X119.521 Y110.617 E4.08769
G1 X120.116 Y111.331 E4.12633
G1 X120.638 Y112.201 E4.16851
G1 X120.985 Y113.05 E4.20664
G1 X121.187 Y113.822 E4.23982
G1 X121.292 Y114.831 E4.28199
G1 X121.245 Y115.922 E4.32739
G1 X120.971 Y117.045 E4.37545
G1 X120.46 Y118.149 E4.42603
G1 X120.098 Y118.703 E4.45354
G1 X119.318 Y119.591 E4.50268
G1 X118.591 Y120.168 E4.54127
G1 X117.708 Y120.687 E4.58385
G1 X117.011 Y120.967 E4.61508
G1 X116.213 Y121.177 E4.64939
G1 X115.189 Y121.306 E4.6923
G1 X113.941 Y121.224 E4.74429
G1 X112.839 Y120.915 E4.79188
G1 X111.957 Y120.528 E4.83192
G1 X110.897 Y119.777 E4.88593
G1 X110.469 Y119.372 E4.91043
G1 X109.808 Y118.565 E4.9538
G1 X109.355 Y117.791 E4.99108
G1 X109.102 Y117.2 E5.01781
G1 X108.807 Y116.214 E5.0606
G1 X108.69 Y114.963 E5.11284
G1 X108.764 Y114.135 E5.1474
G1 X108.963 Y113.161 E5.18873
G1 X109.421 Y112.092 E5.23708
G1 X109.961 Y111.2 E5.28043
G1 X110.69 Y110.408 E5.32518
M204 S2000
M205 X10 Y10
G0 F3600 X111.058 Y110.747
M204 S1000
M205 X8 Y8
G1 F1200 X111.612 Y110.299 E5.35481
G1 X112.449 Y109.792 E5.39549
G1 X113.103 Y109.522 E5.42491
G1 X113.966 Y109.295 E5.46201
G1 X114.828 Y109.196 E5.49808
G1 X115.97 Y109.272 E5.54566
G1 X116.874 Y109.502 E5.58444
G1 X117.836 Y109.931 E5.62824
G1 X118.727 Y110.557 E5.67351
G1 X119.139 Y110.94 E5.6969
G1 X119.689 Y111.591 E5.73233
G1 X120.176 Y112.392 E5.7713
G1 X120.501 Y113.177 E5.80662
G1 X120.703 Y113.949 E5.8398
G1 X120.792 Y114.809 E5.87575
G1 X120.747 Y115.853 E5.91919
G1 X120.496 Y116.883 E5.96327
G1 X120.041 Y117.875 E6.00864
G1 X119.679 Y118.429 E6.03615
G1 X118.972 Y119.228 E6.08051
G1 X118.335 Y119.738 E6.11444
G1 X117.519 Y120.224 E6.15392
G1 X116.881 Y120.484 E6.18257
G1 X116.15 Y120.681 E6.21404
G1 X115.175 Y120.804 E6.2549
G1 X114.025 Y120.728 E6.30281
G1 X113.04 Y120.457 E6.34529
G1 X112.202 Y120.089 E6.38334
G1 X111.241 Y119.414 E6.43216
G1 X110.813 Y119.009 E6.45666
G1 X110.196 Y118.25 E6.49733
G1 X109.815 Y117.594 E6.52887
G1 X109.562 Y117.003 E6.5556
G1 X109.301 Y116.121 E6.59384
G1 X109.192 Y114.96 E6.64232
G1 X109.254 Y114.235 E6.67257
G1 X109.443 Y113.309 E6.71186
G1 X109.849 Y112.351 E6.75512
G1 X110.363 Y111.502 E6.79638
G1 X111.058 Y110.747 E6.83905
M204 S2000
M205 X10 Y10
G0 F3600 X111.375 Y111.134
M204 S1000
M205 X8 Y8
G1 F1200 X111.874 Y110.725 E6.86587
G1 X112.642 Y110.253 E6.90335
G1 X113.233 Y110.005 E6.92999
G1 X114.023 Y109.792 E6.96401
G1 X114.841 Y109.698 E6.99824
G1 X115.89 Y109.768 E7.04195
G1 X116.711 Y109.977 E7.07718
G1 X117.589 Y110.368 E7.11713
G1 X118.389 Y110.926 E7.15769
G1 X118.759 Y111.265 E7.17855
G1 X119.263 Y111.853 E7.21075
G1 X119.715 Y112.586 E7.24655
G1 X120.018 Y113.307 E7.27906
G1 X120.206 Y114.004 E7.30908
G1 X120.292 Y114.787 E7.34183
G1 X120.249 Y115.784 E7.38332
G1 X120.022 Y116.717 E7.42324
G1 X119.622 Y117.601 E7.46358
G1 X119.26 Y118.155 E7.49109
G1 X118.626 Y118.865 E7.53066
G1 X118.076 Y119.31 E7.56008
G1 X117.328 Y119.762 E7.59641
G1 X116.747 Y120.002 E7.62255
G1 X116.087 Y120.185 E7.65102
G1 X115.161 Y120.302 E7.68983
G1 X114.109 Y120.232 E7.73366
G1 X113.241 Y119.999 E7.77103
G1 X112.449 Y119.651 E7.80699
G1 X111.585 Y119.051 E7.85073
G1 X111.157 Y118.646 E7.87522
G1 X110.627 Y117.997 E7.91006
G1 X110.275 Y117.397 E7.93898
G1 X110.022 Y116.806 E7.96571
G1 X109.794 Y116.026 E7.99949
G1 X109.694 Y114.955 E8.04421
G1 X109.744 Y114.335 E8.07008
G1 X109.923 Y113.456 E8.10737
G1 X110.277 Y112.61 E8.1455
G1 X110.766 Y111.802 E8.18476
G1 X111.375 Y111.134 E8.22234
M204 S2000
M205 X10 Y10
G0 F3600 X111.692 Y111.521
M204 S1000
M205 X8 Y8
G1 F1200 X112.191 Y111.112 E8.24917
G1 X112.838 Y110.713 E8.28077
G1 X113.367 Y110.487 E8.30469
G1 X114.08 Y110.289 E8.33545
G1 X114.854 Y110.2 E8.36784
G1 X115.81 Y110.264 E8.40768
G1 X116.546 Y110.451 E8.43925
G1 X117.342 Y110.806 E8.47549
G1 X118.051 Y111.295 E8.51129
G1 X118.421 Y111.634 E8.53216
G1 X118.839 Y112.118 E8.55875
G1 X119.255 Y112.782 E8.59132
G1 X119.536 Y113.441 E8.62111
G1 X119.709 Y114.063 E8.64795
G1 X119.792 Y114.765 E8.67734
G1 X119.751 Y115.715 E8.71687
G1 X119.547 Y116.554 E8.75277
G1 X119.203 Y117.327 E8.78794
G1 X118.841 Y117.881 E8.81546
G1 X118.309 Y118.478 E8.8487
G1 X117.814 Y118.884 E8.87532
G1 X117.137 Y119.3 E8.90836
G1 X116.556 Y119.54 E8.93449
G1 X116.024 Y119.689 E8.95746
G1 X115.147 Y119.8 E8.99421
G1 X114.191 Y119.736 E9.03405
G1 X113.442 Y119.541 E9.06622
G1 X112.693 Y119.212 E9.10024
G1 X111.926 Y118.686 E9.1389
G1 X111.542 Y118.327 E9.16076
G1 X111.057 Y117.741 E9.19238
G1 X110.735 Y117.2 E9.21856
G1 X110.482 Y116.609 E9.24528
G1 X110.288 Y115.936 E9.2744
G1 X110.196 Y114.953 E9.31545
G1 X110.234 Y114.435 E9.33704
G1 X110.403 Y113.606 E9.37222
G1 X110.705 Y112.869 E9.40533
G1 X111.17 Y112.101 E9.44266
G1 X111.692 Y111.521 E9.4751
M204 S2000
M205 X10 Y10
G0 F3600 X112.009 Y111.908
M204 S1000
M205 X8 Y8
G1 F1200 X112.508 Y111.499 E9.50193
G1 X113.034 Y111.173 E9.52765
G1 X113.563 Y110.947 E9.55157
G1 X114.137 Y110.786 E9.57635
G1 X114.867 Y110.702 E9.6069
G1 X115.73 Y110.76 E9.64287
G1 X116.381 Y110.925 E9.67079
G1 X117.096 Y111.244 E9.70334
G1 X117.767 Y111.707 E9.73723
G1 X118.079 Y111.999 E9.755
G1 X118.417 Y112.387 E9.77639
G1 X118.796 Y112.981 E9.80568
G1 X119.054 Y113.575 E9.83261
G1 X119.227 Y114.197 E9.85945
G1 X119.295 Y114.819 E9.88546
G1 X119.254 Y115.642 E9.91972
G1 X119.071 Y116.394 E9.9519
G1 X118.784 Y117.053 E9.98178
G1 X118.422 Y117.607 E10.0093
G1 X117.992 Y118.091 E10.03621
G1 X117.497 Y118.497 E10.06283
G1 X116.944 Y118.839 E10.08986
G1 X116.415 Y119.06 E10.1137
G1 X115.961 Y119.193 E10.13337
G1 X115.133 Y119.298 E10.16807
G1 X114.27 Y119.24 E10.20403
G1 X113.643 Y119.083 E10.2309
G1 X112.935 Y118.772 E10.26305
G1 X112.265 Y118.319 E10.29667
G1 X111.925 Y118.005 E10.31592
G1 X111.485 Y117.482 E10.34433
G1 X111.195 Y117.003 E10.36761
G1 X110.942 Y116.412 E10.39434
G1 X110.782 Y115.845 E10.41883
G1 X110.698 Y114.949 E10.45625
G1 X110.733 Y114.472 E10.47613
G1 X110.882 Y113.757 E10.5065
G1 X111.168 Y113.059 E10.53786
G1 X111.573 Y112.4 E10.57002
G1 X112.009 Y111.908 E10.59735
M204 S2000
M205 X10 Y10
G1 F3600 E6.59735
;MESH:ballista-pY.stl
G0 X113.754 Y113.811
G0 X115.376 Y115.715
M204 S1000
M205 X8 Y8
;TYPE:WALL-OUTER
G1 F3600 E10.59735
G1 F1200 X115.654 Y115.477 E10.61256
G1 X115.746 Y115.304 E10.62071
G1 X115.808 Y115.02 E10.63279
G1 X115.8 Y114.87 E10.63904
G1 X115.665 Y114.533 E10.65413
G1 X115.429 Y114.317 E10.66743
G1 X115.149 Y114.207 E10.67994
G1 X114.842 Y114.206 E10.6927
G1 X114.623 Y114.282 E10.70234
G1 X114.451 Y114.401 E10.71104
G1 X114.249 Y114.693 E10.7258
G1 X114.189 Y114.974 E10.73775
G1 X114.264 Y115.34 E10.75328
G1 X114.334 Y115.462 E10.75913
G1 X114.569 Y115.681 E10.77248
G1 X114.849 Y115.793 E10.78502
G1 X115.153 Y115.794 E10.79766
G1 X115.376 Y115.715 E10.80749
M204 S2000
M205 X10 Y10
G0 F3600 X115.565 Y115.553
G0 X115.134 Y115.248
M204 S1000
M205 X8 Y8
;TYPE:WALL-INNER
G1 F1107 X115.226 Y115.172 E10.81287
G1 X115.283 Y114.963 E10.82263
G1 X115.249 Y114.858 E10.82761
G1 X115.148 Y114.767 E10.83374
G1 X114.929 Y114.727 E10.84377
G1 X114.773 Y114.823 E10.85202
G1 X114.714 Y115.01 E10.86086
G1 X114.747 Y115.135 E10.86669
G1 X114.95 Y115.272 E10.87772
G1 X115.134 Y115.248 E10.88609
M204 S2000
M205 X10 Y10
G1 F3600 E6.88609
;MESH:NONMESH
G0 F600 X115.134 Y115.248 Z0.4
G0 F3600 X114.998 Y115.016
G0 X113.754 Y113.811
G0 X112.009 Y111.908
;TIME_ELAPSED:18.183114
;LAYER:1
;note -- min layer time used
M106 S255
M204 S1000
M205 X8 Y8
;TYPE:SKIRT
G1 F3600 E10.88609
G1 F600 X112.508 Y111.499 E10.91291
G1 X113.034 Y111.173 E10.93864
G1 X113.563 Y110.947 E10.96256
G1 X114.137 Y110.786 E10.98734
G1 X114.867 Y110.702 E11.01789
G1 X115.73 Y110.76 E11.05385
G1 X116.381 Y110.925 E11.08177
G1 X117.096 Y111.244 E11.11432
G1 X117.767 Y111.707 E11.14822
G1 X118.079 Y111.999 E11.16598
G1 X118.417 Y112.387 E11.18738
G1 X118.796 Y112.981 E11.21667
G1 X119.054 Y113.575 E11.24359
G1 X119.227 Y114.197 E11.27044
G1 X119.295 Y114.819 E11.29645
G1 X119.254 Y115.642 E11.33071
G1 X119.071 Y116.394 E11.36289
G1 X118.784 Y117.053 E11.39277
G1 X118.422 Y117.607 E11.42028
G1 X117.992 Y118.091 E11.4472
G1 X117.497 Y118.497 E11.47382
G1 X116.944 Y118.839 E11.50085
G1 X116.415 Y119.06 E11.52468
G1 X115.961 Y119.193 E11.54435
G1 X115.133 Y119.298 E11.57905
G1 X114.27 Y119.24 E11.61501
G1 X113.643 Y119.083 E11.64189
G1 X112.935 Y118.772 E11.67404
G1 X112.265 Y118.319 E11.70766
G1 X111.925 Y118.005 E11.7269
G1 X111.485 Y117.482 E11.75532
G1 X111.195 Y117.003 E11.7786
G1 X110.942 Y116.412 E11.80532
G1 X110.782 Y115.845 E11.82982
G1 X110.698 Y114.949 E11.86723
G1 X110.733 Y114.472 E11.88712
G1 X110.882 Y113.757 E11.91748
G1 X111.168 Y113.059 E11.94884
G1 X111.573 Y112.4 E11.981
G1 X112.009 Y111.908 E12.00833
M204 S3500
M205 X10 Y10
G1 F3600 E8.00833
;MESH:ballista-pY.stl
G0 F5400 X113.795 Y113.772
G0 X115.512 Y115.624
M204 S1000
M205 X8 Y8
;TYPE:WALL-OUTER
G1 F3600 E12.00833
G1 F600 X115.737 Y115.337 E12.02349
G1 X115.811 Y115.023 E12.03691
G1 X115.741 Y114.678 E12.05154
G1 X115.539 Y114.401 E12.0658
G1 X115.276 Y114.241 E12.07859
G1 X114.852 Y114.2 E12.0963
G1 X114.621 Y114.282 E12.1065
G1 X114.34 Y114.525 E12.12194
G1 X114.264 Y114.661 E12.12842
G1 X114.189 Y114.973 E12.14176
G1 X114.256 Y115.32 E12.15645
G1 X114.458 Y115.6 E12.17081
G1 X114.719 Y115.758 E12.18349
G1 X114.99 Y115.808 E12.19495
G1 X115.378 Y115.714 E12.21155
G1 X115.512 Y115.624 E12.21826
M204 S3500
M205 X10 Y10
G0 F5400 X115.666 Y115.428
G0 X115.143 Y115.246
M204 S1000
M205 X8 Y8
;TYPE:WALL-INNER
G1 F555.6 X115.249 Y115.139 E12.22502
G1 X115.287 Y114.981 E12.23232
G1 X115.181 Y114.792 E12.24205
G1 X114.967 Y114.713 E12.25229
G1 X114.82 Y114.773 E12.25942
G1 X114.753 Y114.852 E12.26407
G1 X114.713 Y115.017 E12.27169
G1 X114.818 Y115.21 E12.28156
G1 X115.037 Y115.283 E12.29192
G1 X115.143 Y115.246 E12.29696
M204 S3500
M205 X10 Y10
G1 F3600 E8.29696
;MESH:NONMESH
G0 F600 X115.143 Y115.246 Z0.6
G0 F5400 X115.014 Y114.986
G0 X113.795 Y113.772
G0 X112.009 Y111.908
;TIME_ELAPSED:22.255219
;LAYER:2
;note -- min layer time used
M204 S1000
M205 X8 Y8
;TYPE:SKIRT
G1 F3600 E12.29696
G1 F600 X112.508 Y111.499 E12.32379
G1 X113.034 Y111.173 E12.34952
G1 X113.563 Y110.947 E12.37343
G1 X114.137 Y110.786 E12.39822
G1 X114.867 Y110.702 E12.42877
G1 X115.73 Y110.76 E12.46473
G1 X116.381 Y110.925 E12.49265
G1 X117.096 Y111.244 E12.5252
G1 X117.767 Y111.707 E12.55909
G1 X118.079 Y111.999 E12.57686
G1 X118.417 Y112.387 E12.59825
G1 X118.796 Y112.981 E12.62755
G1 X119.054 Y113.575 E12.65447
G1 X119.227 Y114.197 E12.68131
G1 X119.295 Y114.819 E12.70733
G1 X119.254 Y115.642 E12.74159
G1 X119.071 Y116.394 E12.77376
G1 X118.784 Y117.053 E12.80365
G1 X118.422 Y117.607 E12.83116
G1 X117.992 Y118.091 E12.85808
G1 X117.497 Y118.497 E12.88469
G1 X116.944 Y118.839 E12.91173
G1 X116.415 Y119.06 E12.93556
G1 X115.961 Y119.193 E12.95523
G1 X115.133 Y119.298 E12.98993
G1 X114.27 Y119.24 E13.02589
G1 X113.643 Y119.083 E13.05276
G1 X112.935 Y118.772 E13.08491
G1 X112.265 Y118.319 E13.11854
G1 X111.925 Y118.005 E13.13778
G1 X111.485 Y117.482 E13.16619
G1 X111.195 Y117.003 E13.18947
G1 X110.942 Y116.412 E13.2162
G1 X110.782 Y115.845 E13.2407
G1 X110.698 Y114.949 E13.27811
G1 X110.733 Y114.472 E13.29799
G1 X110.882 Y113.757 E13.32836
G1 X111.168 Y113.059 E13.35972
G1 X111.573 Y112.4 E13.39188
G1 X112.009 Y111.908 E13.41921
M204 S5000
M205 X10 Y10
G1 F3600 E9.41921
;MESH:ballista-pY.stl
G0 F7200 X113.746 Y113.82
G0 X115.317 Y115.743
M204 S1000
M205 X8 Y8
;TYPE:WALL-OUTER
G1 F3600 E13.41921
G1 F600 X115.544 Y115.596 E13.43045
G1 X115.776 Y115.227 E13.44858
G1 X115.812 Y115.027 E13.45702
G1 X115.741 Y114.678 E13.47183
G1 X115.539 Y114.4 E13.48612
G1 X115.279 Y114.241 E13.49879
