;FLAVOR:Marlin
;TIME:858
;Filament used: 0.954777m
;Layer height: 0.2
;MINX:100.125
;MINY:100.126
;MINZ:0.2
;MAXX:129.875
;MAXY:129.883
;MAXZ:6.4
;TARGET_MACHINE.NAME:Anycubic Kobra
;Generated with Cura_SteamEngine 5.10.1
M140 S60
M105
M190 S60
M104 S200
M105
M109 S200
G21 ;metric values
G90 ;absolute positioning
M82 ;set extruder to absolute mode
M107 ;start with the fan off
M117 Homing X/Y ...
G28 X0 Y0 ;move X/Y to min endstops
M117 Homing Z ...
G28 Z0 ;move Z to min endstops
G1 Z15.0 F240 ;move the platform down 15mm
M117 Heating ...
M104 S[first_layer_temperature]
; set extruder temp
M109 S[first_layer_temperature]
; wait for extruder temp
M117 Start cleaning ...
M420 S1 ; Enable Bed Levelling Mesh
G92 E0 ;zero the extruded length
M413 S0 ; disable power loss recovery - may reduce blobbing and avoid unexpected recovery
; M500 ; store eeprom settings
M117 Intro line ...
G1 Z2.0 F3000 ; Move Z Axis up little to prevent scratching of Heat Bed
G1 X0.1 Y20 Z[first_layer_height] F5000.0 ; Move to start position
G1 X0.1 Y200.0 Z[first_layer_height] F1500.0 E15 ; Draw the first line
G1 X0.4 Y200.0 Z[first_layer_height] F5000.0 ; Move to side a little
G1 X0.4 Y20 Z0.3[first_layer_height] F1500.0 E30 ; Draw the second line
G92 E0 ; Reset Extruder
G1 X5 Y20 Z0.3 F240 ; Move over to prevent blob squish
G92 E0 ; Reset Extruder
M420 S1 ; Enable Bed Levelling Mesh
M117 Printing...
M82 ;absolute extrusion mode
G92 E0
G92 E0
G1 F3600 E-4
;LAYER_COUNT:32
;LAYER:0
M107
M204 S2000
M205 X10 Y10
G0 X101.486 Y101.281 Z0.2
M204 S1000
M205 X8 Y8
;TYPE:SKIRT
G1 F3600 E0
G1 F1200 X102.002 Y100.869 E0.02745
G1 X102.51 Y100.575 E0.05185
G1 X103.204 Y100.304 E0.08283
G1 X103.701 Y100.192 E0.10401
G1 X104.399 Y100.127 E0.13316
G1 X124.98 Y100.126 E0.98881
G1 X125.718 Y100.138 E1.0195
G1 X126.421 Y100.216 E1.04891
G1 X127.065 Y100.393 E1.07667
G1 X127.671 Y100.668 E1.10434
G1 X128.222 Y101.031 E1.13177
G1 X128.605 Y101.367 E1.15296
G1 X129.082 Y101.931 E1.18367
G1 X129.411 Y102.471 E1.20996
G1 X129.696 Y103.202 E1.24258
G1 X129.818 Y103.763 E1.26644
G1 X129.872 Y104.351 E1.29099
G1 X129.875 Y114.66 E1.71959
G1 X129.862 Y115.345 E1.74808
G1 X129.814 Y116.21 E1.78409
G1 X129.658 Y117.574 E1.84117
G1 X129.358 Y118.89 E1.89729
G1 X129.033 Y119.894 E1.94116
G1 X128.812 Y120.498 E1.9679
G1 X128.555 Y121.099 E1.99508
G1 X128.214 Y121.829 E2.02858
G1 X127.49 Y123.072 E2.08838
G1 X126.979 Y123.799 E2.12532
G1 X126.538 Y124.39 E2.15598
G1 X125.716 Y125.308 E2.20721
G1 X125.238 Y125.785 E2.23529
G1 X124.75 Y126.238 E2.26297
G1 X124.247 Y126.647 E2.28992
G1 X123.406 Y127.26 E2.33319
G1 X122.548 Y127.802 E2.37538
G1 X121.52 Y128.359 E2.42399
G1 X120.338 Y128.88 E2.4777
G1 X119.498 Y129.172 E2.51467
G1 X118.319 Y129.488 E2.56542
G1 X117.488 Y129.661 E2.60071
G1 X116.408 Y129.799 E2.64597
G1 X115.767 Y129.845 E2.67269
G1 X114.951 Y129.883 E2.70665
G1 X113.925 Y129.836 E2.74935
G1 X112.717 Y129.693 E2.79993
G1 X111.452 Y129.451 E2.85347
G1 X110.439 Y129.145 E2.89747
G1 X109.329 Y128.747 E2.9465
G1 X108.591 Y128.418 E2.98009
G1 X107.645 Y127.918 E3.02457
G1 X106.793 Y127.398 E3.06607
G1 X105.771 Y126.651 E3.1187
G1 X105.323 Y126.293 E3.14254
G1 X104.57 Y125.591 E3.18534
G1 X104.165 Y125.174 E3.20951
G1 X103.792 Y124.765 E3.23253
G1 X102.949 Y123.735 E3.28786
G1 X102.193 Y122.54 E3.34665
G1 X101.807 Y121.862 E3.37909
G1 X101.376 Y120.948 E3.4211
G1 X101.141 Y120.372 E3.44696
G1 X100.81 Y119.496 E3.4859
G1 X100.541 Y118.454 E3.53064
G1 X100.415 Y117.883 E3.55495
G1 X100.29 Y117.167 E3.58517
G1 X100.185 Y116.38 E3.61818
G1 X100.144 Y115.545 E3.65293
G1 X100.125 Y114.464 E3.69788
G1 X100.125 Y104.984 E4.09202
G1 X100.139 Y104.242 E4.12287
G1 X100.187 Y103.735 E4.14404
G1 X100.377 Y102.97 E4.17682
G1 X100.669 Y102.327 E4.20618
G1 X101.036 Y101.773 E4.2338
G1 X101.486 Y101.281 E4.26152
M204 S2000
M205 X10 Y10
G0 F3600 X101.801 Y101.669
M204 S1000
M205 X8 Y8
G1 F1200 X102.257 Y101.299 E4.28594
G1 X102.695 Y101.039 E4.30711
G1 X103.314 Y100.792 E4.33482
G1 X103.811 Y100.68 E4.356
G1 X104.399 Y100.627 E4.38055
G1 X124.972 Y100.626 E5.23588
G1 X125.71 Y100.638 E5.26656
G1 X126.293 Y100.699 E5.29093
G1 X126.862 Y100.85 E5.31541
G1 X127.399 Y101.088 E5.33983
G1 X127.892 Y101.407 E5.36424
G1 X128.275 Y101.743 E5.38542
G1 X128.655 Y102.191 E5.40985
G1 X128.961 Y102.694 E5.43433
G1 X129.208 Y103.312 E5.46199
G1 X129.32 Y103.809 E5.48318
G1 X129.374 Y104.397 E5.50772
G1 X129.375 Y114.651 E5.93404
G1 X129.363 Y115.318 E5.96177
G1 X129.317 Y116.154 E5.99658
G1 X129.17 Y117.464 E6.05139
G1 X128.882 Y118.736 E6.10561
G1 X128.563 Y119.722 E6.14869
G1 X128.342 Y120.326 E6.17543
G1 X128.102 Y120.888 E6.20084
G1 X127.782 Y121.577 E6.23242
G1 X127.058 Y122.82 E6.29223
G1 X126.578 Y123.5 E6.32683
G1 X126.137 Y124.091 E6.35749
G1 X125.362 Y124.954 E6.40571
G1 X124.897 Y125.419 E6.43306
G1 X124.434 Y125.85 E6.45935
G1 X123.952 Y126.243 E6.48521
G1 X123.139 Y126.837 E6.52707
G1 X122.281 Y127.379 E6.56926
G1 X121.318 Y127.902 E6.61482
G1 X120.173 Y128.408 E6.66687
G1 X119.368 Y128.689 E6.70232
G1 X118.217 Y128.998 E6.75186
G1 X117.386 Y129.171 E6.78715
G1 X116.371 Y129.3 E6.82969
G1 X115.743 Y129.346 E6.85587
G1 X114.973 Y129.383 E6.88792
G1 X113.984 Y129.339 E6.92908
G1 X112.776 Y129.196 E6.97965
G1 X111.596 Y128.972 E7.02959
G1 X110.607 Y128.674 E7.07253
G1 X109.533 Y128.29 E7.11995
G1 X108.795 Y127.961 E7.15355
G1 X107.905 Y127.491 E7.19539
G1 X107.088 Y126.994 E7.23515
G1 X106.083 Y126.26 E7.28689
G1 X105.635 Y125.902 E7.31073
G1 X104.928 Y125.242 E7.35094
G1 X104.534 Y124.837 E7.37443
G1 X104.179 Y124.448 E7.39633
G1 X103.336 Y123.418 E7.45166
G1 X102.627 Y122.292 E7.50699
G1 X102.259 Y121.648 E7.53782
G1 X101.839 Y120.759 E7.5787
G1 X101.608 Y120.194 E7.60408
G1 X101.294 Y119.371 E7.6407
G1 X101.029 Y118.346 E7.68472
G1 X100.908 Y117.797 E7.70809
G1 X100.783 Y117.081 E7.73831
G1 X100.684 Y116.356 E7.76873
G1 X100.644 Y115.536 E7.80286
G1 X100.625 Y114.455 E7.84781
G1 X100.625 Y104.993 E8.24119
G1 X100.637 Y104.289 E8.27047
G1 X100.685 Y103.782 E8.29164
G1 X100.85 Y103.137 E8.31932
G1 X101.089 Y102.599 E8.34379
G1 X101.408 Y102.107 E8.36817
G1 X101.801 Y101.669 E8.39264
M204 S2000
M205 X10 Y10
G0 F3600 X102.12 Y102.054
M204 S1000
M205 X8 Y8
G1 F1200 X102.512 Y101.729 E8.41381
G1 X102.95 Y101.469 E8.43499
G1 X103.424 Y101.28 E8.4562
G1 X103.921 Y101.168 E8.47738
G1 X104.399 Y101.127 E8.49733
G1 X124.965 Y101.126 E9.35236
G1 X125.663 Y101.136 E9.38139
G1 X126.17 Y101.184 E9.40256
G1 X126.664 Y101.309 E9.42374
G1 X127.132 Y101.511 E9.44494
G1 X127.562 Y101.783 E9.46609
G1 X127.945 Y102.119 E9.48727
G1 X128.271 Y102.511 E9.50847
G1 X128.531 Y102.949 E9.52965
G1 X128.72 Y103.422 E9.55082
G1 X128.832 Y103.919 E9.572
G1 X128.874 Y104.397 E9.59195
G1 X128.875 Y114.643 E10.01793
G1 X128.864 Y115.291 E10.04488
G1 X128.82 Y116.099 E10.07852
G1 X128.682 Y117.354 E10.13101
G1 X128.406 Y118.582 E10.18334
G1 X128.093 Y119.55 E10.22563
G1 X127.872 Y120.154 E10.25237
G1 X127.648 Y120.679 E10.2761
G1 X127.35 Y121.326 E10.30572
G1 X126.649 Y122.532 E10.36371
G1 X126.177 Y123.202 E10.39779
G1 X125.765 Y123.757 E10.42652
G1 X125.008 Y124.6 E10.47363
G1 X124.543 Y125.065 E10.50097
G1 X124.118 Y125.462 E10.52515
G1 X123.636 Y125.855 E10.55101
G1 X122.871 Y126.415 E10.59042
G1 X122.042 Y126.94 E10.63122
G1 X121.116 Y127.445 E10.67507
G1 X120.007 Y127.936 E10.72549
G1 X119.238 Y128.206 E10.75938
G1 X118.087 Y128.515 E10.80892
G1 X117.323 Y128.675 E10.84138
G1 X116.334 Y128.801 E10.88283
G1 X115.719 Y128.847 E10.90847
G1 X115.133 Y128.875 E10.93286
G1 X115.119 Y128.576 E10.9453
G1 X114.875 Y128.577 E10.95545
G1 X114.864 Y128.877 E10.96793
G1 X114.043 Y128.842 E11.00209
G1 X112.835 Y128.699 E11.05267
G1 X111.74 Y128.493 E11.09899
G1 X110.775 Y128.203 E11.14088
G1 X109.737 Y127.833 E11.1867
G1 X108.999 Y127.504 E11.22029
G1 X108.139 Y127.049 E11.26074
G1 X107.348 Y126.567 E11.29925
G1 X106.395 Y125.869 E11.34836
G1 X105.947 Y125.511 E11.3722
G1 X105.286 Y124.893 E11.40983
G1 X104.903 Y124.5 E11.43264
G1 X104.565 Y124.13 E11.45348
G1 X103.759 Y123.151 E11.5062
G1 X103.061 Y122.043 E11.56064
G1 X102.711 Y121.434 E11.58984
G1 X102.302 Y120.569 E11.62962
G1 X102.075 Y120.016 E11.65448
G1 X101.761 Y119.193 E11.6911
G1 X101.517 Y118.239 E11.73204
G1 X101.401 Y117.711 E11.75451
G1 X101.276 Y116.995 E11.78473
G1 X101.179 Y116.288 E11.8144
G1 X101.144 Y115.527 E11.84607
G1 X101.125 Y114.446 E11.89102
G1 X101.125 Y105.001 E12.2837
G1 X101.135 Y104.336 E12.31135
G1 X101.183 Y103.829 E12.33252
G1 X101.309 Y103.335 E12.35372
G1 X101.511 Y102.867 E12.37491
G1 X101.784 Y102.437 E12.39609
G1 X102.12 Y102.054 E12.41727
M204 S2000
M205 X10 Y10
G1 F3600 E8.41727
;MESH:ballista-pJ.stl
G0 X104.899 Y103.711
G0 X115.518 Y109.835
M204 S1000
M205 X8 Y8
;TYPE:WALL-OUTER
G1 F3600 E12.41727
G1 F1200 X115.083 Y109.938 E12.43585
G1 X114.711 Y109.907 E12.45137
G1 X114.242 Y109.698 E12.47272
G1 X113.925 Y109.377 E12.49148
G1 X113.698 Y108.858 E12.51503
G1 X113.699 Y108.468 E12.53124
G1 X113.841 Y108.01 E12.55118
G1 X114.066 Y107.701 E12.56707
G1 X114.318 Y107.505 E12.58034
G1 X114.587 Y107.381 E12.59266
G1 X115.02 Y107.314 E12.61087
G1 X115.414 Y107.382 E12.6275
G1 X115.68 Y107.504 E12.63966
G1 X115.931 Y107.703 E12.65298
G1 X116.108 Y107.925 E12.66479
G1 X116.259 Y108.262 E12.68014
G1 X116.294 Y108.82 E12.70338
G1 X116.173 Y109.211 E12.7204
G1 X115.963 Y109.519 E12.7359
G1 X115.518 Y109.835 E12.75859
M204 S2000
M205 X10 Y10
G0 F3600 X115.275 Y109.892
G0 X115.471 Y110.732
G0 X116.784 Y124.346
G0 X116.98 Y125.186
M204 S1000
M205 X8 Y8
G1 F1200 X117.791 Y124.991 E12.79327
G1 X118.604 Y124.725 E12.82883
G1 X119.413 Y124.385 E12.86532
G1 X120.187 Y123.983 E12.90158
G1 X120.917 Y123.522 E12.93747
G1 X121.604 Y123.003 E12.97327
G1 X122.248 Y122.421 E13.00936
G1 X123.007 Y121.616 E13.05535
G1 X123.639 Y120.745 E13.10009
G1 X124.205 Y119.808 E13.14561
G1 X124.643 Y118.823 E13.19042
G1 X124.936 Y117.987 E13.22725
G1 X125.197 Y116.953 E13.27159
G1 X125.338 Y115.86 E13.31741
G1 X125.374 Y115.288 E13.34124
G1 X125.374 Y104.626 E13.78451
G1 X104.622 Y104.626 E14.64728
G1 X104.623 Y115.295 E15.09084
G1 X104.677 Y116.127 E15.12551
G1 X104.849 Y117.152 E15.16872
G1 X105.115 Y118.198 E15.21359
G1 X105.521 Y119.214 E15.25908
G1 X105.904 Y119.991 E15.29509
G1 X106.474 Y120.929 E15.34073
G1 X107.142 Y121.776 E15.38557
G1 X107.744 Y122.413 E15.42201
G1 X108.384 Y122.995 E15.45798
G1 X109.071 Y123.514 E15.49377
G1 X109.802 Y123.979 E15.52979
G1 X110.571 Y124.381 E15.56587
G1 X111.38 Y124.721 E15.60235
G1 X112.411 Y125.057 E15.64744
G1 X113.473 Y125.26 E15.69239
G1 X114.345 Y125.354 E15.72885
G1 X115.206 Y125.373 E15.76466
G1 X116.081 Y125.315 E15.80112
G1 X116.98 Y125.186 E15.83887
M204 S2000
M205 X10 Y10
G0 F3600 X117.223 Y125.128
G0 X116.886 Y124.694
M204 S1000
M205 X8 Y8
;TYPE:WALL-INNER
G1 F1200 X117.655 Y124.509 E15.87176
G1 X118.429 Y124.256 E15.90561
G1 X119.201 Y123.932 E15.94042
G1 X119.938 Y123.549 E15.97495
G1 X120.633 Y123.11 E16.00913
G1 X121.285 Y122.617 E16.04311
G1 X121.898 Y122.063 E16.07746
G1 X122.621 Y121.296 E16.12129
G1 X123.222 Y120.468 E16.16382
G1 X123.761 Y119.576 E16.20715
G1 X124.178 Y118.639 E16.24979
G1 X124.457 Y117.843 E16.28486
G1 X124.705 Y116.859 E16.32705
G1 X124.84 Y115.812 E16.37094
G1 X124.874 Y115.273 E16.39339
G1 X124.874 Y105.126 E16.81526
G1 X105.122 Y105.126 E17.63645
G1 X105.123 Y115.279 E18.05856
G1 X105.174 Y116.069 E18.09147
G1 X105.339 Y117.049 E18.13279
G1 X105.591 Y118.043 E18.17542
G1 X105.978 Y119.01 E18.21873
G1 X106.343 Y119.75 E18.25303
G1 X106.886 Y120.643 E18.29648
G1 X107.521 Y121.449 E18.33914
G1 X108.094 Y122.056 E18.37385
G1 X108.704 Y122.61 E18.40811
G1 X109.357 Y123.103 E18.44212
G1 X110.052 Y123.546 E18.47639
G1 X110.784 Y123.928 E18.51072
G1 X111.554 Y124.252 E18.54545
G1 X112.536 Y124.572 E18.58839
G1 X113.547 Y124.765 E18.63118
G1 X114.377 Y124.854 E18.66588
G1 X115.195 Y124.873 E18.6999
G1 X116.029 Y124.817 E18.73465
G1 X116.886 Y124.694 E18.77065
M204 S2000
M205 X10 Y10
G0 F3600 X116.805 Y124.341
G0 X115.232 Y110.788
G0 X115.15 Y110.434
M204 S1000
M205 X8 Y8
G1 F1200 X114.622 Y110.399 E18.79265
G1 X113.981 Y110.141 E18.82138
G1 X113.497 Y109.635 E18.85049
G1 X113.227 Y109.031 E18.87799
G1 X113.19 Y108.559 E18.89768
G1 X113.326 Y107.948 E18.9237
G1 X113.605 Y107.471 E18.94668
G1 X113.96 Y107.144 E18.96674
G1 X114.287 Y106.959 E18.98236
G1 X114.506 Y106.887 E18.99195
G1 X115.02 Y106.814 E19.01353
G1 X115.704 Y106.957 E19.04258
G1 X116.045 Y107.149 E19.05885
G1 X116.371 Y107.443 E19.0771
G1 X116.599 Y107.783 E19.09412
G1 X116.776 Y108.239 E19.11446
G1 X116.792 Y108.859 E19.14024
G1 X116.622 Y109.431 E19.16505
G1 X116.312 Y109.888 E19.18801
G1 X115.766 Y110.272 E19.21576
G1 X115.15 Y110.434 E19.24225
M204 S2000
M205 X10 Y10
G0 F3600 X115.88 Y110.736
M204 S1000
M205 X8 Y8
;TYPE:SKIN
G1 F1200 X115.279 Y110.895 E19.26809
G1 X114.574 Y110.872 E19.29742
G1 X114.274 Y110.787 E19.31038
G1 X113.646 Y110.472 E19.33959
G1 X113.118 Y109.954 E19.37034
G1 X112.763 Y109.163 E19.40639
G1 X112.711 Y108.548 E19.43205
G1 X112.88 Y107.783 E19.46462
G1 X113.034 Y107.457 E19.47961
G1 X113.249 Y107.156 E19.49499
G1 X113.645 Y106.788 E19.51746
G1 F1111.1 X114.384 Y106.34 E19.55627
G1 F980.4 X115.015 Y106.275 E19.58855
G1 X115.63 Y106.344 E19.62004
G1 F1111.1 X116.345 Y106.781 E19.65767
G1 F1200 X116.583 Y106.977 E19.67048
G1 X116.906 Y107.364 E19.69144
G1 X117.038 Y107.602 E19.70276
G1 X117.249 Y108.153 E19.72729
G1 X117.266 Y108.896 E19.75819
G1 X117.046 Y109.636 E19.79028
G1 X116.712 Y110.136 E19.81528
G1 X116.497 Y110.342 E19.82766
G1 X115.88 Y110.736 E19.8581
M204 S2000
M205 X10 Y10
G0 F3600 X116.796 Y124.226
M204 S1000
M205 X8 Y8
G1 F1200 X117.519 Y124.051 E19.88902
G1 X118.256 Y123.809 E19.92127
G1 X119.001 Y123.497 E19.95485
G1 X119.703 Y123.131 E19.98777
G1 X120.365 Y122.714 E20.0203
G1 X120.976 Y122.251 E20.05217
G1 X121.565 Y121.721 E20.08511
G1 X122.255 Y120.988 E20.12696
G1 X122.823 Y120.205 E20.16718
G1 X123.341 Y119.348 E20.20881
G1 X123.731 Y118.463 E20.24902
G1 X124 Y117.699 E20.28269
G1 X124.234 Y116.776 E20.32228
G1 X124.367 Y115.764 E20.36472
G1 X124.398 Y115.252 E20.38604
G1 X124.398 Y105.598 E20.78741
G1 X116.179 Y105.598 E21.12912
G1 F1030.9 X115.643 Y105.68 E21.15536
G1 F934.6 X115.016 Y105.658 E21.18885
G1 F937.5 X114.377 Y105.678 E21.22287
G1 F1034.5 X113.806 Y105.598 E21.25068
G1 F1200 X105.595 Y105.598 E21.59205
G1 X105.598 Y115.268 E21.99408
G1 X105.645 Y116.019 E22.02537
G1 X105.801 Y116.944 E22.06437
G1 X106.039 Y117.886 E22.10476
G1 X106.409 Y118.81 E22.14614
G1 X106.756 Y119.515 E22.17881
G1 X107.278 Y120.373 E22.22057
G1 X107.882 Y121.14 E22.26115
G1 X108.42 Y121.713 E22.29383
G1 X109.008 Y122.247 E22.32685
G1 X109.623 Y122.71 E22.35886
G1 X110.286 Y123.131 E22.39151
G1 X110.979 Y123.493 E22.42402
G1 X111.724 Y123.805 E22.4576
G1 X112.651 Y124.109 E22.49816
G1 X113.609 Y124.292 E22.53871
G1 X114.413 Y124.378 E22.57232
G1 X115.178 Y124.397 E22.60414
G1 X115.981 Y124.343 E22.6376
G1 X116.796 Y124.226 E22.67183
M204 S2000
M205 X10 Y10
G0 F3600 X109.795 Y122.523
M204 S1000
M205 X8 Y8
G1 F1200 X107.455 Y120.183 E22.80941
G1 X107.367 Y120.095
M204 S2000
M205 X10 Y10
G0 F3600 X106.605 Y118.626
M204 S1000
M205 X8 Y8
G1 F1200 X111.362 Y123.383 E23.08911
G1 X111.45 Y123.471
M204 S2000
M205 X10 Y10
G0 F3600 X112.474 Y123.788
M204 S1000
M205 X8 Y8
G1 F1200 X106.203 Y117.517 E23.45782
M204 S2000
M205 X10 Y10
G0 F3600 X105.997 Y116.604
M204 S1000
M205 X8 Y8
G1 F1200 X113.387 Y123.994 E23.89232
M204 S2000
M205 X10 Y10
G0 F3600 X114.203 Y124.103
M204 S1000
M205 X8 Y8
G1 F1200 X105.881 Y115.78 E24.38165
M204 S2000
M205 X10 Y10
G0 F3600 X105.848 Y115.04
M204 S1000
M205 X8 Y8
G1 F1200 X114.949 Y124.141 E24.91675
M204 S2000
M205 X10 Y10
G0 F3600 X115.63 Y124.116
M204 S1000
M205 X8 Y8
G1 F1200 X105.848 Y114.333 E25.49193
M204 S2000
M205 X10 Y10
G0 F3600 X105.848 Y113.626
M204 S1000
M205 X8 Y8
G1 F1200 X116.27 Y124.048 E26.1047
M204 S2000
M205 X10 Y10
G0 F3600 X116.877 Y123.948
M204 S1000
M205 X8 Y8
G1 F1200 X105.848 Y112.919 E26.75316
M204 S2000
M205 X10 Y10
G0 F3600 X105.847 Y112.211
