;FLAVOR:Marlin
;TIME:1099
;Filament used: 1.27876m
;Layer height: 0.2
;MINX:100.125
;MINY:98
;MINZ:0.2
;MAXX:129.875
;MAXY:132
;MAXZ:6.4
;TARGET_MACHINE.NAME:Anycubic Kobra
;Generated with Cura_SteamEngine 5.10.1
M140 S60
M105
M190 S60
M104 S200
M105
M109 S200
G21 ;metric values
G90 ;absolute positioning
M82 ;set extruder to absolute mode
M107 ;start with the fan off
M117 Homing X/Y ...
G28 X0 Y0 ;move X/Y to min endstops
M117 Homing Z ...
G28 Z0 ;move Z to min endstops
G1 Z15.0 F240 ;move the platform down 15mm
M117 Heating ...
M104 S[first_layer_temperature]
; set extruder temp
M109 S[first_layer_temperature]
; wait for extruder temp
M117 Start cleaning ...
M420 S1 ; Enable Bed Levelling Mesh
G92 E0 ;zero the extruded length
M413 S0 ; disable power loss recovery - may reduce blobbing and avoid unexpected recovery
; M500 ; store eeprom settings
M117 Intro line ...
G1 Z2.0 F3000 ; Move Z Axis up little to prevent scratching of Heat Bed
G1 X0.1 Y20 Z[first_layer_height] F5000.0 ; Move to start position
G1 X0.1 Y200.0 Z[first_layer_height] F1500.0 E15 ; Draw the first line
G1 X0.4 Y200.0 Z[first_layer_height] F5000.0 ; Move to side a little
G1 X0.4 Y20 Z0.3[first_layer_height] F1500.0 E30 ; Draw the second line
G92 E0 ; Reset Extruder
G1 X5 Y20 Z0.3 F240 ; Move over to prevent blob squish
G92 E0 ; Reset Extruder
M420 S1 ; Enable Bed Levelling Mesh
M117 Printing...
M82 ;absolute extrusion mode
G92 E0
G92 E0
G1 F3600 E-4
;LAYER_COUNT:32
;LAYER:0
M107
M204 S2000
M205 X10 Y10
G0 X101.486 Y99.155 Z0.2
M204 S1000
M205 X8 Y8
;TYPE:SKIRT
G1 F3600 E0
G1 F1200 X102.002 Y98.743 E0.02745
G1 X102.51 Y98.449 E0.05185
G1 X103.204 Y98.178 E0.08283
G1 X103.701 Y98.066 E0.10401
G1 X104.399 Y98.001 E0.13316
G1 X124.98 Y98 E0.98881
G1 X125.718 Y98.012 E1.0195
G1 X126.421 Y98.09 E1.04891
G1 X127.065 Y98.267 E1.07667
G1 X127.671 Y98.542 E1.10434
G1 X128.222 Y98.905 E1.13177
G1 X128.605 Y99.241 E1.15296
G1 X129.082 Y99.805 E1.18367
G1 X129.411 Y100.345 E1.20996
G1 X129.696 Y101.076 E1.24258
G1 X129.818 Y101.637 E1.26644
G1 X129.872 Y102.225 E1.29099
G1 X129.875 Y127.074 E2.32409
G1 X129.861 Y127.878 E2.35753
G1 X129.802 Y128.458 E2.38176
G1 X129.636 Y129.108 E2.40966
G1 X129.358 Y129.757 E2.43901
G1 X128.971 Y130.346 E2.46831
G1 X128.635 Y130.729 E2.48949
G1 X128.071 Y131.206 E2.5202
G1 X127.531 Y131.535 E2.54649
G1 X126.802 Y131.82 E2.57903
G1 X126.305 Y131.933 E2.60022
G1 X125.603 Y131.999 E2.62954
G1 X105.02 Y132 E3.48528
G1 X104.282 Y131.988 E3.51597
G1 X103.579 Y131.91 E3.54537
G1 X102.935 Y131.733 E3.57314
G1 X102.329 Y131.458 E3.60081
G1 X101.778 Y131.095 E3.62824
G1 X101.395 Y130.759 E3.64942
G1 X100.918 Y130.195 E3.68013
G1 X100.589 Y129.655 E3.70642
G1 X100.304 Y128.924 E3.73904
G1 X100.192 Y128.427 E3.76022
G1 X100.126 Y127.725 E3.78954
G1 X100.125 Y102.858 E4.82339
G1 X100.139 Y102.116 E4.85424
G1 X100.187 Y101.609 E4.87541
G1 X100.377 Y100.844 E4.90818
G1 X100.669 Y100.201 E4.93754
G1 X101.036 Y99.647 E4.96517
G1 X101.486 Y99.155 E4.99289
M204 S2000
M205 X10 Y10
G0 F3600 X101.801 Y99.543
M204 S1000
M205 X8 Y8
G1 F1200 X102.257 Y99.173 E5.01731
G1 X102.695 Y98.913 E5.03848
G1 X103.314 Y98.666 E5.06619
G1 X103.811 Y98.554 E5.08737
G1 X104.399 Y98.501 E5.11192
G1 X124.972 Y98.5 E5.96724
G1 X125.71 Y98.512 E5.99793
G1 X126.293 Y98.573 E6.0223
G1 X126.862 Y98.724 E6.04678
G1 X127.399 Y98.962 E6.0712
G1 X127.892 Y99.281 E6.09561
G1 X128.275 Y99.617 E6.11679
G1 X128.655 Y100.065 E6.14122
G1 X128.961 Y100.568 E6.16569
G1 X129.208 Y101.186 E6.19336
G1 X129.32 Y101.683 E6.21455
G1 X129.374 Y102.271 E6.23909
G1 X129.375 Y127.066 E7.26995
G1 X129.363 Y127.832 E7.3018
G1 X129.316 Y128.339 E7.32297
G1 X129.176 Y128.911 E7.34745
G1 X128.914 Y129.522 E7.37509
G1 X128.595 Y130.016 E7.39954
G1 X128.259 Y130.399 E7.42072
G1 X127.811 Y130.779 E7.44515
G1 X127.308 Y131.085 E7.46962
G1 X126.691 Y131.332 E7.49726
G1 X126.194 Y131.445 E7.51845
G1 X125.603 Y131.499 E7.54312
G1 X105.028 Y131.5 E8.39853
G1 X104.29 Y131.488 E8.42921
G1 X103.707 Y131.427 E8.45359
G1 X103.138 Y131.276 E8.47806
G1 X102.601 Y131.038 E8.50248
G1 X102.108 Y130.719 E8.52689
G1 X101.725 Y130.383 E8.54808
G1 X101.345 Y129.935 E8.5725
G1 X101.039 Y129.432 E8.59698
G1 X100.792 Y128.814 E8.62465
G1 X100.68 Y128.317 E8.64583
G1 X100.626 Y127.725 E8.67054
G1 X100.625 Y102.867 E9.70402
G1 X100.637 Y102.163 E9.73329
G1 X100.685 Y101.656 E9.75446
G1 X100.85 Y101.011 E9.78214
G1 X101.089 Y100.473 E9.80662
G1 X101.408 Y99.981 E9.831
G1 X101.801 Y99.543 E9.85546
M204 S2000
M205 X10 Y10
G0 F3600 X102.12 Y99.928
M204 S1000
M205 X8 Y8
G1 F1200 X102.512 Y99.603 E9.87663
G1 X102.95 Y99.343 E9.89781
G1 X103.424 Y99.154 E9.91903
G1 X103.921 Y99.042 E9.94021
G1 X104.399 Y99.001 E9.96015
G1 X124.965 Y99 E10.81519
G1 X125.663 Y99.01 E10.84421
G1 X126.17 Y99.058 E10.86538
G1 X126.664 Y99.183 E10.88657
G1 X127.132 Y99.385 E10.90776
G1 X127.562 Y99.657 E10.92891
G1 X127.945 Y99.993 E10.9501
G1 X128.271 Y100.385 E10.97129
G1 X128.531 Y100.823 E10.99247
G1 X128.72 Y101.296 E11.01365
G1 X128.832 Y101.793 E11.03483
G1 X128.874 Y102.271 E11.05478
G1 X128.875 Y127.059 E12.08534
G1 X128.865 Y127.786 E12.11557
G1 X128.818 Y128.293 E12.13674
G1 X128.692 Y128.787 E12.15793
G1 X128.491 Y129.255 E12.17911
G1 X128.219 Y129.686 E12.2003
G1 X127.883 Y130.069 E12.22148
G1 X127.491 Y130.395 E12.24268
G1 X127.053 Y130.655 E12.26386
G1 X126.58 Y130.844 E12.28503
G1 X126.083 Y130.957 E12.30622
G1 X125.603 Y130.999 E12.32625
G1 X105.035 Y131 E13.18137
G1 X104.337 Y130.99 E13.2104
G1 X103.83 Y130.942 E13.23157
G1 X103.336 Y130.817 E13.25275
G1 X102.868 Y130.615 E13.27395
G1 X102.438 Y130.343 E13.2951
G1 X102.055 Y130.007 E13.31628
G1 X101.729 Y129.615 E13.33748
G1 X101.469 Y129.177 E13.35866
G1 X101.28 Y128.704 E13.37983
G1 X101.168 Y128.207 E13.40101
G1 X101.126 Y127.725 E13.42113
G1 X101.125 Y102.875 E14.45427
G1 X101.135 Y102.21 E14.48192
G1 X101.183 Y101.703 E14.50309
G1 X101.309 Y101.209 E14.52429
G1 X101.511 Y100.741 E14.54548
G1 X101.784 Y100.311 E14.56666
G1 X102.12 Y99.928 E14.58784
M204 S2000
M205 X10 Y10
G1 F3600 E10.58784
;MESH:ballista-pB.stl
G0 X104.899 Y101.585
G0 X125.374 Y127.498
M204 S1000
M205 X8 Y8
;TYPE:WALL-OUTER
G1 F3600 E14.58784
G1 F1200 X125.374 Y102.498 E15.62722
G1 X104.622 Y102.498 E16.48999
G1 X104.622 Y127.498 E17.52937
G1 X125.374 Y127.498 E18.39214
M204 S2000
M205 X10 Y10
G0 F3600 X125.374 Y127.248
G0 X124.874 Y126.998
M204 S1000
M205 X8 Y8
;TYPE:WALL-INNER
G1 F1200 X124.874 Y102.998 E19.38994
G1 X105.122 Y102.998 E20.21113
G1 X105.122 Y126.998 E21.20894
G1 X124.874 Y126.998 E22.03013
M204 S2000
M205 X10 Y10
G0 F3600 X124.398 Y126.522
M204 S1000
M205 X8 Y8
;TYPE:SKIN
G1 F1200 X124.398 Y103.47 E22.98852
G1 X105.594 Y103.47 E23.7703
G1 X105.594 Y126.522 E24.72869
G1 X124.398 Y126.522 E25.51047
M204 S2000
M205 X10 Y10
G0 F3600 X106.473 Y126.272
M204 S1000
M205 X8 Y8
G1 F1200 X105.844 Y125.643 E25.54745
M204 S2000
M205 X10 Y10
G0 F3600 X105.844 Y124.936
M204 S1000
M205 X8 Y8
G1 F1200 X107.18 Y126.272 E25.626
M204 S2000
M205 X10 Y10
G0 F3600 X107.888 Y126.272
M204 S1000
M205 X8 Y8
G1 F1200 X105.844 Y124.229 E25.74615
M204 S2000
M205 X10 Y10
G0 F3600 X105.844 Y123.522
M204 S1000
M205 X8 Y8
G1 F1200 X108.595 Y126.272 E25.90787
M204 S2000
M205 X10 Y10
G0 F3600 X109.302 Y126.272
M204 S1000
M205 X8 Y8
G1 F1200 X105.844 Y122.815 E26.11116
M204 S2000
M205 X10 Y10
G0 F3600 X105.844 Y122.107
M204 S1000
M205 X8 Y8
G1 F1200 X110.009 Y126.272 E26.35605
M204 S2000
M205 X10 Y10
G0 F3600 X110.716 Y126.272
M204 S1000
M205 X8 Y8
G1 F1200 X105.844 Y121.4 E26.6425
M204 S2000
M205 X10 Y10
G0 F3600 X105.844 Y120.693
M204 S1000
M205 X8 Y8
G1 F1200 X111.423 Y126.272 E26.97053
M204 S2000
M205 X10 Y10
G0 F3600 X112.13 Y126.272
M204 S1000
M205 X8 Y8
G1 F1200 X105.844 Y119.986 E27.34012
M204 S2000
M205 X10 Y10
G0 F3600 X105.844 Y119.279
M204 S1000
M205 X8 Y8
G1 F1200 X112.837 Y126.272 E27.75128
M204 S2000
M205 X10 Y10
G0 F3600 X113.544 Y126.272
M204 S1000
M205 X8 Y8
G1 F1200 X105.844 Y118.572 E28.20401
M204 S2000
M205 X10 Y10
G0 F3600 X105.844 Y117.865
M204 S1000
M205 X8 Y8
G1 F1200 X114.251 Y126.272 E28.69831
M204 S2000
M205 X10 Y10
G0 F3600 X114.959 Y126.272
M204 S1000
M205 X8 Y8
G1 F1200 X105.844 Y117.158 E29.23421
M204 S2000
M205 X10 Y10
G0 F3600 X105.844 Y116.451
M204 S1000
M205 X8 Y8
G1 F1200 X115.666 Y126.272 E29.81167
M204 S2000
M205 X10 Y10
G0 F3600 X116.373 Y126.272
M204 S1000
M205 X8 Y8
G1 F1200 X105.844 Y115.743 E30.43074
M204 S2000
M205 X10 Y10
G0 F3600 X105.844 Y115.036
M204 S1000
M205 X8 Y8
G1 F1200 X117.08 Y126.272 E31.09137
M204 S2000
M205 X10 Y10
G0 F3600 X117.787 Y126.272
M204 S1000
M205 X8 Y8
G1 F1200 X105.844 Y114.329 E31.79357
M204 S2000
M205 X10 Y10
G0 F3600 X105.844 Y113.622
M204 S1000
M205 X8 Y8
G1 F1200 X118.494 Y126.272 E32.53735
M204 S2000
M205 X10 Y10
G0 F3600 X119.201 Y126.272
M204 S1000
M205 X8 Y8
G1 F1200 X105.844 Y112.915 E33.32269
M204 S2000
M205 X10 Y10
G0 F3600 X105.844 Y112.208
M204 S1000
M205 X8 Y8
G1 F1200 X119.908 Y126.272 E34.1496
M204 S2000
M205 X10 Y10
G0 F3600 X120.615 Y126.272
M204 S1000
M205 X8 Y8
G1 F1200 X105.844 Y111.501 E35.01807
M204 S2000
M205 X10 Y10
G0 F3600 X105.844 Y110.794
M204 S1000
M205 X8 Y8
G1 F1200 X121.323 Y126.272 E35.92815
M204 S2000
M205 X10 Y10
G0 F3600 X122.03 Y126.272
M204 S1000
M205 X8 Y8
G1 F1200 X105.844 Y110.087 E36.8798
M204 S2000
M205 X10 Y10
G0 F3600 X105.844 Y109.38
M204 S1000
M205 X8 Y8
G1 F1200 X122.737 Y126.272 E37.87301
M204 S2000
M205 X10 Y10
G0 F3600 X123.444 Y126.272
M204 S1000
M205 X8 Y8
G1 F1200 X105.844 Y108.672 E38.90782
M204 S2000
M205 X10 Y10
G0 F3600 X105.844 Y107.965
M204 S1000
M205 X8 Y8
G1 F1200 X124.148 Y126.269 E39.98403
M204 S2000
M205 X10 Y10
G0 F3600 X124.148 Y125.562
M204 S1000
M205 X8 Y8
G1 F1200 X105.844 Y107.258 E41.06023
M204 S2000
M205 X10 Y10
G0 F3600 X105.844 Y106.551
M204 S1000
M205 X8 Y8
G1 F1200 X124.148 Y124.855 E42.13644
M204 S2000
M205 X10 Y10
G0 F3600 X124.148 Y124.148
M204 S1000
M205 X8 Y8
G1 F1200 X105.844 Y105.844 E43.21264
M204 S2000
M205 X10 Y10
G0 F3600 X105.844 Y105.137
M204 S1000
M205 X8 Y8
G1 F1200 X124.148 Y123.441 E44.28885
M204 S2000
M205 X10 Y10
G0 F3600 X124.148 Y122.734
M204 S1000
M205 X8 Y8
G1 F1200 X105.844 Y104.43 E45.36505
M204 S2000
M205 X10 Y10
G0 F3600 X105.844 Y103.723
M204 S1000
M205 X8 Y8
G1 F1200 X124.148 Y122.027 E46.44126
M204 S2000
M205 X10 Y10
G0 F3600 X124.148 Y121.32
M204 S1000
M205 X8 Y8
G1 F1200 X106.548 Y103.72 E47.47607
M204 S2000
M205 X10 Y10
G0 F3600 X107.255 Y103.72
M204 S1000
M205 X8 Y8
G1 F1200 X124.148 Y120.613 E48.46931
M204 S2000
M205 X10 Y10
G0 F3600 X124.148 Y119.906
M204 S1000
M205 X8 Y8
G1 F1200 X107.962 Y103.72 E49.42099
M204 S2000
M205 X10 Y10
G0 F3600 X108.67 Y103.72
M204 S1000
M205 X8 Y8
G1 F1200 X124.148 Y119.198 E50.33104
M204 S2000
M205 X10 Y10
G0 F3600 X124.148 Y118.491
M204 S1000
M205 X8 Y8
G1 F1200 X109.377 Y103.72 E51.19951
M204 S2000
M205 X10 Y10
G0 F3600 X110.084 Y103.72
M204 S1000
M205 X8 Y8
G1 F1200 X124.148 Y117.784 E52.02642
M204 S2000
M205 X10 Y10
G0 F3600 X124.148 Y117.077
M204 S1000
M205 X8 Y8
G1 F1200 X110.791 Y103.72 E52.81176
M204 S2000
M205 X10 Y10
G0 F3600 X111.498 Y103.72
M204 S1000
M205 X8 Y8
G1 F1200 X124.148 Y116.37 E53.55554
M204 S2000
M205 X10 Y10
G0 F3600 X124.148 Y115.663
M204 S1000
M205 X8 Y8
G1 F1200 X112.205 Y103.72 E54.25774
M204 S2000
M205 X10 Y10
G0 F3600 X112.912 Y103.72
M204 S1000
M205 X8 Y8
G1 F1200 X124.148 Y114.956 E54.91837
M204 S2000
M205 X10 Y10
G0 F3600 X124.148 Y114.249
M204 S1000
M205 X8 Y8
G1 F1200 X113.619 Y103.72 E55.53744
M204 S2000
M205 X10 Y10
G0 F3600 X114.326 Y103.72
M204 S1000
M205 X8 Y8
G1 F1200 X124.148 Y113.542 E56.11493
M204 S2000
M205 X10 Y10
G0 F3600 X124.148 Y112.834
M204 S1000
M205 X8 Y8
G1 F1200 X115.034 Y103.72 E56.6508
M204 S2000
M205 X10 Y10
G0 F3600 X115.741 Y103.72
M204 S1000
M205 X8 Y8
G1 F1200 X124.148 Y112.127 E57.1451
M204 S2000
M205 X10 Y10
G0 F3600 X124.148 Y111.42
M204 S1000
M205 X8 Y8
G1 F1200 X116.448 Y103.72 E57.59783
M204 S2000
M205 X10 Y10
G0 F3600 X117.155 Y103.72
M204 S1000
M205 X8 Y8
G1 F1200 X124.148 Y110.713 E58.00899
M204 S2000
M205 X10 Y10
G0 F3600 X124.148 Y110.006
M204 S1000
M205 X8 Y8
G1 F1200 X117.862 Y103.72 E58.37859
M204 S2000
M205 X10 Y10
G0 F3600 X118.569 Y103.72
M204 S1000
M205 X8 Y8
G1 F1200 X124.148 Y109.299 E58.70661
M204 S2000
M205 X10 Y10
G0 F3600 X124.148 Y108.592
M204 S1000
M205 X8 Y8
G1 F1200 X119.276 Y103.72 E58.99306
M204 S2000
M205 X10 Y10
G0 F3600 X119.983 Y103.72
M204 S1000
M205 X8 Y8
G1 F1200 X124.148 Y107.885 E59.23795
M204 S2000
M205 X10 Y10
G0 F3600 X124.148 Y107.178
M204 S1000
M205 X8 Y8
G1 F1200 X120.69 Y103.72 E59.44127
M204 S2000
M205 X10 Y10
G0 F3600 X121.398 Y103.72
M204 S1000
M205 X8 Y8
G1 F1200 X124.148 Y106.47 E59.60296
M204 S2000
M205 X10 Y10
G0 F3600 X124.148 Y105.763
M204 S1000
M205 X8 Y8
G1 F1200 X122.105 Y103.72 E59.72308
M204 S2000
M205 X10 Y10
G0 F3600 X122.812 Y103.72
M204 S1000
M205 X8 Y8
G1 F1200 X124.148 Y105.056 E59.80163
M204 S2000
M205 X10 Y10
G0 F3600 X124.148 Y104.349
M204 S1000
M205 X8 Y8
G1 F1200 X123.519 Y103.72 E59.83861
M204 S2000
M205 X10 Y10
G0 F3600 X123.519 Y103.76
G1 F3600 E55.83861
;MESH:NONMESH
G0 F600 X123.519 Y103.76 Z0.4
G0 F3600 X104.899 Y102.774
G0 X104.899 Y101.585
G0 X102.12 Y99.928
;TIME_ELAPSED:80.372659
;LAYER:1
M106 S255
M204 S1000
M205 X8 Y8
;TYPE:SKIRT
G1 F3600 E59.83861
G1 F1200 X102.512 Y99.603 E59.85978
G1 X102.95 Y99.343 E59.88096
G1 X103.424 Y99.154 E59.90217
G1 X103.921 Y99.042 E59.92335
G1 X104.399 Y99.001 E59.9433
G1 X124.965 Y99 E60.79834
G1 X125.663 Y99.01 E60.82736
G1 X126.17 Y99.058 E60.84853
G1 X126.664 Y99.183 E60.86972
G1 X127.132 Y99.385 E60.89091
G1 X127.562 Y99.657 E60.91206
G1 X127.945 Y99.993 E60.93324
G1 X128.271 Y100.385 E60.95444
G1 X128.531 Y100.823 E60.97562
G1 X128.72 Y101.296 E60.9968
G1 X128.832 Y101.793 E61.01798
G1 X128.874 Y102.271 E61.03793
G1 X128.875 Y127.059 E62.06849
G1 X128.865 Y127.786 E62.09872
G1 X128.818 Y128.293 E62.11989
G1 X128.692 Y128.787 E62.14108
G1 X128.491 Y129.255 E62.16226
G1 X128.219 Y129.686 E62.18345
G1 X127.883 Y130.069 E62.20463
G1 X127.491 Y130.395 E62.22583
G1 X127.053 Y130.655 E62.247
G1 X126.58 Y130.844 E62.26818
G1 X126.083 Y130.957 E62.28937
G1 X125.603 Y130.999 E62.3094
G1 X105.035 Y131 E63.16452
G1 X104.337 Y130.99 E63.19354
G1 X103.83 Y130.942 E63.21472
G1 X103.336 Y130.817 E63.2359
G1 X102.868 Y130.615 E63.25709
G1 X102.438 Y130.343 E63.27825
G1 X102.055 Y130.007 E63.29943
G1 X101.729 Y129.615 E63.32063
G1 X101.469 Y129.177 E63.3418
G1 X101.28 Y128.704 E63.36298
G1 X101.168 Y128.207 E63.38416
G1 X101.126 Y127.725 E63.40428
G1 X101.125 Y102.875 E64.43742
G1 X101.135 Y102.21 E64.46507
G1 X101.183 Y101.703 E64.48624
G1 X101.309 Y101.209 E64.50744
G1 X101.511 Y100.741 E64.52863
G1 X101.784 Y100.311 E64.54981
G1 X102.12 Y99.928 E64.57099
M204 S3500
M205 X10 Y10
G1 F3600 E60.57099
;MESH:ballista-pB.stl
G0 F5400 X104.899 Y101.585
G0 X104.899 Y102.774
G0 X105.588 Y103.198
M204 S1000
M205 X8 Y8
;TYPE:FILL
G1 F3600 E64.57099
G1 F1800 X105.322 Y103.464 E64.58663
G1 X105.322 Y103.554
G1 X124.674 Y122.906 E65.72445
G1 X124.674 Y123.003
G1 X120.878 Y126.798 E65.94761
M204 S3500
M205 X10 Y10
G0 F5400 X121.495 Y126.798
M204 S1000
M205 X8 Y8
G1 F1800 X105.322 Y110.625 E66.89852
G1 X105.322 Y110.535
G1 X112.659 Y103.198 E67.32991
M204 S3500
M205 X10 Y10
G0 F5400 X112.037 Y103.198
M204 S1000
M205 X8 Y8
G1 F1800 X124.674 Y115.835 E68.07292
G1 X124.674 Y115.932
G1 X113.807 Y126.798 E68.71183
M204 S3500
M205 X10 Y10
G0 F5400 X114.424 Y126.798
M204 S1000
M205 X8 Y8
G1 F1800 X105.322 Y117.697 E69.24696
G1 X105.322 Y117.606
G1 X119.73 Y103.198 E70.0941
M204 S3500
M205 X10 Y10
G0 F5400 X119.108 Y103.198
M204 S1000
M205 X8 Y8
G1 F1800 X124.674 Y108.764 E70.42136
G1 X124.674 Y108.861
G1 X106.736 Y126.798 E71.47601
M204 S3500
M205 X10 Y10
G0 F5400 X107.353 Y126.798
M204 S1000
M205 X8 Y8
G1 F1800 X105.322 Y124.768 E71.5954
G1 X105.322 Y124.677
G1 X124.674 Y105.325 E72.73322
G1 X124.674 Y105.229
G1 X122.643 Y103.198 E72.85264
M204 S3500
M205 X10 Y10
G0 F5400 X123.266 Y103.198
M204 S1000
M205 X8 Y8
G1 F1800 X105.322 Y121.142 E73.90767
