;FLAVOR:Marlin
;TIME:699
;Filament used: 0.703661m
;Layer height: 0.2
;MINX:85.783
;MINY:108.062
;MINZ:0.2
;MAXX:144.215
;MAXY:121.938
;MAXZ:6.4
;TARGET_MACHINE.NAME:Anycubic Kobra
;Generated with Cura_SteamEngine 5.10.1
M140 S60
M105
M190 S60
M104 S200
M105
M109 S200
G21 ;metric values
G90 ;absolute positioning
M82 ;set extruder to absolute mode
M107 ;start with the fan off
M117 Homing X/Y ...
G28 X0 Y0 ;move X/Y to min endstops
M117 Homing Z ...
G28 Z0 ;move Z to min endstops
G1 Z15.0 F240 ;move the platform down 15mm
M117 Heating ...
M104 S[first_layer_temperature]
; set extruder temp
M109 S[first_layer_temperature]
; wait for extruder temp
M117 Start cleaning ...
M420 S1 ; Enable Bed Levelling Mesh
G92 E0 ;zero the extruded length
M413 S0 ; disable power loss recovery - may reduce blobbing and avoid unexpected recovery
; M500 ; store eeprom settings
M117 Intro line ...
G1 Z2.0 F3000 ; Move Z Axis up little to prevent scratching of Heat Bed
G1 X0.1 Y20 Z[first_layer_height] F5000.0 ; Move to start position
G1 X0.1 Y200.0 Z[first_layer_height] F1500.0 E15 ; Draw the first line
G1 X0.4 Y200.0 Z[first_layer_height] F5000.0 ; Move to side a little
G1 X0.4 Y20 Z0.3[first_layer_height] F1500.0 E30 ; Draw the second line
G92 E0 ; Reset Extruder
G1 X5 Y20 Z0.3 F240 ; Move over to prevent blob squish
G92 E0 ; Reset Extruder
M420 S1 ; Enable Bed Levelling Mesh
M117 Printing...
M82 ;absolute extrusion mode
G92 E0
G92 E0
G1 F3600 E-4
;LAYER_COUNT:32
;LAYER:0
M107
M204 S2000
M205 X10 Y10
G0 X87.335 Y108.791 Z0.2
M204 S1000
M205 X8 Y8
;TYPE:SKIRT
G1 F3600 E0
G1 F1200 X87.838 Y108.485 E0.02448
G1 X88.455 Y108.238 E0.05211
G1 X89.122 Y108.086 E0.08055
G1 X90.421 Y108.062 E0.13457
G1 X139.848 Y108.062 E2.1895
G1 X140.562 Y108.074 E2.21919
G1 X141.07 Y108.122 E2.2404
G1 X141.714 Y108.287 E2.26804
G1 X142.251 Y108.525 E2.29246
G1 X142.746 Y108.845 E2.31697
G1 X143.128 Y109.182 E2.33815
G1 X143.533 Y109.66 E2.3642
G1 X143.848 Y110.202 E2.39026
G1 X144.059 Y110.749 E2.41463
G1 X144.183 Y111.325 E2.43913
G1 X144.215 Y111.911 E2.46353
G1 X144.155 Y112.496 E2.48798
G1 X144.004 Y113.065 E2.51245
G1 X143.766 Y113.601 E2.53684
G1 X143.402 Y114.181 E2.5653
G1 X142.501 Y115.116 E2.61929
G1 X137.275 Y120.341 E2.92653
G1 X136.45 Y121.137 E2.97419
G1 X135.797 Y121.532 E3.00592
G1 X135.253 Y121.752 E3.03032
G1 X134.58 Y121.917 E3.05912
G1 X133.619 Y121.938 E3.09909
G1 X96.528 Y121.938 E4.64115
G1 X95.454 Y121.922 E4.68581
G1 X94.685 Y121.731 E4.71875
G1 X94.144 Y121.5 E4.74321
G1 X93.536 Y121.127 E4.77286
G1 X92.83 Y120.446 E4.81365
G1 X87.314 Y114.928 E5.13802
G1 X86.816 Y114.413 E5.16781
G1 X86.444 Y113.956 E5.19231
G1 X86.149 Y113.447 E5.21677
G1 X85.938 Y112.899 E5.24118
G1 X85.815 Y112.324 E5.26563
G1 X85.783 Y111.738 E5.29003
G1 X85.83 Y111.231 E5.31119
G1 X85.97 Y110.659 E5.33568
G1 X86.232 Y110.048 E5.36332
G1 X86.551 Y109.554 E5.38776
G1 X86.887 Y109.171 E5.40895
G1 X87.335 Y108.791 E5.43337
M204 S2000
M205 X10 Y10
G0 F3600 X87.655 Y109.175
M204 S1000
M205 X8 Y8
G1 F1200 X88.093 Y108.915 E5.45455
G1 X88.566 Y108.726 E5.47572
G1 X89.185 Y108.585 E5.50212
G1 X90.43 Y108.562 E5.55389
G1 X139.841 Y108.562 E7.60816
G1 X140.515 Y108.572 E7.63618
G1 X141.023 Y108.62 E7.6574
G1 X141.516 Y108.746 E7.67855
G1 X141.984 Y108.948 E7.69975
G1 X142.415 Y109.22 E7.72093
G1 X142.797 Y109.557 E7.74211
G1 X143.123 Y109.949 E7.76331
G1 X143.383 Y110.387 E7.78449
G1 X143.571 Y110.86 E7.80565
G1 X143.684 Y111.357 E7.82684
G1 X143.717 Y111.865 E7.848
G1 X143.67 Y112.373 E7.86921
G1 X143.545 Y112.867 E7.8904
G1 X143.343 Y113.335 E7.91159
G1 X143.007 Y113.87 E7.93786
G1 X142.147 Y114.762 E7.98937
G1 X136.928 Y119.981 E8.29623
G1 X136.144 Y120.738 E8.34154
G1 X135.605 Y121.07 E8.36786
G1 X135.134 Y121.266 E8.38907
G1 X134.513 Y121.418 E8.41565
G1 X133.608 Y121.438 E8.45328
G1 X96.535 Y121.438 E9.9946
G1 X95.518 Y121.423 E10.03688
G1 X94.876 Y121.269 E10.06433
G1 X94.405 Y121.074 E10.08553
G1 X93.845 Y120.731 E10.11283
G1 X93.184 Y120.093 E10.15102
G1 X87.673 Y114.58 E10.47511
G1 X87.2 Y114.093 E10.50333
G1 X86.874 Y113.701 E10.52453
G1 X86.614 Y113.263 E10.54571
G1 X86.426 Y112.789 E10.56691
G1 X86.314 Y112.292 E10.58809
G1 X86.281 Y111.784 E10.60925
G1 X86.328 Y111.277 E10.63042
G1 X86.454 Y110.783 E10.65162
G1 X86.655 Y110.315 E10.67279
G1 X86.927 Y109.884 E10.69398
G1 X87.263 Y109.501 E10.71516
G1 X87.655 Y109.175 E10.73636
M204 S2000
M205 X10 Y10
G1 F3600 E6.73636
;MESH:ballista-pW.stl
G0 X90.75 Y111.147
G0 X134.02 Y117.938
M204 S1000
M205 X8 Y8
;TYPE:WALL-OUTER
G1 F3600 E10.73636
G1 F1200 X139.894 Y112.062 E11.08179
G1 X90.105 Y112.062 E13.15177
G1 X95.976 Y117.938 E13.49711
G1 X134.02 Y117.938 E15.0788
M204 S2000
M205 X10 Y10
G0 F3600 X134.196 Y117.762
G0 X133.813 Y117.438
M204 S1000
M205 X8 Y8
;TYPE:WALL-INNER
G1 F1200 X138.687 Y112.562 E15.36543
G1 X91.311 Y112.562 E17.33509
G1 X96.183 Y117.438 E17.62167
G1 X133.813 Y117.438 E19.18614
M204 S2000
M205 X10 Y10
G0 F3600 X133.616 Y116.962
M204 S1000
M205 X8 Y8
;TYPE:SKIN
G1 F1200 X137.543 Y113.033 E19.41709
G1 X92.456 Y113.034 E21.29159
G1 X96.38 Y116.962 E21.52243
G1 X133.616 Y116.962 E23.07052
M204 S2000
M205 X10 Y10
G0 F3600 X136.779 Y113.445
M204 S1000
M205 X8 Y8
G1 F1200 X136.619 Y113.284 E23.07996
M204 S2000
M205 X10 Y10
G0 F3600 X136.426 Y113.798
M204 S1000
M205 X8 Y8
G1 F1200 X135.912 Y113.284 E23.11018
M204 S2000
M205 X10 Y10
G0 F3600 X135.204 Y113.284
M204 S1000
M205 X8 Y8
G1 F1200 X136.072 Y114.152 E23.16121
M204 S2000
M205 X10 Y10
G0 F3600 X135.719 Y114.505
M204 S1000
M205 X8 Y8
G1 F1200 X134.497 Y113.284 E23.23303
M204 S2000
M205 X10 Y10
G0 F3600 X133.79 Y113.284
M204 S1000
M205 X8 Y8
G1 F1200 X135.365 Y114.859 E23.32564
M204 S2000
M205 X10 Y10
G0 F3600 X135.011 Y115.212
M204 S1000
M205 X8 Y8
G1 F1200 X133.083 Y113.284 E23.43899
M204 S2000
M205 X10 Y10
G0 F3600 X132.376 Y113.284
M204 S1000
M205 X8 Y8
G1 F1200 X134.658 Y115.566 E23.57317
M204 S2000
M205 X10 Y10
G0 F3600 X134.304 Y115.92
M204 S1000
M205 X8 Y8
G1 F1200 X131.669 Y113.284 E23.72812
M204 S2000
M205 X10 Y10
G0 F3600 X130.962 Y113.284
M204 S1000
M205 X8 Y8
G1 F1200 X133.951 Y116.273 E23.90387
M204 S2000
M205 X10 Y10
G0 F3600 X133.597 Y116.627
M204 S1000
M205 X8 Y8
G1 F1200 X130.255 Y113.284 E24.10039
M204 S2000
M205 X10 Y10
G0 F3600 X129.548 Y113.284
M204 S1000
M205 X8 Y8
G1 F1200 X132.975 Y116.712 E24.30192
M204 S2000
M205 X10 Y10
G0 F3600 X132.268 Y116.712
M204 S1000
M205 X8 Y8
G1 F1200 X128.841 Y113.284 E24.50344
M204 S2000
M205 X10 Y10
G0 F3600 X128.133 Y113.284
M204 S1000
M205 X8 Y8
G1 F1200 X131.561 Y116.712 E24.70499
M204 S2000
M205 X10 Y10
G0 F3600 X130.854 Y116.712
M204 S1000
M205 X8 Y8
G1 F1200 X127.426 Y113.284 E24.90655
M204 S2000
M205 X10 Y10
G0 F3600 X126.719 Y113.284
M204 S1000
M205 X8 Y8
G1 F1200 X130.147 Y116.712 E25.1081
M204 S2000
M205 X10 Y10
G0 F3600 X129.439 Y116.712
M204 S1000
M205 X8 Y8
G1 F1200 X126.012 Y113.284 E25.30962
M204 S2000
M205 X10 Y10
G0 F3600 X125.305 Y113.284
M204 S1000
M205 X8 Y8
G1 F1200 X128.732 Y116.712 E25.51115
M204 S2000
M205 X10 Y10
G0 F3600 X128.025 Y116.712
M204 S1000
M205 X8 Y8
G1 F1200 X124.598 Y113.284 E25.71267
M204 S2000
M205 X10 Y10
G0 F3600 X123.891 Y113.284
M204 S1000
M205 X8 Y8
G1 F1200 X127.318 Y116.712 E25.9142
M204 S2000
M205 X10 Y10
G0 F3600 X126.611 Y116.712
M204 S1000
M205 X8 Y8
G1 F1200 X123.184 Y113.284 E26.11572
M204 S2000
M205 X10 Y10
G0 F3600 X122.477 Y113.284
M204 S1000
M205 X8 Y8
G1 F1200 X125.904 Y116.712 E26.31724
M204 S2000
M205 X10 Y10
G0 F3600 X125.197 Y116.712
M204 S1000
M205 X8 Y8
G1 F1200 X121.769 Y113.284 E26.5188
M204 S2000
M205 X10 Y10
G0 F3600 X121.062 Y113.284
M204 S1000
M205 X8 Y8
G1 F1200 X124.49 Y116.712 E26.72035
M204 S2000
M205 X10 Y10
G0 F3600 X123.783 Y116.712
M204 S1000
M205 X8 Y8
G1 F1200 X120.355 Y113.284 E26.9219
M204 S2000
M205 X10 Y10
G0 F3600 X119.648 Y113.284
M204 S1000
M205 X8 Y8
G1 F1200 X123.075 Y116.712 E27.12343
M204 S2000
M205 X10 Y10
G0 F3600 X122.368 Y116.712
M204 S1000
M205 X8 Y8
G1 F1200 X118.941 Y113.284 E27.32495
M204 S2000
M205 X10 Y10
G0 F3600 X118.234 Y113.284
M204 S1000
M205 X8 Y8
G1 F1200 X121.661 Y116.712 E27.52647
M204 S2000
M205 X10 Y10
G0 F3600 X120.954 Y116.712
M204 S1000
M205 X8 Y8
G1 F1200 X117.527 Y113.284 E27.728
M204 S2000
M205 X10 Y10
G0 F3600 X116.82 Y113.284
M204 S1000
M205 X8 Y8
G1 F1200 X120.247 Y116.712 E27.92952
M204 S2000
M205 X10 Y10
G0 F3600 X119.54 Y116.712
M204 S1000
M205 X8 Y8
G1 F1200 X116.113 Y113.284 E28.13105
M204 S2000
M205 X10 Y10
G0 F3600 X115.405 Y113.284
M204 S1000
M205 X8 Y8
G1 F1200 X118.833 Y116.712 E28.3326
M204 S2000
M205 X10 Y10
G0 F3600 X118.126 Y116.712
M204 S1000
M205 X8 Y8
G1 F1200 X114.698 Y113.284 E28.53415
M204 S2000
M205 X10 Y10
G0 F3600 X113.991 Y113.284
M204 S1000
M205 X8 Y8
G1 F1200 X117.419 Y116.712 E28.73571
M204 S2000
M205 X10 Y10
G0 F3600 X116.712 Y116.712
M204 S1000
M205 X8 Y8
G1 F1200 X113.284 Y113.284 E28.93726
M204 S2000
M205 X10 Y10
G0 F3600 X112.577 Y113.284
M204 S1000
M205 X8 Y8
G1 F1200 X116.004 Y116.712 E29.13878
M204 S2000
M205 X10 Y10
G0 F3600 X115.297 Y116.712
M204 S1000
M205 X8 Y8
G1 F1200 X111.87 Y113.284 E29.34031
M204 S2000
M205 X10 Y10
G0 F3600 X111.163 Y113.284
M204 S1000
M205 X8 Y8
G1 F1200 X114.59 Y116.712 E29.54183
M204 S2000
M205 X10 Y10
G0 F3600 X113.883 Y116.712
M204 S1000
M205 X8 Y8
G1 F1200 X110.456 Y113.284 E29.74335
M204 S2000
M205 X10 Y10
G0 F3600 X109.749 Y113.284
M204 S1000
M205 X8 Y8
G1 F1200 X113.176 Y116.712 E29.94488
M204 S2000
M205 X10 Y10
G0 F3600 X112.469 Y116.712
M204 S1000
M205 X8 Y8
G1 F1200 X109.042 Y113.284 E30.1464
M204 S2000
M205 X10 Y10
G0 F3600 X108.334 Y113.284
M204 S1000
M205 X8 Y8
G1 F1200 X111.762 Y116.712 E30.34796
M204 S2000
M205 X10 Y10
G0 F3600 X111.055 Y116.712
M204 S1000
M205 X8 Y8
G1 F1200 X107.627 Y113.284 E30.54951
M204 S2000
M205 X10 Y10
G0 F3600 X106.92 Y113.284
M204 S1000
M205 X8 Y8
G1 F1200 X110.348 Y116.712 E30.75106
M204 S2000
M205 X10 Y10
G0 F3600 X109.64 Y116.712
M204 S1000
M205 X8 Y8
G1 F1200 X106.213 Y113.284 E30.95259
M204 S2000
M205 X10 Y10
G0 F3600 X105.506 Y113.284
M204 S1000
M205 X8 Y8
G1 F1200 X108.933 Y116.712 E31.15411
M204 S2000
M205 X10 Y10
G0 F3600 X108.226 Y116.712
M204 S1000
M205 X8 Y8
G1 F1200 X104.799 Y113.284 E31.35563
M204 S2000
M205 X10 Y10
G0 F3600 X104.092 Y113.284
M204 S1000
M205 X8 Y8
G1 F1200 X107.519 Y116.712 E31.55716
M204 S2000
M205 X10 Y10
G0 F3600 X106.812 Y116.712
M204 S1000
M205 X8 Y8
G1 F1200 X103.385 Y113.284 E31.75868
M204 S2000
M205 X10 Y10
G0 F3600 X102.678 Y113.284
M204 S1000
M205 X8 Y8
G1 F1200 X106.105 Y116.712 E31.96021
M204 S2000
M205 X10 Y10
G0 F3600 X105.398 Y116.712
M204 S1000
M205 X8 Y8
G1 F1200 X101.97 Y113.284 E32.16176
M204 S2000
M205 X10 Y10
G0 F3600 X101.263 Y113.284
M204 S1000
M205 X8 Y8
G1 F1200 X104.691 Y116.712 E32.36331
M204 S2000
M205 X10 Y10
G0 F3600 X103.984 Y116.712
M204 S1000
M205 X8 Y8
G1 F1200 X100.556 Y113.284 E32.56486
M204 S2000
M205 X10 Y10
G0 F3600 X99.849 Y113.284
M204 S1000
M205 X8 Y8
G1 F1200 X103.276 Y116.712 E32.76639
M204 S2000
M205 X10 Y10
G0 F3600 X102.569 Y116.712
M204 S1000
M205 X8 Y8
G1 F1200 X99.142 Y113.284 E32.96791
M204 S2000
M205 X10 Y10
G0 F3600 X98.435 Y113.284
M204 S1000
M205 X8 Y8
G1 F1200 X101.862 Y116.712 E33.16944
M204 S2000
M205 X10 Y10
G0 F3600 X101.155 Y116.712
M204 S1000
M205 X8 Y8
G1 F1200 X97.728 Y113.284 E33.37096
M204 S2000
M205 X10 Y10
G0 F3600 X97.021 Y113.284
M204 S1000
M205 X8 Y8
G1 F1200 X100.448 Y116.712 E33.57248
M204 S2000
M205 X10 Y10
G0 F3600 X99.741 Y116.712
M204 S1000
M205 X8 Y8
G1 F1200 X96.314 Y113.284 E33.77401
M204 S2000
M205 X10 Y10
G0 F3600 X95.606 Y113.284
M204 S1000
M205 X8 Y8
G1 F1200 X99.034 Y116.712 E33.97556
M204 S2000
M205 X10 Y10
G0 F3600 X98.327 Y116.712
M204 S1000
M205 X8 Y8
G1 F1200 X94.899 Y113.284 E34.17711
M204 S2000
M205 X10 Y10
G0 F3600 X94.192 Y113.284
M204 S1000
M205 X8 Y8
G1 F1200 X97.62 Y116.712 E34.37867
M204 S2000
M205 X10 Y10
G0 F3600 X96.913 Y116.712
M204 S1000
M205 X8 Y8
G1 F1200 X93.485 Y113.284 E34.58022
G1 X93.397 Y113.196
M204 S2000
M205 X10 Y10
G0 F3600 X93.397 Y113.322
G1 F3600 E30.58022
;MESH:NONMESH
G0 F600 X93.397 Y113.322 Z0.4
G0 F3600 X90.75 Y112.329
G0 X90.75 Y111.147
G0 X87.655 Y109.175
;TIME_ELAPSED:49.809319
;LAYER:1
M106 S255
M204 S1000
M205 X8 Y8
;TYPE:SKIRT
G1 F3600 E34.58022
G1 F1200 X88.093 Y108.915 E34.6014
G1 X88.566 Y108.726 E34.62257
G1 X89.185 Y108.585 E34.64897
G1 X90.43 Y108.562 E34.70074
G1 X139.841 Y108.562 E36.75501
G1 X140.515 Y108.572 E36.78303
G1 X141.023 Y108.62 E36.80425
G1 X141.516 Y108.746 E36.8254
G1 X141.984 Y108.948 E36.8466
G1 X142.415 Y109.22 E36.86778
G1 X142.797 Y109.557 E36.88896
G1 X143.123 Y109.949 E36.91016
G1 X143.383 Y110.387 E36.93134
G1 X143.571 Y110.86 E36.9525
G1 X143.684 Y111.357 E36.97369
G1 X143.717 Y111.865 E36.99485
G1 X143.67 Y112.373 E37.01606
G1 X143.545 Y112.867 E37.03725
G1 X143.343 Y113.335 E37.05844
G1 X143.007 Y113.87 E37.08471
G1 X142.147 Y114.762 E37.13622
G1 X136.928 Y119.981 E37.44308
G1 X136.144 Y120.738 E37.48839
G1 X135.605 Y121.07 E37.51471
G1 X135.134 Y121.266 E37.53592
G1 X134.513 Y121.418 E37.5625
G1 X133.608 Y121.438 E37.60013
G1 X96.535 Y121.438 E39.14145
G1 X95.518 Y121.423 E39.18373
G1 X94.876 Y121.269 E39.21118
G1 X94.405 Y121.074 E39.23238
G1 X93.845 Y120.731 E39.25968
G1 X93.184 Y120.093 E39.29787
G1 X87.673 Y114.58 E39.62196
G1 X87.2 Y114.093 E39.65018
G1 X86.874 Y113.701 E39.67138
G1 X86.614 Y113.263 E39.69256
G1 X86.426 Y112.789 E39.71376
G1 X86.314 Y112.292 E39.73494
G1 X86.281 Y111.784 E39.7561
G1 X86.328 Y111.277 E39.77727
G1 X86.454 Y110.783 E39.79847
G1 X86.655 Y110.315 E39.81964
G1 X86.927 Y109.884 E39.84083
G1 X87.263 Y109.501 E39.86201
G1 X87.655 Y109.175 E39.88321
M204 S3500
M205 X10 Y10
G1 F3600 E35.88321
;MESH:ballista-pW.stl
G0 F5400 X90.75 Y111.147
G0 X90.75 Y112.329
G0 X92.254 Y112.999
G0 X92.141 Y113.11
M204 S1000
M205 X8 Y8
;TYPE:FILL
G1 F3600 E39.88321
G1 F1800 X92.489 Y112.762 E39.90367
M204 S3500
M205 X10 Y10
G0 F5400 X93.316 Y112.762
M204 S1000
M205 X8 Y8
G1 F1800 X97.792 Y117.238 E40.16684
M204 S3500
M205 X10 Y10
G0 F5400 X98.619 Y117.238
M204 S1000
M205 X8 Y8
G1 F1800 X103.095 Y112.762 E40.43001
M204 S3500
M205 X10 Y10
G0 F5400 X103.923 Y112.762
M204 S1000
M205 X8 Y8
G1 F1800 X108.399 Y117.238 E40.69319
M204 S3500
M205 X10 Y10
G0 F5400 X109.226 Y117.238
M204 S1000
M205 X8 Y8
G1 F1800 X113.702 Y112.762 E40.95636
M204 S3500
M205 X10 Y10
G0 F5400 X114.529 Y112.762
M204 S1000
M205 X8 Y8
G1 F1800 X119.005 Y117.238 E41.21953
M204 S3500
M205 X10 Y10
G0 F5400 X119.833 Y117.238
M204 S1000
M205 X8 Y8
G1 F1800 X124.309 Y112.762 E41.4827
M204 S3500
M205 X10 Y10
G0 F5400 X125.136 Y112.762
M204 S1000
M205 X8 Y8
G1 F1800 X129.612 Y117.238 E41.74587
M204 S3500
M205 X10 Y10
G0 F5400 X130.439 Y117.238
M204 S1000
M205 X8 Y8
G1 F1800 X134.915 Y112.762 E42.00904
M204 S3500
M205 X10 Y10
G0 F5400 X135.743 Y112.762
M204 S1000
M205 X8 Y8
G1 F1800 X136.974 Y113.993 E42.08142
G1 X137.062 Y114.081
M204 S3500
M205 X10 Y10
G0 F5400 X136.863 Y113.881
G0 X137.747 Y112.998
G0 X137.858 Y113.11
M204 S1000
M205 X8 Y8
G1 F1800 X137.51 Y112.762 E42.10188
M204 S3500
M205 X10 Y10
G0 F5400 X136.683 Y112.762
M204 S1000
M205 X8 Y8
G1 F1800 X132.207 Y117.238 E42.36505
M204 S3500
M205 X10 Y10
G0 F5400 X131.38 Y117.238
M204 S1000
M205 X8 Y8
G1 F1800 X126.904 Y112.762 E42.62823
M204 S3500
M205 X10 Y10
G0 F5400 X126.076 Y112.762
M204 S1000
M205 X8 Y8
G1 F1800 X121.6 Y117.238 E42.8914
M204 S3500
M205 X10 Y10
G0 F5400 X120.773 Y117.238
M204 S1000
M205 X8 Y8
G1 F1800 X116.297 Y112.762 E43.15457
M204 S3500
M205 X10 Y10
G0 F5400 X115.47 Y112.762
M204 S1000
M205 X8 Y8
G1 F1800 X110.994 Y117.238 E43.41774
M204 S3500
M205 X10 Y10
G0 F5400 X110.167 Y117.238
M204 S1000
M205 X8 Y8
G1 F1800 X105.691 Y112.762 E43.68091
M204 S3500
M205 X10 Y10
G0 F5400 X104.863 Y112.762
M204 S1000
M205 X8 Y8
G1 F1800 X100.387 Y117.238 E43.94408
M204 S3500
M205 X10 Y10
G0 F5400 X99.56 Y117.238
M204 S1000
M205 X8 Y8
G1 F1800 X95.084 Y112.762 E44.20726
M204 S3500
M205 X10 Y10
G0 F5400 X94.257 Y112.762
M204 S1000
M205 X8 Y8
G1 F1800 X93.025 Y113.993 E44.27966
G1 X92.937 Y114.081
M204 S3500
M205 X10 Y10
