;FLAVOR:Marlin
;TIME:481
;Filament used: 0.430335m
;Layer height: 0.2
;MINX:103.875
;MINY:101.75
;MINZ:0.2
;MAXX:126.125
;MAXY:128.25
;MAXZ:6.4
;TARGET_MACHINE.NAME:Anycubic Kobra
;Generated with Cura_SteamEngine 5.10.1
M140 S60
M105
M190 S60
M104 S200
M105
M109 S200
G21 ;metric values
G90 ;absolute positioning
M82 ;set extruder to absolute mode
M107 ;start with the fan off
M117 Homing X/Y ...
G28 X0 Y0 ;move X/Y to min endstops
M117 Homing Z ...
G28 Z0 ;move Z to min endstops
G1 Z15.0 F240 ;move the platform down 15mm
M117 Heating ...
M104 S[first_layer_temperature]
; set extruder temp
M109 S[first_layer_temperature]
; wait for extruder temp
M117 Start cleaning ...
M420 S1 ; Enable Bed Levelling Mesh
G92 E0 ;zero the extruded length
M413 S0 ; disable power loss recovery - may reduce blobbing and avoid unexpected recovery
; M500 ; store eeprom settings
M117 Intro line ...
G1 Z2.0 F3000 ; Move Z Axis up little to prevent scratching of Heat Bed
G1 X0.1 Y20 Z[first_layer_height] F5000.0 ; Move to start position
G1 X0.1 Y200.0 Z[first_layer_height] F1500.0 E15 ; Draw the first line
G1 X0.4 Y200.0 Z[first_layer_height] F5000.0 ; Move to side a little
G1 X0.4 Y20 Z0.3[first_layer_height] F1500.0 E30 ; Draw the second line
G92 E0 ; Reset Extruder
G1 X5 Y20 Z0.3 F240 ; Move over to prevent blob squish
G92 E0 ; Reset Extruder
M420 S1 ; Enable Bed Levelling Mesh
M117 Printing...
M82 ;absolute extrusion mode
G92 E0
G92 E0
G1 F3600 E-4
;LAYER_COUNT:32
;LAYER:0
M107
M204 S2000
M205 X10 Y10
G0 X108.552 Y103.066 Z0.2
M204 S1000
M205 X8 Y8
;TYPE:SKIRT
G1 F3600 E0
G1 F1200 X109.065 Y102.642 E0.02767
G1 X109.7 Y102.263 E0.05841
G1 X110.46 Y101.961 E0.09242
G1 X111.266 Y101.768 E0.12687
G1 X112.371 Y101.75 E0.17282
G1 X117.55 Y101.75 E0.38814
G1 X118.735 Y101.768 E0.43741
G1 X119.77 Y102.038 E0.48188
G1 X120.443 Y102.336 E0.51248
G1 X121.004 Y102.695 E0.54017
G1 X121.616 Y103.233 E0.57405
G1 X122.046 Y103.735 E0.60153
G1 X122.54 Y104.627 E0.64392
G1 X122.834 Y105.362 E0.67683
G1 X125.602 Y112.74 E1.00445
G1 X125.836 Y113.392 E1.03325
G1 X126.048 Y114.232 E1.06927
G1 X126.123 Y114.982 E1.10061
G1 X126.125 Y122.83 E1.42689
G1 X126.108 Y124.047 E1.47749
G1 X125.837 Y125.08 E1.52189
G1 X125.539 Y125.753 E1.55249
G1 X125.226 Y126.252 E1.57698
G1 X124.662 Y126.91 E1.61301
G1 X124.056 Y127.402 E1.64546
G1 X123.488 Y127.736 E1.67286
G1 X122.795 Y128.024 E1.70406
G1 X122.019 Y128.194 E1.73709
G1 X121.503 Y128.243 E1.75864
G1 X118.828 Y128.25 E1.86985
G1 X117.052 Y128.225 E1.94369
G1 X116.19 Y128.201 E1.97955
G1 X113.521 Y128.203 E2.09051
G1 X111.561 Y128.249 E2.17202
G1 X109.262 Y128.25 E2.2676
G1 X108.477 Y128.235 E2.30024
G1 X107.696 Y128.142 E2.33294
G1 X106.978 Y127.938 E2.36398
G1 X106.304 Y127.626 E2.39485
G1 X105.698 Y127.221 E2.42516
G1 X105.263 Y126.832 E2.44942
G1 X104.741 Y126.205 E2.48334
G1 X104.387 Y125.625 E2.51159
G1 X104.066 Y124.784 E2.54901
G1 X103.944 Y124.224 E2.57284
G1 X103.878 Y123.518 E2.60232
G1 X103.875 Y115.639 E2.92989
G1 X103.891 Y114.54 E2.97559
G1 X104.151 Y113.424 E3.02323
G1 X107.148 Y105.408 E3.37903
G1 X107.529 Y104.436 E3.42243
G1 X108.057 Y103.617 E3.46294
G1 X108.552 Y103.066 E3.49374
M204 S2000
M205 X10 Y10
G0 F3600 X108.871 Y103.451
M204 S1000
M205 X8 Y8
G1 F1200 X109.384 Y103.027 E3.52141
G1 X109.888 Y102.726 E3.54581
G1 X110.577 Y102.447 E3.57672
G1 X111.328 Y102.267 E3.60883
G1 X112.379 Y102.25 E3.65253
G1 X117.542 Y102.25 E3.86718
G1 X118.669 Y102.267 E3.91404
G1 X119.571 Y102.497 E3.95274
G1 X120.177 Y102.76 E3.98021
G1 X120.676 Y103.073 E4.0047
G1 X121.236 Y103.559 E4.03552
G1 X121.634 Y104.023 E4.06094
G1 X122.102 Y104.869 E4.10113
G1 X122.366 Y105.538 E4.13104
G1 X125.131 Y112.909 E4.45834
G1 X125.365 Y113.561 E4.48714
G1 X125.551 Y114.283 E4.51813
G1 X125.623 Y114.982 E4.54735
G1 X125.625 Y122.823 E4.87334
G1 X125.609 Y123.981 E4.92149
G1 X125.378 Y124.881 E4.96012
G1 X125.115 Y125.487 E4.98758
G1 X124.802 Y125.986 E5.01207
G1 X124.313 Y126.549 E5.04308
G1 X123.8 Y126.973 E5.07075
G1 X123.296 Y127.274 E5.09515
G1 X122.644 Y127.545 E5.12451
G1 X121.972 Y127.696 E5.15314
G1 X121.456 Y127.745 E5.17469
G1 X118.835 Y127.75 E5.28366
G1 X117.066 Y127.725 E5.35722
G1 X116.204 Y127.701 E5.39307
G1 X113.509 Y127.703 E5.50511
G1 X111.561 Y127.749 E5.58612
G1 X109.27 Y127.75 E5.68137
G1 X108.532 Y127.738 E5.71206
G1 X107.829 Y127.66 E5.74147
G1 X107.185 Y127.483 E5.76923
G1 X106.579 Y127.208 E5.7969
G1 X106.028 Y126.845 E5.82433
G1 X105.645 Y126.509 E5.84552
G1 X105.168 Y125.945 E5.87623
G1 X104.839 Y125.405 E5.90251
G1 X104.554 Y124.674 E5.93513
G1 X104.442 Y124.177 E5.95632
G1 X104.376 Y123.471 E5.9858
G1 X104.375 Y115.646 E6.31112
G1 X104.39 Y114.601 E6.35457
G1 X104.638 Y113.537 E6.39999
G1 X107.614 Y105.59 E6.7528
G1 X107.977 Y104.663 E6.79419
G1 X108.432 Y103.948 E6.82942
G1 X108.871 Y103.451 E6.85699
M204 S2000
M205 X10 Y10
G0 F3600 X109.193 Y103.834
M204 S1000
M205 X8 Y8
G1 F1200 X109.645 Y103.454 E6.88154
G1 X110.08 Y103.188 E6.90274
G1 X110.694 Y102.933 E6.93038
G1 X111.39 Y102.766 E6.96014
G1 X112.387 Y102.75 E7.0016
G1 X117.535 Y102.75 E7.21562
G1 X118.604 Y102.766 E7.26007
G1 X119.375 Y102.957 E7.2931
G1 X119.916 Y103.187 E7.31754
G1 X120.351 Y103.453 E7.33874
G1 X120.856 Y103.884 E7.36634
G1 X121.222 Y104.311 E7.38972
G1 X121.637 Y105.053 E7.42507
G1 X121.898 Y105.714 E7.45461
G1 X124.66 Y113.078 E7.7816
G1 X124.894 Y113.73 E7.8104
G1 X125.054 Y114.336 E7.83646
G1 X125.123 Y114.982 E7.86347
G1 X125.125 Y122.816 E8.18917
G1 X125.11 Y123.915 E8.23486
G1 X124.918 Y124.685 E8.26785
G1 X124.688 Y125.226 E8.29229
G1 X124.422 Y125.661 E8.31349
G1 X123.991 Y126.166 E8.3411
G1 X123.539 Y126.546 E8.36565
G1 X123.104 Y126.812 E8.38684
G1 X122.49 Y127.067 E8.41449
G1 X121.925 Y127.198 E8.4386
G1 X121.409 Y127.247 E8.46015
G1 X118.842 Y127.25 E8.56687
G1 X117.08 Y127.225 E8.64013
G1 X116.218 Y127.201 E8.67599
G1 X113.497 Y127.203 E8.78911
G1 X111.561 Y127.249 E8.86962
G1 X109.278 Y127.25 E8.96454
G1 X108.54 Y127.238 E8.99523
G1 X107.957 Y127.177 E9.0196
G1 X107.388 Y127.026 E9.04407
G1 X106.851 Y126.788 E9.06849
G1 X106.358 Y126.469 E9.09291
G1 X105.975 Y126.133 E9.11409
G1 X105.595 Y125.685 E9.13851
G1 X105.289 Y125.182 E9.16299
G1 X105.042 Y124.564 E9.19066
G1 X104.93 Y124.067 E9.21184
G1 X104.876 Y123.471 E9.23672
G1 X104.875 Y115.653 E9.56176
G1 X104.889 Y114.66 E9.60304
G1 X105.106 Y113.712 E9.64348
G1 X108.08 Y105.772 E9.99598
G1 X108.426 Y104.889 E10.03541
G1 X108.809 Y104.276 E10.06546
G1 X109.193 Y103.834 E10.0898
M204 S2000
M205 X10 Y10
G0 F3600 X109.519 Y104.213
M204 S1000
M205 X8 Y8
G1 F1200 X109.906 Y103.881 E10.111
G1 X110.341 Y103.615 E10.1322
G1 X110.811 Y103.419 E10.15337
G1 X111.452 Y103.265 E10.18078
G1 X112.395 Y103.25 E10.21999
G1 X117.528 Y103.25 E10.43339
G1 X118.541 Y103.265 E10.47551
G1 X119.184 Y103.419 E10.503
G1 X119.655 Y103.614 E10.5242
G1 X120.09 Y103.88 E10.5454
G1 X120.477 Y104.21 E10.56654
G1 X120.809 Y104.597 E10.58774
G1 X121.172 Y105.237 E10.61833
G1 X121.43 Y105.89 E10.64752
G1 X124.189 Y113.247 E10.97419
G1 X124.423 Y113.899 E11.00299
G1 X124.557 Y114.391 E11.02419
G1 X124.623 Y114.982 E11.04891
G1 X124.625 Y122.809 E11.37432
G1 X124.611 Y123.851 E11.41765
G1 X124.456 Y124.494 E11.44515
G1 X124.261 Y124.965 E11.46634
G1 X123.995 Y125.4 E11.48754
G1 X123.665 Y125.787 E11.50868
G1 X123.278 Y126.119 E11.52988
G1 X122.843 Y126.385 E11.55108
G1 X122.373 Y126.581 E11.57225
G1 X121.878 Y126.7 E11.59342
G1 X121.362 Y126.749 E11.61497
G1 X118.849 Y126.75 E11.71945
G1 X117.094 Y126.725 E11.79242
G1 X116.232 Y126.701 E11.82827
G1 X113.485 Y126.703 E11.94248
G1 X111.561 Y126.749 E12.02249
G1 X109.285 Y126.75 E12.11712
G1 X108.587 Y126.74 E12.14614
G1 X108.08 Y126.692 E12.16731
G1 X107.586 Y126.567 E12.1885
G1 X107.118 Y126.365 E12.20969
G1 X106.688 Y126.093 E12.23084
G1 X106.305 Y125.757 E12.25202
G1 X105.979 Y125.365 E12.27322
G1 X105.719 Y124.927 E12.2944
G1 X105.53 Y124.454 E12.31557
G1 X105.418 Y123.957 E12.33676
G1 X105.376 Y123.471 E12.35704
G1 X105.375 Y115.66 E12.68178
G1 X105.388 Y114.72 E12.72086
G1 X105.574 Y113.887 E12.75635
G1 X108.546 Y105.954 E13.10855
G1 X108.876 Y105.111 E13.14619
G1 X109.189 Y104.6 E13.1711
G1 X109.519 Y104.213 E13.19225
M204 S2000
M205 X10 Y10
G1 F3600 E9.19225
;MESH:ballista-pM.stl
G0 X111.061 Y106.608
G0 X118.204 Y122.256
M204 S1000
M205 X8 Y8
;TYPE:WALL-OUTER
G1 F3600 E13.19225
G1 F1200 X118.365 Y122.809 E13.21619
G1 X118.413 Y123.25 E13.23464
G1 X121.122 Y123.25 E13.34726
G1 X121.122 Y115.038 E13.68868
G1 X118.014 Y106.75 E14.05668
G1 X111.982 Y106.75 E14.30747
G1 X108.882 Y115.022 E14.67473
G1 X108.875 Y123.25 E15.01681
G1 X111.581 Y123.25 E15.12932
G1 X111.606 Y122.947 E15.14196
G1 X111.799 Y122.241 E15.17238
G1 X112.227 Y121.464 E15.20927
G1 X112.508 Y121.13 E15.22741
G1 X112.938 Y120.748 E15.25132
G1 X113.386 Y120.464 E15.27338
G1 X113.817 Y120.271 E15.29301
G1 X114.377 Y120.119 E15.31714
G1 X114.945 Y120.062 E15.34087
G1 X115.617 Y120.118 E15.3689
G1 X116.209 Y120.283 E15.39445
G1 X116.606 Y120.46 E15.41253
G1 X117.093 Y120.77 E15.43653
G1 X117.513 Y121.156 E15.46024
G1 X117.769 Y121.464 E15.47689
G1 X118.204 Y122.256 E15.51446
M204 S2000
M205 X10 Y10
G0 F3600 X118.273 Y122.496
G0 X118.658 Y122.034
M204 S1000
M205 X8 Y8
;TYPE:WALL-INNER
G1 F1200 X118.874 Y122.75 E15.54555
G1 X120.622 Y122.75 E15.61823
G1 X120.622 Y115.129 E15.93507
G1 X117.668 Y107.25 E16.28491
G1 X112.328 Y107.25 E16.50692
G1 X109.382 Y115.113 E16.85602
G1 X109.375 Y122.75 E17.17353
G1 X111.138 Y122.75 E17.24682
G1 X111.338 Y122.035 E17.27769
G1 X111.799 Y121.195 E17.31753
G1 X112.174 Y120.758 E17.34147
G1 X112.618 Y120.359 E17.36629
G1 X113.118 Y120.042 E17.3909
G1 X113.623 Y119.806 E17.41407
G1 X114.227 Y119.639 E17.44013
G1 X114.913 Y119.558 E17.46885
G1 X115.727 Y119.626 E17.50281
G1 X116.312 Y119.789 E17.52806
G1 X116.826 Y120.007 E17.55127
G1 X117.383 Y120.357 E17.57862
G1 X117.897 Y120.836 E17.60783
G1 X118.233 Y121.261 E17.63035
G1 X118.658 Y122.034 E17.66703
M204 S2000
M205 X10 Y10
G0 F3600 X118.974 Y121.861
G0 X118.647 Y121.03
M204 S1000
M205 X8 Y8
;TYPE:SKIN
G1 F1200 X119.054 Y121.773 E17.70225
G1 X119.221 Y122.274 E17.7242
G1 X120.146 Y122.274 E17.76266
G1 X120.146 Y115.21 E18.05635
G1 X117.338 Y107.722 E18.38883
G1 X112.658 Y107.722 E18.5834
G1 X109.854 Y115.194 E18.91521
G1 X109.851 Y122.274 E19.20956
G1 X110.774 Y122.274 E19.24793
G1 X110.887 Y121.875 E19.26517
G1 X111.426 Y120.896 E19.31164
G1 X111.834 Y120.424 E19.33758
G1 X112.346 Y119.964 E19.36619
G1 X112.885 Y119.625 E19.39266
G1 X113.477 Y119.35 E19.4198
G1 X114.165 Y119.161 E19.44947
G1 X114.909 Y119.082 E19.48057
G1 X115.789 Y119.154 E19.51728
G1 X116.55 Y119.365 E19.55011
G1 X117.121 Y119.631 E19.5763
G1 X117.653 Y119.963 E19.60237
G1 X118.221 Y120.481 E19.63433
G1 X118.647 Y121.03 E19.66322
M204 S2000
M205 X10 Y10
G0 F3600 X117.562 Y120.121
G0 X116.464 Y119.522
G0 X114.92 Y119.26
G0 X113.53 Y119.523
G0 X112.435 Y120.124
G0 X110.616 Y121.929
M204 S1000
M205 X8 Y8
G1 F1200 X110.101 Y121.414 E19.6935
M204 S2000
M205 X10 Y10
G0 F3600 X110.101 Y120.707
M204 S1000
M205 X8 Y8
G1 F1200 X110.835 Y121.441 E19.73666
M204 S2000
M205 X10 Y10
G0 F3600 X111.086 Y120.985
M204 S1000
M205 X8 Y8
G1 F1200 X110.101 Y120.001 E19.79454
M204 S2000
M205 X10 Y10
G0 F3600 X110.102 Y119.295
M204 S1000
M205 X8 Y8
G1 F1200 X111.379 Y120.571 E19.8696
M204 S2000
M205 X10 Y10
G0 F3600 X111.71 Y120.195
M204 S1000
M205 X8 Y8
G1 F1200 X110.102 Y118.587 E19.96414
M204 S2000
M205 X10 Y10
G0 F3600 X110.103 Y117.881
M204 S1000
M205 X8 Y8
G1 F1200 X112.082 Y119.86 E20.0805
M204 S2000
M205 X10 Y10
G0 F3600 X112.501 Y119.572
M204 S1000
M205 X8 Y8
G1 F1200 X110.103 Y117.174 E20.22149
M204 S2000
M205 X10 Y10
G0 F3600 X110.104 Y116.468
M204 S1000
M205 X8 Y8
G1 F1200 X112.953 Y119.316 E20.38897
M204 S2000
M205 X10 Y10
G0 F3600 X113.443 Y119.099
M204 S1000
M205 X8 Y8
G1 F1200 X110.104 Y115.76 E20.58529
M204 S2000
M205 X10 Y10
G0 F3600 X110.155 Y115.104
M204 S1000
M205 X8 Y8
G1 F1200 X113.997 Y118.947 E20.81122
M204 S2000
M205 X10 Y10
G0 F3600 X114.616 Y118.859
M204 S1000
M205 X8 Y8
G1 F1200 X110.348 Y114.59 E21.06219
M204 S2000
M205 X10 Y10
G0 F3600 X110.541 Y114.076
M204 S1000
M205 X8 Y8
G1 F1200 X115.331 Y118.866 E21.34382
M204 S2000
M205 X10 Y10
G0 F3600 X116.171 Y118.999
M204 S1000
M205 X8 Y8
G1 F1200 X110.733 Y113.561 E21.66356
M204 S2000
M205 X10 Y10
G0 F3600 X110.926 Y113.047
M204 S1000
M205 X8 Y8
G1 F1200 X117.372 Y119.493 E22.04256
G1 X117.46 Y119.581
M204 S2000
M205 X10 Y10
G0 F3600 X118.963 Y121.084
M204 S1000
M205 X8 Y8
G1 F1200 X119.896 Y122.018 E22.09744
M204 S2000
M205 X10 Y10
G0 F3600 X119.896 Y121.311
M204 S1000
M205 X8 Y8
G1 F1200 X111.119 Y112.533 E22.61353
M204 S2000
M205 X10 Y10
G0 F3600 X111.312 Y112.019
M204 S1000
M205 X8 Y8
G1 F1200 X119.896 Y120.603 E23.11823
M204 S2000
M205 X10 Y10
G0 F3600 X119.896 Y119.896
M204 S1000
M205 X8 Y8
G1 F1200 X111.505 Y111.505 E23.61159
M204 S2000
M205 X10 Y10
G0 F3600 X111.698 Y110.991
M204 S1000
M205 X8 Y8
G1 F1200 X119.896 Y119.189 E24.0936
M204 S2000
M205 X10 Y10
G0 F3600 X119.896 Y118.482
M204 S1000
M205 X8 Y8
G1 F1200 X111.89 Y110.476 E24.56433
M204 S2000
M205 X10 Y10
G0 F3600 X112.083 Y109.962
M204 S1000
M205 X8 Y8
G1 F1200 X119.896 Y117.775 E25.0237
M204 S2000
M205 X10 Y10
G0 F3600 X119.896 Y117.068
M204 S1000
M205 X8 Y8
G1 F1200 X112.277 Y109.448 E25.4717
M204 S2000
M205 X10 Y10
G0 F3600 X112.47 Y108.934
M204 S1000
M205 X8 Y8
G1 F1200 X119.896 Y116.361 E25.90835
M204 S2000
M205 X10 Y10
G0 F3600 X119.896 Y115.654
M204 S1000
M205 X8 Y8
G1 F1200 X112.663 Y108.42 E26.33365
M204 S2000
M205 X10 Y10
G0 F3600 X112.922 Y107.972
M204 S1000
M205 X8 Y8
G1 F1200 X119.712 Y114.762 E26.73287
G1 X119.8 Y114.85
M204 S2000
M205 X10 Y10
G0 F3600 X119.287 Y113.631
M204 S1000
M205 X8 Y8
G1 F1200 X113.629 Y107.972 E27.06557
M204 S2000
M205 X10 Y10
G0 F3600 X114.336 Y107.972
M204 S1000
M205 X8 Y8
G1 F1200 X118.863 Y112.499 E27.33174
G1 X118.951 Y112.587
M204 S2000
M205 X10 Y10
G0 F3600 X118.438 Y111.367
M204 S1000
M205 X8 Y8
G1 F1200 X115.043 Y107.972 E27.53136
M204 S2000
M205 X10 Y10
G0 F3600 X115.751 Y107.972
M204 S1000
M205 X8 Y8
G1 F1200 X118.014 Y110.236 E27.66444
G1 X118.102 Y110.324
M204 S2000
M205 X10 Y10
G0 F3600 X117.59 Y109.104
M204 S1000
M205 X8 Y8
G1 F1200 X116.458 Y107.972 E27.731
G1 X116.37 Y107.884
M204 S2000
M205 X10 Y10
G0 F3600 X116.37 Y108.01
G1 F3600 E23.731
;MESH:NONMESH
G0 F600 X116.37 Y108.01 Z0.4
G0 F3600 X112.177 Y107.026
G0 X111.061 Y106.608
G0 X109.519 Y104.213
;TIME_ELAPSED:40.283415
;LAYER:1
M106 S255
M204 S1000
M205 X8 Y8
;TYPE:SKIRT
G1 F3600 E27.731
G1 F1200 X109.906 Y103.881 E27.7522
G1 X110.341 Y103.615 E27.7734
G1 X110.811 Y103.419 E27.79457
G1 X111.452 Y103.265 E27.82198
G1 X112.395 Y103.25 E27.86119
G1 X117.528 Y103.25 E28.07459
G1 X118.541 Y103.265 E28.11671
G1 X119.184 Y103.419 E28.1442
G1 X119.655 Y103.614 E28.16539
G1 X120.09 Y103.88 E28.18659
G1 X120.477 Y104.21 E28.20774
G1 X120.809 Y104.597 E28.22894
G1 X121.172 Y105.237 E28.25953
G1 X121.43 Y105.89 E28.28872
G1 X124.189 Y113.247 E28.61539
G1 X124.423 Y113.899 E28.64419
G1 X124.557 Y114.391 E28.66539
G1 X124.623 Y114.982 E28.69011
G1 X124.625 Y122.809 E29.01552
G1 X124.611 Y123.851 E29.05884
G1 X124.456 Y124.494 E29.08634
G1 X124.261 Y124.965 E29.10754
G1 X123.995 Y125.4 E29.12874
G1 X123.665 Y125.787 E29.14988
G1 X123.278 Y126.119 E29.17108
G1 X122.843 Y126.385 E29.19228
G1 X122.373 Y126.581 E29.21345
G1 X121.878 Y126.7 E29.23462
G1 X121.362 Y126.749 E29.25616
G1 X118.849 Y126.75 E29.36064
G1 X117.094 Y126.725 E29.43361
G1 X116.232 Y126.701 E29.46947
G1 X113.485 Y126.703 E29.58367
G1 X111.561 Y126.749 E29.66369
G1 X109.285 Y126.75 E29.75831
G1 X108.587 Y126.74 E29.78733
G1 X108.08 Y126.692 E29.80851
G1 X107.586 Y126.567 E29.82969
G1 X107.118 Y126.365 E29.85089
G1 X106.688 Y126.093 E29.87204
G1 X106.305 Y125.757 E29.89322
G1 X105.979 Y125.365 E29.91442
G1 X105.719 Y124.927 E29.93559
G1 X105.53 Y124.454 E29.95677
G1 X105.418 Y123.957 E29.97795
G1 X105.376 Y123.471 E29.99823
G1 X105.375 Y115.66 E30.32298
G1 X105.388 Y114.72 E30.36206
G1 X105.574 Y113.887 E30.39755
