;FLAVOR:Marlin
;TIME:674
;Filament used: 0.653952m
;Layer height: 0.2
;MINX:89.5
;MINY:107.562
;MINZ:0.2
;MAXX:140.5
;MAXY:122.438
;MAXZ:6.4
;TARGET_MACHINE.NAME:Anycubic Kobra
;Generated with Cura_SteamEngine 5.10.1
M140 S60
M105
M190 S60
M104 S200
M105
M109 S200
G21 ;metric values
G90 ;absolute positioning
M82 ;set extruder to absolute mode
M107 ;start with the fan off
M117 Homing X/Y ...
G28 X0 Y0 ;move X/Y to min endstops
M117 Homing Z ...
G28 Z0 ;move Z to min endstops
G1 Z15.0 F240 ;move the platform down 15mm
M117 Heating ...
M104 S[first_layer_temperature]
; set extruder temp
M109 S[first_layer_temperature]
; wait for extruder temp
M117 Start cleaning ...
M420 S1 ; Enable Bed Levelling Mesh
G92 E0 ;zero the extruded length
M413 S0 ; disable power loss recovery - may reduce blobbing and avoid unexpected recovery
; M500 ; store eeprom settings
M117 Intro line ...
G1 Z2.0 F3000 ; Move Z Axis up little to prevent scratching of Heat Bed
G1 X0.1 Y20 Z[first_layer_height] F5000.0 ; Move to start position
G1 X0.1 Y200.0 Z[first_layer_height] F1500.0 E15 ; Draw the first line
G1 X0.4 Y200.0 Z[first_layer_height] F5000.0 ; Move to side a little
G1 X0.4 Y20 Z0.3[first_layer_height] F1500.0 E30 ; Draw the second line
G92 E0 ; Reset Extruder
G1 X5 Y20 Z0.3 F240 ; Move over to prevent blob squish
G92 E0 ; Reset Extruder
M420 S1 ; Enable Bed Levelling Mesh
M117 Printing...
M82 ;absolute extrusion mode
G92 E0
G92 E0
G1 F3600 E-4
;LAYER_COUNT:32
;LAYER:0
M107
M204 S2000
M205 X10 Y10
G0 X90.861 Y108.717 Z0.2
M204 S1000
M205 X8 Y8
;TYPE:SKIRT
G1 F3600 E0
G1 F1200 X90.411 Y109.209 E0.02772
G1 X90.044 Y109.763 E0.05535
G1 X89.752 Y110.406 E0.08471
G1 X89.562 Y111.171 E0.11748
G1 X89.514 Y111.678 E0.13865
G1 X89.5 Y112.42 E0.16951
G1 X89.5 Y115.305 E0.28945
G1 X89.513 Y116.126 E0.32359
G1 X89.561 Y116.684 E0.34687
G1 X89.71 Y117.328 E0.37436
G1 X90.011 Y118.056 E0.40711
G1 X90.393 Y118.646 E0.43633
G1 X90.727 Y119.031 E0.45752
G1 X91.406 Y119.618 E0.49484
G1 X92.387 Y120.134 E0.54092
G1 X95.221 Y121.551 E0.67265
G1 X96.529 Y122.172 E0.73285
G1 X97.376 Y122.376 E0.76907
G1 X97.883 Y122.424 E0.79024
G1 X98.644 Y122.438 E0.82189
G1 X131.048 Y122.438 E2.16909
G1 X132.47 Y122.41 E2.22822
G1 X133.165 Y122.259 E2.25779
G1 X133.822 Y122.016 E2.28691
G1 X134.448 Y121.717 E2.31575
G1 X137.444 Y120.218 E2.45503
G1 X138.566 Y119.633 E2.50764
G1 X139.148 Y119.149 E2.53911
G1 X139.619 Y118.633 E2.56816
G1 X139.999 Y118.031 E2.59775
G1 X140.261 Y117.42 E2.62539
G1 X140.427 Y116.77 E2.65329
G1 X140.486 Y116.19 E2.67752
G1 X140.5 Y115.387 E2.71091
G1 X140.497 Y111.787 E2.86058
G1 X140.443 Y111.199 E2.88513
G1 X140.321 Y110.638 E2.909
G1 X140.036 Y109.907 E2.94162
G1 X139.707 Y109.367 E2.96791
G1 X139.23 Y108.803 E2.99862
G1 X138.847 Y108.467 E3.0198
G1 X138.296 Y108.104 E3.04724
G1 X137.69 Y107.829 E3.0749
G1 X137.046 Y107.652 E3.10267
G1 X136.343 Y107.574 E3.13208
G1 X135.605 Y107.562 E3.16276
G1 X93.774 Y107.563 E4.90189
G1 X93.076 Y107.628 E4.93104
G1 X92.579 Y107.74 E4.95222
G1 X91.885 Y108.011 E4.9832
G1 X91.377 Y108.305 E5.0076
G1 X90.861 Y108.717 E5.03505
M204 S2000
M205 X10 Y10
G0 F3600 X91.176 Y109.105
M204 S1000
M205 X8 Y8
G1 F1200 X91.632 Y108.735 E5.05946
G1 X92.07 Y108.475 E5.08064
G1 X92.689 Y108.228 E5.10835
G1 X93.186 Y108.116 E5.12953
G1 X93.774 Y108.063 E5.15407
G1 X135.597 Y108.062 E6.89287
G1 X136.335 Y108.074 E6.92356
G1 X136.918 Y108.135 E6.94793
G1 X137.487 Y108.286 E6.97241
G1 X138.024 Y108.524 E6.99683
G1 X138.517 Y108.843 E7.02124
G1 X138.9 Y109.179 E7.04242
G1 X139.28 Y109.627 E7.06684
G1 X139.586 Y110.13 E7.09132
G1 X139.833 Y110.748 E7.11899
G1 X139.945 Y111.245 E7.14017
G1 X139.999 Y111.833 E7.16472
G1 X140 Y115.379 E7.31215
G1 X139.988 Y116.144 E7.34396
G1 X139.941 Y116.651 E7.36513
G1 X139.801 Y117.223 E7.38961
G1 X139.539 Y117.834 E7.41725
G1 X139.22 Y118.328 E7.4417
G1 X138.828 Y118.765 E7.4661
G1 X138.287 Y119.215 E7.49536
G1 X137.22 Y119.771 E7.54538
G1 X134.231 Y121.266 E7.68433
G1 X133.645 Y121.548 E7.71136
G1 X133.059 Y121.77 E7.73742
G1 X132.41 Y121.911 E7.76503
G1 X131.038 Y121.938 E7.82208
G1 X98.652 Y121.938 E9.16853
G1 X97.93 Y121.926 E9.19856
G1 X97.423 Y121.878 E9.21973
G1 X96.699 Y121.699 E9.25074
G1 X95.445 Y121.104 E9.30844
G1 X92.62 Y119.691 E9.43976
G1 X91.688 Y119.201 E9.48354
G1 X91.105 Y118.703 E9.51542
G1 X90.771 Y118.318 E9.53661
G1 X90.455 Y117.823 E9.56102
G1 X90.196 Y117.211 E9.58865
G1 X90.059 Y116.64 E9.61307
G1 X90.013 Y116.118 E9.63485
G1 X90 Y115.297 E9.66899
G1 X90 Y112.429 E9.78823
G1 X90.012 Y111.725 E9.8175
G1 X90.06 Y111.218 E9.83867
G1 X90.225 Y110.573 E9.86635
G1 X90.464 Y110.035 E9.89083
G1 X90.783 Y109.543 E9.91521
G1 X91.176 Y109.105 E9.93967
M204 S2000
M205 X10 Y10
G0 F3600 X91.495 Y109.49
M204 S1000
M205 X8 Y8
G1 F1200 X91.887 Y109.165 E9.96084
G1 X92.325 Y108.905 E9.98202
G1 X92.799 Y108.716 E10.00323
G1 X93.296 Y108.604 E10.02442
G1 X93.774 Y108.563 E10.04436
G1 X135.59 Y108.562 E11.78287
G1 X136.288 Y108.572 E11.81189
G1 X136.795 Y108.62 E11.83306
G1 X137.289 Y108.745 E11.85425
G1 X137.757 Y108.947 E11.87544
G1 X138.187 Y109.219 E11.8966
G1 X138.57 Y109.555 E11.91778
G1 X138.896 Y109.947 E11.93897
G1 X139.156 Y110.385 E11.96015
G1 X139.345 Y110.858 E11.98133
G1 X139.457 Y111.355 E12.00251
G1 X139.499 Y111.833 E12.02246
G1 X139.5 Y115.372 E12.16959
G1 X139.49 Y116.098 E12.19978
G1 X139.443 Y116.605 E12.22095
G1 X139.317 Y117.099 E12.24214
G1 X139.116 Y117.567 E12.26332
G1 X138.844 Y117.998 E12.28451
G1 X138.508 Y118.381 E12.30569
G1 X138.008 Y118.797 E12.33273
G1 X136.996 Y119.324 E12.38017
G1 X134.014 Y120.815 E12.51878
G1 X133.428 Y121.097 E12.54582
G1 X132.953 Y121.281 E12.567
G1 X132.35 Y121.412 E12.59265
G1 X131.028 Y121.438 E12.64762
G1 X98.659 Y121.438 E13.99337
G1 X97.977 Y121.428 E14.02173
G1 X97.47 Y121.38 E14.0429
G1 X96.87 Y121.227 E14.06864
G1 X95.669 Y120.657 E14.12391
G1 X92.853 Y119.248 E14.25483
G1 X91.97 Y118.784 E14.2963
G1 X91.483 Y118.375 E14.32274
G1 X91.149 Y117.99 E14.34393
G1 X90.879 Y117.558 E14.36511
G1 X90.681 Y117.089 E14.38627
G1 X90.557 Y116.595 E14.40745
G1 X90.513 Y116.11 E14.4277
G1 X90.5 Y115.289 E14.46183
G1 X90.5 Y112.437 E14.58041
G1 X90.51 Y111.772 E14.60806
G1 X90.558 Y111.265 E14.62923
G1 X90.684 Y110.771 E14.65042
G1 X90.886 Y110.303 E14.67162
G1 X91.159 Y109.873 E14.69279
G1 X91.495 Y109.49 E14.71397
M204 S2000
M205 X10 Y10
G1 F3600 E10.71397
;MESH:ballista-pG.stl
G0 X94.274 Y111.147
G0 X124.161 Y116.129
M204 S1000
M205 X8 Y8
;TYPE:WALL-OUTER
G1 F3600 E14.71397
G1 F1200 X123.74 Y116.291 E14.73273
G1 X123.216 Y116.28 E14.75452
G1 X122.865 Y116.146 E14.77014
G1 X122.602 Y115.956 E14.78363
G1 X122.421 Y115.747 E14.79512
G1 X122.289 Y115.511 E14.80637
G1 X122.19 Y114.996 E14.82817
G1 X122.31 Y114.443 E14.85169
G1 X122.468 Y114.19 E14.8641
G1 X122.837 Y113.866 E14.88451
G1 X123.256 Y113.709 E14.90311
G1 X123.776 Y113.719 E14.92474
G1 X124.135 Y113.85 E14.94063
G1 X124.398 Y114.04 E14.95411
G1 X124.58 Y114.252 E14.96573
G1 X124.733 Y114.556 E14.97988
G1 X124.81 Y114.956 E14.99682
G1 X124.785 Y115.245 E15.00888
G1 X124.688 Y115.556 E15.02242
G1 X124.528 Y115.806 E15.03476
G1 X124.161 Y116.129 E15.05509
M204 S2000
M205 X10 Y10
G0 F3600 X123.928 Y116.218
G0 X124.246 Y117.02
G0 X131.74 Y117.081
G0 X131.94 Y117.938
M204 S1000
M205 X8 Y8
G1 F1200 X135.998 Y115.905 E15.24379
G1 X135.998 Y112.062 E15.40356
G1 X93.998 Y112.062 E17.14972
G1 X93.998 Y115.905 E17.30949
G1 X98.056 Y117.938 E17.49819
G1 X131.94 Y117.938 E18.90692
M204 S2000
M205 X10 Y10
G0 F3600 X132.163 Y117.827
G0 X131.822 Y117.438
M204 S1000
M205 X8 Y8
;TYPE:WALL-INNER
G1 F1200 X135.498 Y115.596 E19.07787
G1 X135.498 Y112.562 E19.20401
G1 X124.692 Y112.562 E19.65327
G1 F1090.9 X124.048 Y112.612 E19.68281
G1 F1023.9 X123.696 Y112.598 E19.69997
G1 F1041.7 X123.114 Y112.602 E19.72785
G1 F1111.1 X122.501 Y112.562 E19.75543
G1 F1200 X94.498 Y112.562 E20.91966
G1 X94.498 Y115.596 E21.0458
G1 X98.174 Y117.438 E21.21674
G1 X122.307 Y117.438 E22.22008
G1 F1087 X122.93 Y117.386 E22.24877
G1 F1020.4 X123.3 Y117.402 E22.26688
G1 F1041.7 X123.882 Y117.398 E22.29475
G1 F1111.1 X124.507 Y117.438 E22.32288
G1 F1200 X131.822 Y117.438 E22.627
M204 S2000
M205 X10 Y10
G0 F3600 X131.74 Y117.081
G0 X125.536 Y115.74
G0 X125.194 Y115.635
M204 S1000
M205 X8 Y8
G1 F1200 X125.002 Y116.007 E22.6444
G1 X124.583 Y116.442 E22.66951
G1 X124.346 Y116.593 E22.6812
G1 F1111.1 X123.833 Y116.823 E22.70644
G1 F1023.9 X123.1 Y116.833 E22.74216
G1 F1061.9 X122.749 Y116.666 E22.76042
G1 F1156.1 X122.361 Y116.406 E22.78058
G1 F1200 X122.083 Y116.127 E22.79695
G1 X121.853 Y115.755 E22.81513
G1 X121.773 Y115.542 E22.82459
G1 X121.686 Y115.033 E22.84606
G1 X121.791 Y114.425 E22.87171
G1 X121.876 Y114.195 E22.88191
G1 X122.125 Y113.826 E22.90042
G1 X122.412 Y113.554 E22.91686
G1 X122.657 Y113.4 E22.92889
G1 F1111.1 X123.163 Y113.177 E22.95371
G1 F1025.6 X123.885 Y113.168 E22.98884
G1 F1065.7 X124.238 Y113.328 E23.00698
G1 F1158.3 X124.639 Y113.59 E23.02761
G1 F1200 X124.917 Y113.869 E23.04399
G1 X125.148 Y114.25 E23.06251
G1 X125.223 Y114.454 E23.07155
G1 X125.31 Y114.964 E23.09306
G1 X125.293 Y115.23 E23.10414
G1 X125.194 Y115.635 E23.12147
M204 S2000
M205 X10 Y10
G0 F3600 X125.405 Y116.259
M204 S1000
M205 X8 Y8
;TYPE:SKIN
G1 F1200 X124.897 Y116.799 E23.1523
G1 X124.641 Y116.962 E23.16491
G1 X131.708 Y116.962 E23.45873
G1 X135.022 Y115.301 E23.61284
G1 X135.022 Y113.034 E23.70709
G1 X124.674 Y113.039 E24.13731
G1 X124.935 Y113.221 E24.15054
G1 X125.298 Y113.585 E24.17192
G1 X125.58 Y114.056 E24.19474
G1 X125.687 Y114.371 E24.20857
G1 X125.782 Y114.983 E24.23432
G1 X125.76 Y115.303 E24.24765
G1 X125.652 Y115.755 E24.26697
G1 X125.405 Y116.259 E24.29031
G1 X125.592 Y116.4
G1 X125.903 Y116.711 E24.3086
M204 S2000
M205 X10 Y10
G0 F3600 X126.61 Y116.711
M204 S1000
M205 X8 Y8
G1 F1200 X125.843 Y115.944 E24.35369
M204 S2000
M205 X10 Y10
G0 F3600 X125.995 Y115.389
M204 S1000
M205 X8 Y8
G1 F1200 X127.317 Y116.711 E24.43142
M204 S2000
M205 X10 Y10
G0 F3600 X128.025 Y116.711
M204 S1000
M205 X8 Y8
G1 F1200 X125.991 Y114.677 E24.55101
G1 X125.903 Y114.589
M204 S2000
M205 X10 Y10
G0 F3600 X125.563 Y113.542
M204 S1000
M205 X8 Y8
G1 F1200 X128.732 Y116.712 E24.73737
M204 S2000
M205 X10 Y10
G0 F3600 X129.439 Y116.712
M204 S1000
M205 X8 Y8
G1 F1200 X126.012 Y113.284 E24.93889
M204 S2000
M205 X10 Y10
G0 F3600 X126.719 Y113.284
M204 S1000
M205 X8 Y8
G1 F1200 X130.147 Y116.712 E25.14044
M204 S2000
M205 X10 Y10
G0 F3600 X130.854 Y116.712
M204 S1000
M205 X8 Y8
G1 F1200 X127.426 Y113.284 E25.342
M204 S2000
M205 X10 Y10
G0 F3600 X128.133 Y113.284
M204 S1000
M205 X8 Y8
G1 F1200 X131.561 Y116.712 E25.54355
M204 S2000
M205 X10 Y10
G0 F3600 X132.061 Y116.505
M204 S1000
M205 X8 Y8
G1 F1200 X128.841 Y113.284 E25.7329
M204 S2000
M205 X10 Y10
G0 F3600 X129.548 Y113.284
M204 S1000
M205 X8 Y8
G1 F1200 X132.532 Y116.269 E25.90838
M204 S2000
M205 X10 Y10
G0 F3600 X133.003 Y116.033
M204 S1000
M205 X8 Y8
G1 F1200 X130.255 Y113.284 E26.06998
M204 S2000
M205 X10 Y10
G0 F3600 X130.962 Y113.284
M204 S1000
M205 X8 Y8
G1 F1200 X133.474 Y115.797 E26.21771
M204 S2000
M205 X10 Y10
G0 F3600 X133.945 Y115.56
M204 S1000
M205 X8 Y8
G1 F1200 X131.669 Y113.284 E26.35153
M204 S2000
M205 X10 Y10
G0 F3600 X132.376 Y113.284
M204 S1000
M205 X8 Y8
G1 F1200 X134.416 Y115.324 E26.47147
M204 S2000
M205 X10 Y10
G0 F3600 X134.772 Y114.973
M204 S1000
M205 X8 Y8
G1 F1200 X133.083 Y113.284 E26.57078
M204 S2000
M205 X10 Y10
G0 F3600 X133.79 Y113.284
M204 S1000
M205 X8 Y8
G1 F1200 X134.772 Y114.266 E26.62852
M204 S2000
M205 X10 Y10
G0 F3600 X134.772 Y113.559
M204 S1000
M205 X8 Y8
G1 F1200 X134.497 Y113.284 E26.64468
M204 S2000
M205 X10 Y10
G0 F3600 X123.899 Y117.093
G0 X122.642 Y116.925
G0 X121.56 Y116.205
M204 S1000
M205 X8 Y8
G1 F1200 X121.311 Y115.659 E26.66963
G1 X121.206 Y115.027 E26.69627
G1 X121.321 Y114.338 E26.72531
G1 X121.47 Y113.941 E26.74294
G1 X121.8 Y113.473 E26.76675
G1 X122.181 Y113.117 E26.78843
G1 X122.322 Y113.035 E26.79521
G1 X94.971 Y113.035 E27.93233
G1 X94.971 Y115.301 E28.02654
G1 X98.288 Y116.962 E28.18077
G1 X122.318 Y116.957 E29.17982
G1 X121.92 Y116.669 E29.20025
G1 X121.56 Y116.205 E29.22466
M204 S2000
M205 X10 Y10
G0 F3600 X121.395 Y113.617
M204 S1000
M205 X8 Y8
G1 F1200 X121.066 Y113.288 E29.24401
M204 S2000
M205 X10 Y10
G0 F3600 X120.359 Y113.288
M204 S1000
M205 X8 Y8
G1 F1200 X121.156 Y114.085 E29.29087
M204 S2000
M205 X10 Y10
G0 F3600 X121.018 Y114.655
M204 S1000
M205 X8 Y8
G1 F1200 X119.652 Y113.288 E29.37121
M204 S2000
M205 X10 Y10
G0 F3600 X118.945 Y113.288
M204 S1000
M205 X8 Y8
G1 F1200 X121.006 Y115.349 E29.49239
G1 X121.094 Y115.437
M204 S2000
M205 X10 Y10
G0 F3600 X120.955 Y116.712
M204 S1000
M205 X8 Y8
G1 F1200 X117.53 Y113.288 E29.69374
M204 S2000
M205 X10 Y10
G0 F3600 X116.823 Y113.288
M204 S1000
M205 X8 Y8
G1 F1200 X120.248 Y116.712 E29.89508
M204 S2000
M205 X10 Y10
G0 F3600 X119.541 Y116.712
M204 S1000
M205 X8 Y8
G1 F1200 X116.116 Y113.288 E30.09643
M204 S2000
M205 X10 Y10
G0 F3600 X115.409 Y113.288
M204 S1000
M205 X8 Y8
G1 F1200 X118.834 Y116.712 E30.29778
M204 S2000
M205 X10 Y10
G0 F3600 X118.126 Y116.712
M204 S1000
M205 X8 Y8
G1 F1200 X114.701 Y113.287 E30.49916
M204 S2000
M205 X10 Y10
G0 F3600 X113.994 Y113.287
M204 S1000
M205 X8 Y8
G1 F1200 X117.419 Y116.712 E30.70053
M204 S2000
M205 X10 Y10
G0 F3600 X116.712 Y116.712
M204 S1000
M205 X8 Y8
G1 F1200 X113.287 Y113.287 E30.90191
M204 S2000
M205 X10 Y10
G0 F3600 X112.58 Y113.287
M204 S1000
M205 X8 Y8
G1 F1200 X116.005 Y116.712 E31.10329
M204 S2000
M205 X10 Y10
G0 F3600 X115.298 Y116.712
M204 S1000
M205 X8 Y8
G1 F1200 X111.873 Y113.287 E31.30466
M204 S2000
M205 X10 Y10
G0 F3600 X111.166 Y113.287
M204 S1000
M205 X8 Y8
G1 F1200 X114.591 Y116.712 E31.50604
M204 S2000
M205 X10 Y10
G0 F3600 X113.884 Y116.712
M204 S1000
M205 X8 Y8
G1 F1200 X110.459 Y113.287 E31.70742
M204 S2000
M205 X10 Y10
G0 F3600 X109.751 Y113.287
M204 S1000
M205 X8 Y8
G1 F1200 X113.177 Y116.712 E31.90882
M204 S2000
M205 X10 Y10
G0 F3600 X112.47 Y116.712
M204 S1000
M205 X8 Y8
G1 F1200 X109.044 Y113.287 E32.11023
M204 S2000
M205 X10 Y10
G0 F3600 X108.337 Y113.286
M204 S1000
M205 X8 Y8
G1 F1200 X111.762 Y116.712 E32.31164
M204 S2000
M205 X10 Y10
G0 F3600 X111.055 Y116.712
M204 S1000
M205 X8 Y8
G1 F1200 X107.629 Y113.286 E32.51307
M204 S2000
M205 X10 Y10
G0 F3600 X106.922 Y113.286
M204 S1000
M205 X8 Y8
G1 F1200 X110.348 Y116.712 E32.71451
M204 S2000
M205 X10 Y10
G0 F3600 X109.641 Y116.712
M204 S1000
M205 X8 Y8
G1 F1200 X106.215 Y113.286 E32.91594
M204 S2000
M205 X10 Y10
G0 F3600 X105.508 Y113.286
M204 S1000
M205 X8 Y8
G1 F1200 X108.934 Y116.712 E33.11738
M204 S2000
M205 X10 Y10
G0 F3600 X108.227 Y116.712
M204 S1000
M205 X8 Y8
G1 F1200 X104.801 Y113.286 E33.31882
M204 S2000
M205 X10 Y10
G0 F3600 X104.094 Y113.286
M204 S1000
M205 X8 Y8
G1 F1200 X107.52 Y116.712 E33.52025
M204 S2000
M205 X10 Y10
G0 F3600 X106.813 Y116.712
M204 S1000
M205 X8 Y8
G1 F1200 X103.387 Y113.286 E33.72169
M204 S2000
M205 X10 Y10
G0 F3600 X102.68 Y113.286
M204 S1000
M205 X8 Y8
G1 F1200 X106.106 Y116.712 E33.92312
M204 S2000
M205 X10 Y10
G0 F3600 X105.399 Y116.712
M204 S1000
M205 X8 Y8
G1 F1200 X101.973 Y113.286 E34.12456
M204 S2000
M205 X10 Y10
G0 F3600 X101.265 Y113.286
M204 S1000
M205 X8 Y8
G1 F1200 X104.691 Y116.712 E34.32599
M204 S2000
M205 X10 Y10
G0 F3600 X103.984 Y116.712
M204 S1000
M205 X8 Y8
G1 F1200 X100.558 Y113.286 E34.52743
M204 S2000
M205 X10 Y10
G0 F3600 X99.851 Y113.286
M204 S1000
M205 X8 Y8
G1 F1200 X103.277 Y116.712 E34.72886
M204 S2000
M205 X10 Y10
G0 F3600 X102.57 Y116.712
M204 S1000
M205 X8 Y8
G1 F1200 X99.143 Y113.286 E34.93033
M204 S2000
M205 X10 Y10
G0 F3600 X98.436 Y113.286
M204 S1000
M205 X8 Y8
G1 F1200 X101.863 Y116.712 E35.1318
M204 S2000
M205 X10 Y10
G0 F3600 X101.156 Y116.712
M204 S1000
M205 X8 Y8
G1 F1200 X97.729 Y113.286 E35.33326
M204 S2000
M205 X10 Y10
G0 F3600 X97.022 Y113.286
M204 S1000
M205 X8 Y8
G1 F1200 X100.449 Y116.712 E35.53473
M204 S2000
M205 X10 Y10
G0 F3600 X99.742 Y116.712
M204 S1000
M205 X8 Y8
G1 F1200 X96.315 Y113.286 E35.73619
M204 S2000
M205 X10 Y10
G0 F3600 X95.608 Y113.286
M204 S1000
