;FLAVOR:Marlin
;TIME:238
;Filament used: 0.192859m
;Layer height: 0.2
;MINX:100.199
;MINY:108.125
;MINZ:0.2
;MAXX:129.844
;MAXY:121.875
;MAXZ:6.4
;TARGET_MACHINE.NAME:Anycubic Kobra
;Generated with Cura_SteamEngine 5.10.1
M140 S60
M105
M190 S60
M104 S200
M105
M109 S200
G21 ;metric values
G90 ;absolute positioning
M82 ;set extruder to absolute mode
M107 ;start with the fan off
M117 Homing X/Y ...
G28 X0 Y0 ;move X/Y to min endstops
M117 Homing Z ...
G28 Z0 ;move Z to min endstops
G1 Z15.0 F240 ;move the platform down 15mm
M117 Heating ...
M104 S[first_layer_temperature]
; set extruder temp
M109 S[first_layer_temperature]
; wait for extruder temp
M117 Start cleaning ...
M420 S1 ; Enable Bed Levelling Mesh
G92 E0 ;zero the extruded length
M413 S0 ; disable power loss recovery - may reduce blobbing and avoid unexpected recovery
; M500 ; store eeprom settings
M117 Intro line ...
G1 Z2.0 F3000 ; Move Z Axis up little to prevent scratching of Heat Bed
G1 X0.1 Y20 Z[first_layer_height] F5000.0 ; Move to start position
G1 X0.1 Y200.0 Z[first_layer_height] F1500.0 E15 ; Draw the first line
G1 X0.4 Y200.0 Z[first_layer_height] F5000.0 ; Move to side a little
G1 X0.4 Y20 Z0.3[first_layer_height] F1500.0 E30 ; Draw the second line
G92 E0 ; Reset Extruder
G1 X5 Y20 Z0.3 F240 ; Move over to prevent blob squish
G92 E0 ; Reset Extruder
M420 S1 ; Enable Bed Levelling Mesh
M117 Printing...
M82 ;absolute extrusion mode
G92 E0
G92 E0
G1 F3600 E-4
;LAYER_COUNT:32
;LAYER:0
M107
M204 S2000
M205 X10 Y10
G0 X101.463 Y109.654 Z0.2
M204 S1000
M205 X8 Y8
;TYPE:SKIRT
G1 F3600 E0
G1 F1200 X102.148 Y109.055 E0.03783
G1 X102.711 Y108.704 E0.06541
G1 X103.43 Y108.389 E0.09805
G1 X104.109 Y108.219 E0.12715
G1 X104.86 Y108.141 E0.15854
G1 X105.765 Y108.125 E0.19617
G1 X124.457 Y108.125 E0.9733
G1 X125.242 Y108.14 E1.00594
G1 X126.023 Y108.233 E1.03864
G1 X126.741 Y108.437 E1.06967
G1 X127.415 Y108.749 E1.10055
G1 X128.021 Y109.154 E1.13085
G1 X128.456 Y109.543 E1.15511
G1 X128.978 Y110.17 E1.18903
G1 X129.332 Y110.751 E1.21732
G1 X129.654 Y111.595 E1.25488
G1 X129.785 Y112.216 E1.28126
G1 X129.839 Y112.8 E1.30565
G1 X129.844 Y116.458 E1.45773
G1 X129.83 Y117.262 E1.49116
G1 X129.768 Y117.884 E1.51715
G1 X129.565 Y118.68 E1.5513
G1 X129.269 Y119.371 E1.58255
G1 X128.816 Y120.051 E1.61652
G1 X128.427 Y120.486 E1.64079
G1 X127.8 Y121.008 E1.6747
G1 X127.22 Y121.361 E1.70293
G1 X126.382 Y121.683 E1.74026
G1 X125.821 Y121.806 E1.76413
G1 X125.119 Y121.872 E1.79345
G1 X111.918 Y121.875 E2.34228
G1 X111.138 Y121.861 E2.37472
G1 X110.452 Y121.787 E2.4034
G1 X109.816 Y121.634 E2.4306
G1 X108.895 Y121.236 E2.47231
G1 X102.767 Y117.156 E2.77839
G1 X102.187 Y116.753 E2.80775
G1 X101.583 Y116.24 E2.8407
G1 X101.102 Y115.674 E2.87158
G1 X100.713 Y115.038 E2.90257
G1 X100.432 Y114.361 E2.93305
G1 X100.273 Y113.725 E2.9603
G1 X100.199 Y112.991 E2.99097
G1 X100.233 Y112.324 E3.01874
G1 X100.4 Y111.5 E3.0537
G1 X100.708 Y110.748 E3.08748
G1 X101.001 Y110.248 E3.11157
G1 X101.463 Y109.654 E3.14286
M204 S2000
M205 X10 Y10
G0 F3600 X101.829 Y109.998
M204 S1000
M205 X8 Y8
G1 F1200 X102.416 Y109.477 E3.17549
G1 X102.912 Y109.162 E3.19992
G1 X103.594 Y108.863 E3.23088
G1 X104.162 Y108.716 E3.25527
G1 X104.869 Y108.641 E3.28483
G1 X105.774 Y108.625 E3.32246
G1 X124.449 Y108.625 E4.09888
G1 X125.187 Y108.637 E4.12956
G1 X125.89 Y108.715 E4.15897
G1 X126.534 Y108.892 E4.18674
G1 X127.14 Y109.167 E4.21441
G1 X127.691 Y109.53 E4.24184
G1 X128.074 Y109.866 E4.26302
G1 X128.551 Y110.43 E4.29373
G1 X128.88 Y110.97 E4.32002
G1 X129.165 Y111.701 E4.35264
G1 X129.287 Y112.262 E4.37651
G1 X129.341 Y112.846 E4.40089
G1 X129.344 Y116.449 E4.55069
G1 X129.33 Y117.253 E4.58412
G1 X129.271 Y117.833 E4.60836
G1 X129.105 Y118.483 E4.63625
G1 X128.827 Y119.132 E4.6656
G1 X128.44 Y119.721 E4.6949
G1 X128.104 Y120.104 E4.71608
G1 X127.54 Y120.581 E4.74679
G1 X127 Y120.91 E4.77308
G1 X126.271 Y121.195 E4.80563
G1 X125.774 Y121.308 E4.82682
G1 X125.072 Y121.374 E4.85613
G1 X111.927 Y121.375 E5.40264
G1 X111.147 Y121.361 E5.43507
G1 X110.569 Y121.301 E5.45923
G1 X109.975 Y121.158 E5.48463
G1 X109.134 Y120.795 E5.52271
G1 X103.052 Y116.745 E5.82651
G1 X102.472 Y116.342 E5.85587
G1 X101.961 Y115.913 E5.88361
G1 X101.526 Y115.41 E5.91126
G1 X101.173 Y114.843 E5.93902
G1 X100.916 Y114.236 E5.96643
G1 X100.77 Y113.672 E5.99065
G1 X100.699 Y113.011 E6.01829
G1 X100.723 Y112.423 E6.04276
G1 X100.88 Y111.648 E6.07563
G1 X101.142 Y110.997 E6.10481
G1 X101.396 Y110.555 E6.126
G1 X101.829 Y109.998 E6.15533
M204 S2000
M205 X10 Y10
G0 F3600 X102.195 Y110.342
M204 S1000
M205 X8 Y8
G1 F1200 X102.689 Y109.896 E6.183
G1 X103.116 Y109.618 E6.20419
G1 X103.724 Y109.346 E6.23188
G1 X104.216 Y109.213 E6.25307
G1 X104.878 Y109.141 E6.28075
G1 X105.783 Y109.125 E6.31838
G1 X124.441 Y109.125 E7.09409
G1 X125.179 Y109.137 E7.12478
G1 X125.762 Y109.198 E7.14915
G1 X126.331 Y109.349 E7.17363
G1 X126.868 Y109.587 E7.19805
G1 X127.361 Y109.906 E7.22246
G1 X127.744 Y110.242 E7.24364
G1 X128.124 Y110.69 E7.26807
G1 X128.43 Y111.193 E7.29254
G1 X128.677 Y111.811 E7.32021
G1 X128.789 Y112.308 E7.34139
G1 X128.843 Y112.892 E7.36578
G1 X128.844 Y116.441 E7.51333
G1 X128.832 Y117.207 E7.54518
G1 X128.785 Y117.714 E7.56635
G1 X128.645 Y118.286 E7.59083
G1 X128.383 Y118.897 E7.61847
G1 X128.064 Y119.391 E7.64292
G1 X127.728 Y119.774 E7.6641
G1 X127.28 Y120.154 E7.68852
G1 X126.777 Y120.46 E7.713
G1 X126.16 Y120.707 E7.74063
G1 X125.663 Y120.82 E7.76182
G1 X125.072 Y120.874 E7.7865
G1 X111.935 Y120.875 E8.33267
G1 X111.194 Y120.863 E8.36348
G1 X110.686 Y120.815 E8.38469
G1 X110.134 Y120.682 E8.4083
G1 X109.373 Y120.354 E8.44275
G1 X103.336 Y116.334 E8.7443
G1 X102.79 Y115.957 E8.77188
G1 X102.336 Y115.582 E8.79636
G1 X101.948 Y115.142 E8.82075
G1 X101.632 Y114.645 E8.84524
G1 X101.399 Y114.106 E8.86965
G1 X101.267 Y113.614 E8.89083
G1 X101.199 Y113.031 E8.91523
G1 X101.223 Y112.443 E8.9397
G1 X101.361 Y111.791 E8.96741
G1 X101.576 Y111.246 E8.99177
G1 X101.83 Y110.804 E9.01296
G1 X102.195 Y110.342 E9.03744
M204 S2000
M205 X10 Y10
G0 F3600 X102.584 Y110.656
M204 S1000
M205 X8 Y8
G1 F1200 X102.962 Y110.315 E9.0586
G1 X103.389 Y110.037 E9.07979
G1 X103.854 Y109.829 E9.10097
G1 X104.346 Y109.696 E9.12215
G1 X104.887 Y109.641 E9.14476
G1 X105.792 Y109.625 E9.18239
G1 X124.434 Y109.625 E9.95744
G1 X125.132 Y109.635 E9.98646
G1 X125.639 Y109.683 E10.00763
G1 X126.133 Y109.808 E10.02882
G1 X126.601 Y110.01 E10.05001
G1 X127.031 Y110.282 E10.07117
G1 X127.414 Y110.618 E10.09235
G1 X127.74 Y111.01 E10.11354
G1 X128 Y111.448 E10.13472
G1 X128.189 Y111.921 E10.1559
G1 X128.301 Y112.418 E10.17708
G1 X128.343 Y112.892 E10.19686
G1 X128.344 Y116.434 E10.34412
G1 X128.334 Y117.161 E10.37435
G1 X128.287 Y117.668 E10.39552
G1 X128.161 Y118.162 E10.41671
G1 X127.96 Y118.63 E10.43789
G1 X127.688 Y119.061 E10.45908
G1 X127.352 Y119.444 E10.48026
G1 X126.96 Y119.77 E10.50146
G1 X126.522 Y120.03 E10.52264
G1 X126.049 Y120.219 E10.54381
G1 X125.552 Y120.332 E10.565
G1 X125.072 Y120.374 E10.58503
G1 X111.942 Y120.375 E11.13092
G1 X111.241 Y120.365 E11.16006
G1 X110.733 Y120.317 E11.18128
G1 X110.256 Y120.197 E11.20173
G1 X109.613 Y119.913 E11.23095
G1 X103.619 Y115.922 E11.53034
G1 X103.104 Y115.568 E11.55632
G1 X102.708 Y115.248 E11.57749
G1 X102.367 Y114.869 E11.59868
G1 X102.089 Y114.442 E11.61987
G1 X101.882 Y113.976 E11.64107
G1 X101.75 Y113.484 E11.66225
G1 X101.696 Y112.978 E11.6834
G1 X101.722 Y112.469 E11.70459
G1 X101.828 Y111.97 E11.7258
G1 X102.01 Y111.495 E11.74695
G1 X102.264 Y111.053 E11.76814
G1 X102.584 Y110.656 E11.78934
M204 S2000
M205 X10 Y10
G1 F3600 E7.78934
;MESH:ballista-pQ.stl
G0 X106.609 Y112.21
G0 X121.528 Y116.127
M204 S1000
M205 X8 Y8
;TYPE:WALL-OUTER
G1 F3600 E11.78934
G1 F1109.1 X121.264 Y116.276 E11.80298
G1 F1087 X120.91 Y116.325 E11.81938
G1 F1111.1 X120.619 Y116.311 E11.83246
G1 F1147.2 X120.267 Y116.179 E11.84881
G1 F1195.2 X120.024 Y116.024 E11.86084
G1 F1200 X119.801 Y115.795 E11.87413
G1 X119.594 Y115.397 E11.89278
G1 X119.53 Y115.038 E11.90794
G1 X119.569 Y114.688 E11.92259
G1 X119.677 Y114.4 E11.93537
G1 X119.834 Y114.161 E11.94726
G1 F1190.5 X120.266 Y113.815 E11.97046
G1 F1136.4 X120.597 Y113.687 E11.98604
G1 F1088.9 X121.129 Y113.692 E12.01041
G1 F1115.2 X121.42 Y113.809 E12.02444
G1 F1176.5 X121.699 Y114.002 E12.03883
G1 F1200 X121.916 Y114.247 E12.05244
G1 X122.053 Y114.489 E12.064
G1 X122.149 Y114.9 E12.08155
G1 X122.126 Y115.265 E12.09675
G1 X121.977 Y115.656 E12.11415
G1 X121.814 Y115.876 E12.12553
G1 F1183.4 X121.528 Y116.127 E12.14157
M204 S2000
M205 X10 Y10
G0 F3600 X121.311 Y116.249
G0 X121.876 Y116.874
M204 S1000
M205 X8 Y8
G1 F1200 X124.842 Y116.874 E12.26488
G1 X124.842 Y113.122 E12.42087
G1 X121.705 Y113.123 E12.5513
G1 F1136.4 X121.218 Y113.151 E12.57271
G1 F1088.9 X120.55 Y113.145 E12.60332
G1 F1136.4 X120.153 Y113.126 E12.62077
G1 F1190.5 X105.723 Y113.122 E13.2255
G1 F1200 X111.356 Y116.874 E13.50688
G1 F1195.2 X120.153 Y116.872 E13.87408
G1 F1147.2 X120.595 Y116.852 E13.89333
G1 F1081.1 X121.315 Y116.839 E13.92656
G1 F1123.6 X121.876 Y116.874 E13.95152
M204 S2000
M205 X10 Y10
G0 F3600 X122.126 Y116.874
G0 X122.004 Y116.374
M204 S1000
M205 X8 Y8
;TYPE:WALL-INNER
G1 F1200 X124.342 Y116.374 E14.04872
G1 X124.342 Y113.622 E14.16313
G1 X122.017 Y113.622 E14.2598
G1 X122.299 Y113.925 E14.27701
G1 X122.546 Y114.34 E14.29708
G1 X122.654 Y114.952 E14.32292
G1 X122.618 Y115.353 E14.33966
G1 X122.476 Y115.773 E14.35809
G1 X122.262 Y116.121 E14.37508
G1 X122.004 Y116.374 E14.3901
M204 S2000
M205 X10 Y10
G0 F3600 X122.674 Y116.015
G0 X121.39 Y116.521
G0 X119.016 Y116.015
G0 X119.669 Y116.374
M204 S1000
M205 X8 Y8
G1 F1200 X119.436 Y116.137 E14.40392
G1 X119.175 Y115.695 E14.42526
G1 X119.104 Y115.494 E14.43412
G1 X119.03 Y115.027 E14.45378
G1 X119.101 Y114.512 E14.47539
G1 X119.209 Y114.224 E14.48818
G1 X119.424 Y113.875 E14.50522
G1 X119.69 Y113.623 E14.52046
G1 X107.376 Y113.622 E15.03241
G1 X111.507 Y116.374 E15.23878
G1 X119.669 Y116.374 E15.57812
M204 S2000
M205 X10 Y10
G0 F3600 X119.016 Y116.064
G0 X118.554 Y114.999
M204 S1000
M205 X8 Y8
;TYPE:SKIN
G1 F1200 X118.592 Y114.61 E15.59437
G1 X118.749 Y114.098 E15.61663
G1 X108.943 Y114.096 E16.02432
G1 X111.648 Y115.898 E16.15945
G1 X118.772 Y115.897 E16.45563
G1 X118.636 Y115.575 E16.47016
G1 X118.554 Y114.999 E16.49435
M204 S2000
M205 X10 Y10
G0 F3600 X118.322 Y114.786
M204 S1000
M205 X8 Y8
G1 F1200 X117.883 Y114.348 E16.52013
M204 S2000
M205 X10 Y10
G0 F3600 X117.176 Y114.348
M204 S1000
M205 X8 Y8
G1 F1200 X118.385 Y115.556 E16.59119
M204 S2000
M205 X10 Y10
G0 F3600 X117.769 Y115.647
M204 S1000
M205 X8 Y8
G1 F1200 X116.469 Y114.348 E16.66759
M204 S2000
M205 X10 Y10
G0 F3600 X115.762 Y114.348
M204 S1000
M205 X8 Y8
G1 F1200 X117.062 Y115.647 E16.744
M204 S2000
M205 X10 Y10
G0 F3600 X116.354 Y115.647
M204 S1000
M205 X8 Y8
G1 F1200 X115.054 Y114.347 E16.82043
M204 S2000
M205 X10 Y10
G0 F3600 X114.347 Y114.347
M204 S1000
M205 X8 Y8
G1 F1200 X115.647 Y115.647 E16.89687
M204 S2000
M205 X10 Y10
G0 F3600 X114.94 Y115.647
M204 S1000
M205 X8 Y8
G1 F1200 X113.64 Y114.347 E16.9733
M204 S2000
M205 X10 Y10
G0 F3600 X112.933 Y114.347
M204 S1000
M205 X8 Y8
G1 F1200 X114.233 Y115.647 E17.04974
M204 S2000
M205 X10 Y10
G0 F3600 X113.526 Y115.647
M204 S1000
M205 X8 Y8
G1 F1200 X112.225 Y114.346 E17.12623
M204 S2000
M205 X10 Y10
G0 F3600 X111.518 Y114.346
M204 S1000
M205 X8 Y8
G1 F1200 X112.819 Y115.647 E17.20273
M204 S2000
M205 X10 Y10
G0 F3600 X112.112 Y115.647
M204 S1000
M205 X8 Y8
G1 F1200 X110.811 Y114.346 E17.27922
M204 S2000
M205 X10 Y10
G0 F3600 X110.769 Y115.012
M204 S1000
M205 X8 Y8
G1 F1200 X110.104 Y114.346 E17.31835
M204 S2000
M205 X10 Y10
G0 F3600 X120.553 Y113.407
G0 X121.588 Y113.564
G0 X123.184 Y114.898
M204 S1000
M205 X8 Y8
G1 F946.4 X123.157 Y115.447 E17.34733
G1 F933.1 X123.031 Y115.826 E17.36868
G1 X123.795 Y115.827 E17.40953
G1 F949.4 X123.806 Y114.999 E17.45304
G1 F955.4 X123.78 Y114.17 E17.49635
G1 F931.7 X123.037 Y114.17 E17.53614
G1 F920.2 X123.11 Y114.355 E17.54692
G1 F940.4 X123.184 Y114.898 E17.576
M204 S2000
M205 X10 Y10
G0 F3600 X123.424 Y114.864
G1 F3600 E13.576
;MESH:NONMESH
G0 F600 X123.424 Y114.864 Z0.4
G0 F3600 X121.588 Y113.564
G0 X106.609 Y113.39
G0 X106.609 Y112.21
G0 X102.584 Y110.656
;TIME_ELAPSED:27.868864
;LAYER:1
M106 S255
M204 S1000
M205 X8 Y8
;TYPE:SKIRT
G1 F3600 E17.576
G1 F1200 X102.962 Y110.315 E17.59716
G1 X103.389 Y110.037 E17.61834
G1 X103.854 Y109.829 E17.63952
G1 X104.346 Y109.696 E17.66071
G1 X104.887 Y109.641 E17.68332
G1 X105.792 Y109.625 E17.72095
G1 X124.434 Y109.625 E18.496
G1 X125.132 Y109.635 E18.52502
G1 X125.639 Y109.683 E18.54619
G1 X126.133 Y109.808 E18.56738
G1 X126.601 Y110.01 E18.58857
G1 X127.031 Y110.282 E18.60972
G1 X127.414 Y110.618 E18.63091
G1 X127.74 Y111.01 E18.6521
G1 X128 Y111.448 E18.67328
G1 X128.189 Y111.921 E18.69446
G1 X128.301 Y112.418 E18.71564
G1 X128.343 Y112.892 E18.73542
G1 X128.344 Y116.434 E18.88268
G1 X128.334 Y117.161 E18.91291
G1 X128.287 Y117.668 E18.93408
G1 X128.161 Y118.162 E18.95527
G1 X127.96 Y118.63 E18.97645
G1 X127.688 Y119.061 E18.99764
G1 X127.352 Y119.444 E19.01882
G1 X126.96 Y119.77 E19.04002
G1 X126.522 Y120.03 E19.06119
G1 X126.049 Y120.219 E19.08237
G1 X125.552 Y120.332 E19.10356
G1 X125.072 Y120.374 E19.12359
G1 X111.942 Y120.375 E19.66947
G1 X111.241 Y120.365 E19.69862
G1 X110.733 Y120.317 E19.71984
G1 X110.256 Y120.197 E19.74028
G1 X109.613 Y119.913 E19.76951
G1 X103.619 Y115.922 E20.0689
G1 X103.104 Y115.568 E20.09488
G1 X102.708 Y115.248 E20.11605
G1 X102.367 Y114.869 E20.13724
G1 X102.089 Y114.442 E20.15843
G1 X101.882 Y113.976 E20.17962
G1 X101.75 Y113.484 E20.2008
G1 X101.696 Y112.978 E20.22196
G1 X101.722 Y112.469 E20.24315
G1 X101.828 Y111.97 E20.26436
G1 X102.01 Y111.495 E20.28551
G1 X102.264 Y111.053 E20.3067
G1 X102.584 Y110.656 E20.3279
M204 S3500
M205 X10 Y10
G1 F3600 E16.3279
;MESH:ballista-pQ.stl
G0 F5400 X106.609 Y112.21
G0 X106.609 Y113.39
G0 X108.536 Y113.962
G0 X108.52 Y113.823
M204 S1000
M205 X8 Y8
;TYPE:FILL
G1 F3600 E20.3279
G1 F1800 X109.481 Y114.784 E20.3844
M204 S3500
M205 X10 Y10
G0 F5400 X109.739 Y114.956
M204 S1000
M205 X8 Y8
G1 F1800 X110.874 Y113.822 E20.45111
M204 S3500
M205 X10 Y10
G0 F5400 X110.287 Y113.823
M204 S1000
M205 X8 Y8
G1 F1800 X112.638 Y116.173 E20.58931
M204 S3500
M205 X10 Y10
G0 F5400 X112.057 Y116.174
M204 S1000
M205 X8 Y8
G1 F1800 X114.409 Y113.822 E20.7276
M204 S3500
M205 X10 Y10
G0 F5400 X113.823 Y113.823
M204 S1000
M205 X8 Y8
G1 F1800 X116.173 Y116.173 E20.86577
M204 S3500
M205 X10 Y10
G0 F5400 X115.593 Y116.174
M204 S1000
M205 X8 Y8
G1 F1800 X117.945 Y113.822 E21.00406
M204 S3500
M205 X10 Y10
G0 F5400 X117.359 Y113.823
M204 S1000
M205 X8 Y8
G1 F1800 X118.884 Y115.348 E21.09372
M204 S3500
M205 X10 Y10
G0 F5400 X118.865 Y114.67
M204 S1000
M205 X8 Y8
G1 F1800 X117.361 Y116.174 E21.18215
M204 S3500
M205 X10 Y10
G0 F5400 X117.941 Y116.173
M204 S1000
M205 X8 Y8
G1 F1800 X115.591 Y113.823 E21.32032
M204 S3500
M205 X10 Y10
G0 F5400 X116.177 Y113.822
M204 S1000
M205 X8 Y8
G1 F1800 X113.825 Y116.174 E21.45861
M204 S3500
M205 X10 Y10
G0 F5400 X114.406 Y116.173
M204 S1000
M205 X8 Y8
G1 F1800 X112.055 Y113.823 E21.59681
M204 S3500
M205 X10 Y10
G0 F5400 X112.641 Y113.822
M204 S1000
M205 X8 Y8
G1 F1800 X110.8 Y115.664 E21.70508
G1 X110.712 Y115.752
M204 S3500
M205 X10 Y10
G0 F5400 X110.869 Y115.517
G0 X109.106 Y113.985
G0 X109.106 Y113.822
M204 S1000
M205 X8 Y8
G1 F1800 X108.678 Y114.25 E21.73025
M204 S3500
M205 X10 Y10
G0 F5400 X108.767 Y114.116
G0 X121.021 Y113.391
G0 X122.737 Y113.946
G0 X122.661 Y113.822
M204 S1000
M205 X8 Y8
G1 F1800 X124.142 Y115.303 E21.81732
M204 S3500
M205 X10 Y10
G0 F5400 X124.142 Y114.696
M204 S1000
M205 X8 Y8
G1 F1800 X122.665 Y116.173 E21.90417
M204 S3500
M205 X10 Y10
G0 F5400 X122.726 Y115.655
M204 S1000
M205 X8 Y8
G1 F1800 X123.244 Y116.173 E21.93462
M204 S3500
M205 X10 Y10
G0 F5400 X123.244 Y116.015
G0 X122.902 Y114.307
G0 X122.727 Y114.343
M204 S1000
M205 X8 Y8
G1 F1800 X123.248 Y113.822 E21.96526
M204 S3500
M205 X10 Y10
G0 F5400 X123.248 Y113.985
G0 X122.059 Y116.064
