;FLAVOR:Marlin
;TIME:3018
;Filament used: 3.04284m
;Layer height: 0.2
;MINX:108.562
;MINY:14
;MINZ:0.2
;MAXX:121.438
;MAXY:216
;MAXZ:6.4
;TARGET_MACHINE.NAME:Anycubic Kobra
;Generated with Cura_SteamEngine 5.10.1
M140 S60
M105
M190 S60
M104 S200
M105
M109 S200
G21 ;metric values
G90 ;absolute positioning
M82 ;set extruder to absolute mode
M107 ;start with the fan off
M117 Homing X/Y ...
G28 X0 Y0 ;move X/Y to min endstops
M117 Homing Z ...
G28 Z0 ;move Z to min endstops
G1 Z15.0 F240 ;move the platform down 15mm
M117 Heating ...
M104 S[first_layer_temperature]
; set extruder temp
M109 S[first_layer_temperature]
; wait for extruder temp
M117 Start cleaning ...
M420 S1 ; Enable Bed Levelling Mesh
G92 E0 ;zero the extruded length
M413 S0 ; disable power loss recovery - may reduce blobbing and avoid unexpected recovery
; M500 ; store eeprom settings
M117 Intro line ...
G1 Z2.0 F3000 ; Move Z Axis up little to prevent scratching of Heat Bed
G1 X0.1 Y20 Z[first_layer_height] F5000.0 ; Move to start position
G1 X0.1 Y200.0 Z[first_layer_height] F1500.0 E15 ; Draw the first line
G1 X0.4 Y200.0 Z[first_layer_height] F5000.0 ; Move to side a little
G1 X0.4 Y20 Z0.3[first_layer_height] F1500.0 E30 ; Draw the second line
G92 E0 ; Reset Extruder
G1 X5 Y20 Z0.3 F240 ; Move over to prevent blob squish
G92 E0 ; Reset Extruder
M420 S1 ; Enable Bed Levelling Mesh
M117 Printing...
M82 ;absolute extrusion mode
G92 E0
G92 E0
G1 F3600 E-4
;LAYER_COUNT:32
;LAYER:0
M107
M204 S2000
M205 X10 Y10
G0 X108.62 Y16.703 Z0.2
M204 S1000
M205 X8 Y8
;TYPE:SKIRT
G1 F3600 E0
G1 F1200 X108.746 Y16.209 E0.0212
G1 X108.948 Y15.741 E0.04239
G1 X109.221 Y15.311 E0.06356
G1 X109.557 Y14.928 E0.08475
G1 X109.949 Y14.603 E0.10592
G1 X110.387 Y14.343 E0.12709
G1 X110.861 Y14.154 E0.14831
G1 X111.358 Y14.042 E0.16949
G1 X111.835 Y14.001 E0.18939
G1 X117.528 Y14 E0.42608
G1 X118.226 Y14.01 E0.4551
G1 X118.733 Y14.058 E0.47628
G1 X119.227 Y14.183 E0.49746
G1 X119.695 Y14.385 E0.51865
G1 X120.125 Y14.657 E0.53981
G1 X120.508 Y14.993 E0.56099
G1 X120.834 Y15.385 E0.58219
G1 X121.094 Y15.823 E0.60336
G1 X121.283 Y16.296 E0.62454
G1 X121.395 Y16.793 E0.64572
G1 X121.437 Y17.272 E0.66571
G1 X121.438 Y212.059 E8.76402
G1 X121.428 Y212.786 E8.79424
G1 X121.381 Y213.293 E8.81541
G1 X121.255 Y213.787 E8.83661
G1 X121.054 Y214.255 E8.85778
G1 X120.782 Y214.686 E8.87897
G1 X120.446 Y215.069 E8.90015
G1 X120.054 Y215.395 E8.92135
G1 X119.616 Y215.655 E8.94253
G1 X119.143 Y215.844 E8.9637
G1 X118.646 Y215.957 E8.9849
G1 X118.167 Y215.999 E9.00489
G1 X112.472 Y216 E9.24166
G1 X111.774 Y215.99 E9.27068
G1 X111.267 Y215.942 E9.29185
G1 X110.773 Y215.817 E9.31304
G1 X110.305 Y215.615 E9.33423
G1 X109.875 Y215.343 E9.35538
G1 X109.492 Y215.007 E9.37657
G1 X109.166 Y214.615 E9.39776
G1 X108.906 Y214.177 E9.41894
G1 X108.717 Y213.704 E9.44012
G1 X108.605 Y213.207 E9.4613
G1 X108.563 Y212.725 E9.48141
G1 X108.562 Y17.875 E17.58233
G1 X108.572 Y17.21 E17.60998
G1 X108.62 Y16.703 E17.63116
M204 S2000
M205 X10 Y10
G1 F3600 E13.63116
;MESH:ballista-pT.stl
G0 X111.147 Y17.774
G0 X117.938 Y212.498
M204 S1000
M205 X8 Y8
;TYPE:WALL-OUTER
G1 F3600 E17.63116
G1 F1200 X117.938 Y17.498 E25.73832
G1 X112.062 Y17.498 E25.98261
G1 X112.062 Y212.498 E34.08977
G1 X117.938 Y212.498 E34.33406
M204 S2000
M205 X10 Y10
G0 F3600 X117.938 Y212.248
G0 X117.438 Y211.998
M204 S1000
M205 X8 Y8
;TYPE:WALL-INNER
G1 F1200 X117.438 Y17.998 E42.39965
G1 X112.562 Y17.998 E42.60237
G1 X112.562 Y211.998 E50.66795
G1 X117.438 Y211.998 E50.87067
M204 S2000
M205 X10 Y10
G0 F3600 X116.962 Y211.522
M204 S1000
M205 X8 Y8
;TYPE:SKIN
G1 F1200 X116.962 Y18.47 E58.89684
G1 X113.034 Y18.47 E59.06015
G1 X113.034 Y211.522 E67.08632
G1 X116.962 Y211.522 E67.24962
M204 S2000
M205 X10 Y10
G0 F3600 X113.691 Y211.272
M204 S1000
M205 X8 Y8
G1 F1200 X113.284 Y210.865 E67.27355
M204 S2000
M205 X10 Y10
G0 F3600 X113.284 Y210.158
M204 S1000
M205 X8 Y8
G1 F1200 X114.399 Y211.272 E67.33908
M204 S2000
M205 X10 Y10
G0 F3600 X115.106 Y211.272
M204 S1000
M205 X8 Y8
G1 F1200 X113.284 Y209.451 E67.44618
M204 S2000
M205 X10 Y10
G0 F3600 X113.284 Y208.744
M204 S1000
M205 X8 Y8
G1 F1200 X115.813 Y211.272 E67.59485
M204 S2000
M205 X10 Y10
G0 F3600 X116.52 Y211.272
M204 S1000
M205 X8 Y8
G1 F1200 X113.284 Y208.036 E67.78511
M204 S2000
M205 X10 Y10
G0 F3600 X113.284 Y207.329
M204 S1000
M205 X8 Y8
G1 F1200 X116.712 Y210.757 E67.98666
M204 S2000
M205 X10 Y10
G0 F3600 X116.712 Y210.05
M204 S1000
M205 X8 Y8
G1 F1200 X113.284 Y206.622 E68.18822
M204 S2000
M205 X10 Y10
G0 F3600 X113.284 Y205.915
M204 S1000
M205 X8 Y8
G1 F1200 X116.712 Y209.343 E68.38977
M204 S2000
M205 X10 Y10
G0 F3600 X116.712 Y208.636
M204 S1000
M205 X8 Y8
G1 F1200 X113.284 Y205.208 E68.59132
M204 S2000
M205 X10 Y10
G0 F3600 X113.284 Y204.501
M204 S1000
M205 X8 Y8
G1 F1200 X116.712 Y207.929 E68.79288
M204 S2000
M205 X10 Y10
G0 F3600 X116.712 Y207.222
M204 S1000
M205 X8 Y8
G1 F1200 X113.284 Y203.794 E68.99443
M204 S2000
M205 X10 Y10
G0 F3600 X113.284 Y203.087
M204 S1000
M205 X8 Y8
G1 F1200 X116.712 Y206.515 E69.19598
M204 S2000
M205 X10 Y10
G0 F3600 X116.712 Y205.808
M204 S1000
M205 X8 Y8
G1 F1200 X113.284 Y202.38 E69.39754
M204 S2000
M205 X10 Y10
G0 F3600 X113.284 Y201.673
M204 S1000
M205 X8 Y8
G1 F1200 X116.712 Y205.101 E69.59909
M204 S2000
M205 X10 Y10
G0 F3600 X116.712 Y204.393
M204 S1000
M205 X8 Y8
G1 F1200 X113.284 Y200.965 E69.80064
M204 S2000
M205 X10 Y10
G0 F3600 X113.284 Y200.258
M204 S1000
M205 X8 Y8
G1 F1200 X116.712 Y203.686 E70.0022
M204 S2000
M205 X10 Y10
G0 F3600 X116.712 Y202.979
M204 S1000
M205 X8 Y8
G1 F1200 X113.284 Y199.551 E70.20375
M204 S2000
M205 X10 Y10
G0 F3600 X113.284 Y198.844
M204 S1000
M205 X8 Y8
G1 F1200 X116.712 Y202.272 E70.4053
M204 S2000
M205 X10 Y10
G0 F3600 X116.712 Y201.565
M204 S1000
M205 X8 Y8
G1 F1200 X113.284 Y198.137 E70.60686
M204 S2000
M205 X10 Y10
G0 F3600 X113.284 Y197.43
M204 S1000
M205 X8 Y8
G1 F1200 X116.712 Y200.858 E70.80841
M204 S2000
M205 X10 Y10
G0 F3600 X116.712 Y200.151
M204 S1000
M205 X8 Y8
G1 F1200 X113.284 Y196.723 E71.00996
M204 S2000
M205 X10 Y10
G0 F3600 X113.284 Y196.016
M204 S1000
M205 X8 Y8
G1 F1200 X116.712 Y199.444 E71.21152
M204 S2000
M205 X10 Y10
G0 F3600 X116.712 Y198.737
M204 S1000
M205 X8 Y8
G1 F1200 X113.284 Y195.309 E71.41307
M204 S2000
M205 X10 Y10
G0 F3600 X113.284 Y194.601
M204 S1000
M205 X8 Y8
G1 F1200 X116.712 Y198.029 E71.61462
M204 S2000
M205 X10 Y10
G0 F3600 X116.712 Y197.322
M204 S1000
M205 X8 Y8
G1 F1200 X113.284 Y193.894 E71.81618
M204 S2000
M205 X10 Y10
G0 F3600 X113.284 Y193.187
M204 S1000
M205 X8 Y8
G1 F1200 X116.712 Y196.615 E72.01773
M204 S2000
M205 X10 Y10
G0 F3600 X116.712 Y195.908
M204 S1000
M205 X8 Y8
G1 F1200 X113.284 Y192.48 E72.21928
M204 S2000
M205 X10 Y10
G0 F3600 X113.284 Y191.773
M204 S1000
M205 X8 Y8
G1 F1200 X116.712 Y195.201 E72.42084
M204 S2000
M205 X10 Y10
G0 F3600 X116.712 Y194.494
M204 S1000
M205 X8 Y8
G1 F1200 X113.284 Y191.066 E72.62239
M204 S2000
M205 X10 Y10
G0 F3600 X113.284 Y190.359
M204 S1000
M205 X8 Y8
G1 F1200 X116.712 Y193.787 E72.82394
M204 S2000
M205 X10 Y10
G0 F3600 X116.712 Y193.08
M204 S1000
M205 X8 Y8
G1 F1200 X113.284 Y189.652 E73.0255
M204 S2000
M205 X10 Y10
G0 F3600 X113.284 Y188.945
M204 S1000
M205 X8 Y8
G1 F1200 X116.712 Y192.373 E73.22705
M204 S2000
M205 X10 Y10
G0 F3600 X116.712 Y191.666
M204 S1000
M205 X8 Y8
G1 F1200 X113.284 Y188.237 E73.42863
M204 S2000
M205 X10 Y10
G0 F3600 X113.284 Y187.53
M204 S1000
M205 X8 Y8
G1 F1200 X116.712 Y190.958 E73.63018
M204 S2000
M205 X10 Y10
G0 F3600 X116.712 Y190.251
M204 S1000
M205 X8 Y8
G1 F1200 X113.284 Y186.823 E73.83174
M204 S2000
M205 X10 Y10
G0 F3600 X113.284 Y186.116
M204 S1000
M205 X8 Y8
G1 F1200 X116.712 Y189.544 E74.03329
M204 S2000
M205 X10 Y10
G0 F3600 X116.712 Y188.837
M204 S1000
M205 X8 Y8
G1 F1200 X113.284 Y185.409 E74.23484
M204 S2000
M205 X10 Y10
G0 F3600 X113.284 Y184.702
M204 S1000
M205 X8 Y8
G1 F1200 X116.712 Y188.13 E74.4364
M204 S2000
M205 X10 Y10
G0 F3600 X116.712 Y187.423
M204 S1000
M205 X8 Y8
G1 F1200 X113.284 Y183.995 E74.63795
M204 S2000
M205 X10 Y10
G0 F3600 X113.284 Y183.288
M204 S1000
M205 X8 Y8
G1 F1200 X116.712 Y186.716 E74.8395
M204 S2000
M205 X10 Y10
G0 F3600 X116.712 Y186.009
M204 S1000
M205 X8 Y8
G1 F1200 X113.284 Y182.581 E75.04106
M204 S2000
M205 X10 Y10
G0 F3600 X113.284 Y181.874
M204 S1000
M205 X8 Y8
G1 F1200 X116.712 Y185.302 E75.24261
M204 S2000
M205 X10 Y10
G0 F3600 X116.712 Y184.594
M204 S1000
M205 X8 Y8
G1 F1200 X113.284 Y181.166 E75.44416
M204 S2000
M205 X10 Y10
G0 F3600 X113.284 Y180.459
M204 S1000
M205 X8 Y8
G1 F1200 X116.712 Y183.887 E75.64572
M204 S2000
M205 X10 Y10
G0 F3600 X116.712 Y183.18
M204 S1000
M205 X8 Y8
G1 F1200 X113.284 Y179.752 E75.84727
M204 S2000
M205 X10 Y10
G0 F3600 X113.284 Y179.045
M204 S1000
M205 X8 Y8
G1 F1200 X116.712 Y182.473 E76.04882
M204 S2000
M205 X10 Y10
G0 F3600 X116.712 Y181.766
M204 S1000
M205 X8 Y8
G1 F1200 X113.284 Y178.338 E76.25038
M204 S2000
M205 X10 Y10
G0 F3600 X113.284 Y177.631
M204 S1000
M205 X8 Y8
G1 F1200 X116.712 Y181.059 E76.45193
M204 S2000
M205 X10 Y10
G0 F3600 X116.712 Y180.352
M204 S1000
M205 X8 Y8
G1 F1200 X113.284 Y176.924 E76.65348
M204 S2000
M205 X10 Y10
G0 F3600 X113.284 Y176.217
M204 S1000
M205 X8 Y8
G1 F1200 X116.712 Y179.645 E76.85504
M204 S2000
M205 X10 Y10
G0 F3600 X116.712 Y178.938
M204 S1000
M205 X8 Y8
G1 F1200 X113.284 Y175.51 E77.05659
M204 S2000
M205 X10 Y10
G0 F3600 X113.284 Y174.802
M204 S1000
M205 X8 Y8
G1 F1200 X116.712 Y178.231 E77.25817
M204 S2000
M205 X10 Y10
G0 F3600 X116.712 Y177.523
M204 S1000
M205 X8 Y8
G1 F1200 X113.284 Y174.095 E77.45973
M204 S2000
M205 X10 Y10
G0 F3600 X113.284 Y173.388
M204 S1000
M205 X8 Y8
G1 F1200 X116.712 Y176.816 E77.66128
M204 S2000
M205 X10 Y10
G0 F3600 X116.712 Y176.109
M204 S1000
M205 X8 Y8
G1 F1200 X113.284 Y172.681 E77.86283
M204 S2000
M205 X10 Y10
G0 F3600 X113.284 Y171.974
M204 S1000
M205 X8 Y8
G1 F1200 X116.712 Y175.402 E78.06439
M204 S2000
M205 X10 Y10
G0 F3600 X116.712 Y174.695
M204 S1000
M205 X8 Y8
G1 F1200 X113.284 Y171.267 E78.26594
M204 S2000
M205 X10 Y10
G0 F3600 X113.284 Y170.56
M204 S1000
M205 X8 Y8
G1 F1200 X116.712 Y173.988 E78.46749
M204 S2000
M205 X10 Y10
G0 F3600 X116.712 Y173.281
M204 S1000
M205 X8 Y8
G1 F1200 X113.284 Y169.853 E78.66905
M204 S2000
M205 X10 Y10
G0 F3600 X113.284 Y169.146
M204 S1000
M205 X8 Y8
G1 F1200 X116.712 Y172.574 E78.8706
M204 S2000
M205 X10 Y10
G0 F3600 X116.712 Y171.867
M204 S1000
M205 X8 Y8
G1 F1200 X113.284 Y168.438 E79.07218
M204 S2000
M205 X10 Y10
G0 F3600 X113.284 Y167.731
M204 S1000
M205 X8 Y8
G1 F1200 X116.712 Y171.159 E79.27373
M204 S2000
M205 X10 Y10
G0 F3600 X116.712 Y170.452
M204 S1000
M205 X8 Y8
G1 F1200 X113.284 Y167.024 E79.47529
M204 S2000
M205 X10 Y10
G0 F3600 X113.284 Y166.317
M204 S1000
M205 X8 Y8
G1 F1200 X116.712 Y169.745 E79.67684
M204 S2000
M205 X10 Y10
G0 F3600 X116.712 Y169.038
M204 S1000
M205 X8 Y8
G1 F1200 X113.284 Y165.61 E79.87839
M204 S2000
M205 X10 Y10
G0 F3600 X113.284 Y164.903
M204 S1000
M205 X8 Y8
G1 F1200 X116.712 Y168.331 E80.07995
M204 S2000
M205 X10 Y10
G0 F3600 X116.712 Y167.624
M204 S1000
M205 X8 Y8
G1 F1200 X113.284 Y164.196 E80.2815
M204 S2000
M205 X10 Y10
G0 F3600 X113.284 Y163.489
M204 S1000
M205 X8 Y8
G1 F1200 X116.712 Y166.917 E80.48305
M204 S2000
M205 X10 Y10
G0 F3600 X116.712 Y166.21
M204 S1000
M205 X8 Y8
G1 F1200 X113.284 Y162.782 E80.68461
M204 S2000
M205 X10 Y10
G0 F3600 X113.284 Y162.075
M204 S1000
M205 X8 Y8
G1 F1200 X116.712 Y165.503 E80.88616
M204 S2000
M205 X10 Y10
G0 F3600 X116.712 Y164.795
M204 S1000
M205 X8 Y8
G1 F1200 X113.284 Y161.367 E81.08771
M204 S2000
M205 X10 Y10
G0 F3600 X113.284 Y160.66
M204 S1000
M205 X8 Y8
G1 F1200 X116.712 Y164.088 E81.28927
M204 S2000
M205 X10 Y10
G0 F3600 X116.712 Y163.381
M204 S1000
M205 X8 Y8
G1 F1200 X113.284 Y159.953 E81.49082
M204 S2000
M205 X10 Y10
G0 F3600 X113.284 Y159.246
M204 S1000
M205 X8 Y8
G1 F1200 X116.712 Y162.674 E81.69237
M204 S2000
M205 X10 Y10
G0 F3600 X116.712 Y161.967
M204 S1000
M205 X8 Y8
G1 F1200 X113.284 Y158.539 E81.89393
M204 S2000
M205 X10 Y10
G0 F3600 X113.284 Y157.832
M204 S1000
M205 X8 Y8
G1 F1200 X116.712 Y161.26 E82.09548
M204 S2000
M205 X10 Y10
G0 F3600 X116.712 Y160.553
M204 S1000
M205 X8 Y8
G1 F1200 X113.284 Y157.125 E82.29703
M204 S2000
M205 X10 Y10
G0 F3600 X113.284 Y156.418
M204 S1000
M205 X8 Y8
G1 F1200 X116.712 Y159.846 E82.49859
M204 S2000
M205 X10 Y10
G0 F3600 X116.712 Y159.139
M204 S1000
M205 X8 Y8
G1 F1200 X113.284 Y155.711 E82.70014
M204 S2000
M205 X10 Y10
G0 F3600 X113.284 Y155.003
M204 S1000
M205 X8 Y8
G1 F1200 X116.712 Y158.432 E82.90172
M204 S2000
M205 X10 Y10
G0 F3600 X116.712 Y157.724
M204 S1000
M205 X8 Y8
G1 F1200 X113.284 Y154.296 E83.10328
M204 S2000
M205 X10 Y10
G0 F3600 X113.284 Y153.589
M204 S1000
M205 X8 Y8
G1 F1200 X116.712 Y157.017 E83.30483
M204 S2000
M205 X10 Y10
G0 F3600 X116.712 Y156.31
M204 S1000
M205 X8 Y8
G1 F1200 X113.284 Y152.882 E83.50638
M204 S2000
M205 X10 Y10
G0 F3600 X113.284 Y152.175
M204 S1000
M205 X8 Y8
G1 F1200 X116.712 Y155.603 E83.70794
M204 S2000
M205 X10 Y10
G0 F3600 X116.712 Y154.896
M204 S1000
M205 X8 Y8
G1 F1200 X113.284 Y151.468 E83.90949
M204 S2000
M205 X10 Y10
G0 F3600 X113.284 Y150.761
M204 S1000
M205 X8 Y8
G1 F1200 X116.712 Y154.189 E84.11104
M204 S2000
M205 X10 Y10
G0 F3600 X116.712 Y153.482
M204 S1000
M205 X8 Y8
G1 F1200 X113.284 Y150.054 E84.3126
M204 S2000
M205 X10 Y10
G0 F3600 X113.284 Y149.347
M204 S1000
M205 X8 Y8
G1 F1200 X116.712 Y152.775 E84.51415
M204 S2000
M205 X10 Y10
G0 F3600 X116.712 Y152.068
M204 S1000
M205 X8 Y8
G1 F1200 X113.284 Y148.64 E84.7157
M204 S2000
M205 X10 Y10
G0 F3600 X113.284 Y147.932
M204 S1000
M205 X8 Y8
G1 F1200 X116.712 Y151.36 E84.91726
M204 S2000
M205 X10 Y10
G0 F3600 X116.712 Y150.653
M204 S1000
M205 X8 Y8
G1 F1200 X113.284 Y147.225 E85.11881
M204 S2000
M205 X10 Y10
G0 F3600 X113.284 Y146.518
M204 S1000
M205 X8 Y8
G1 F1200 X116.712 Y149.946 E85.32036
M204 S2000
M205 X10 Y10
G0 F3600 X116.712 Y149.239
M204 S1000
M205 X8 Y8
G1 F1200 X113.284 Y145.811 E85.52192
M204 S2000
M205 X10 Y10
G0 F3600 X113.284 Y145.104
M204 S1000
M205 X8 Y8
G1 F1200 X116.712 Y148.532 E85.72347
M204 S2000
M205 X10 Y10
G0 F3600 X116.712 Y147.825
M204 S1000
M205 X8 Y8
G1 F1200 X113.284 Y144.397 E85.92502
M204 S2000
M205 X10 Y10
G0 F3600 X113.284 Y143.69
M204 S1000
M205 X8 Y8
G1 F1200 X116.712 Y147.118 E86.12658
M204 S2000
M205 X10 Y10
G0 F3600 X116.712 Y146.411
M204 S1000
M205 X8 Y8
G1 F1200 X113.284 Y142.983 E86.32813
M204 S2000
M205 X10 Y10
G0 F3600 X113.284 Y142.276
M204 S1000
M205 X8 Y8
G1 F1200 X116.712 Y145.704 E86.52968
M204 S2000
M205 X10 Y10
G0 F3600 X116.712 Y144.996
M204 S1000
M205 X8 Y8
G1 F1200 X113.284 Y141.568 E86.73123
M204 S2000
M205 X10 Y10
G0 F3600 X113.284 Y140.861
M204 S1000
M205 X8 Y8
G1 F1200 X116.712 Y144.289 E86.93279
M204 S2000
M205 X10 Y10
G0 F3600 X116.712 Y143.582
M204 S1000
M205 X8 Y8
G1 F1200 X113.284 Y140.154 E87.13434
M204 S2000
M205 X10 Y10
G0 F3600 X113.284 Y139.447
M204 S1000
M205 X8 Y8
G1 F1200 X116.712 Y142.875 E87.33589
M204 S2000
M205 X10 Y10
G0 F3600 X116.712 Y142.168
M204 S1000
M205 X8 Y8
G1 F1200 X113.284 Y138.74 E87.53745
M204 S2000
M205 X10 Y10
G0 F3600 X113.284 Y138.033
M204 S1000
M205 X8 Y8
G1 F1200 X116.712 Y141.461 E87.739
M204 S2000
M205 X10 Y10
G0 F3600 X116.712 Y140.754
M204 S1000
M205 X8 Y8
G1 F1200 X113.284 Y137.326 E87.94055
M204 S2000
M205 X10 Y10
G0 F3600 X113.284 Y136.619
M204 S1000
M205 X8 Y8
G1 F1200 X116.712 Y140.047 E88.14211
M204 S2000
M205 X10 Y10
G0 F3600 X116.712 Y139.34
M204 S1000
M205 X8 Y8
G1 F1200 X113.284 Y135.912 E88.34366
M204 S2000
M205 X10 Y10
G0 F3600 X113.284 Y135.204
M204 S1000
M205 X8 Y8
G1 F1200 X116.712 Y138.633 E88.54524
M204 S2000
M205 X10 Y10
G0 F3600 X116.712 Y137.925
M204 S1000
M205 X8 Y8
G1 F1200 X113.284 Y134.497 E88.7468
M204 S2000
M205 X10 Y10
G0 F3600 X113.284 Y133.79
M204 S1000
M205 X8 Y8
G1 F1200 X116.712 Y137.218 E88.94835
M204 S2000
M205 X10 Y10
G0 F3600 X116.712 Y136.511
M204 S1000
M205 X8 Y8
G1 F1200 X113.284 Y133.083 E89.1499
M204 S2000
M205 X10 Y10
G0 F3600 X113.284 Y132.376
M204 S1000
M205 X8 Y8
G1 F1200 X116.712 Y135.804 E89.35146
