;FLAVOR:Marlin
;TIME:1939
;Filament used: 2.19031m
;Layer height: 0.2
;MINX:104.875
;MINY:74.063
;MINZ:0.2
;MAXX:125.125
;MAXY:155.929
;MAXZ:6.4
;TARGET_MACHINE.NAME:Anycubic Kobra
;Generated with Cura_SteamEngine 5.10.1
M140 S60
M105
M190 S60
M104 S200
M105
M109 S200
G21 ;metric values
G90 ;absolute positioning
M82 ;set extruder to absolute mode
M107 ;start with the fan off
M117 Homing X/Y ...
G28 X0 Y0 ;move X/Y to min endstops
M117 Homing Z ...
G28 Z0 ;move Z to min endstops
G1 Z15.0 F240 ;move the platform down 15mm
M117 Heating ...
M104 S[first_layer_temperature]
; set extruder temp
M109 S[first_layer_temperature]
; wait for extruder temp
M117 Start cleaning ...
M420 S1 ; Enable Bed Levelling Mesh
G92 E0 ;zero the extruded length
M413 S0 ; disable power loss recovery - may reduce blobbing and avoid unexpected recovery
; M500 ; store eeprom settings
M117 Intro line ...
G1 Z2.0 F3000 ; Move Z Axis up little to prevent scratching of Heat Bed
G1 X0.1 Y20 Z[first_layer_height] F5000.0 ; Move to start position
G1 X0.1 Y200.0 Z[first_layer_height] F1500.0 E15 ; Draw the first line
G1 X0.4 Y200.0 Z[first_layer_height] F5000.0 ; Move to side a little
G1 X0.4 Y20 Z0.3[first_layer_height] F1500.0 E30 ; Draw the second line
G92 E0 ; Reset Extruder
G1 X5 Y20 Z0.3 F240 ; Move over to prevent blob squish
G92 E0 ; Reset Extruder
M420 S1 ; Enable Bed Levelling Mesh
M117 Printing...
M82 ;absolute extrusion mode
G92 E0
G92 E0
G1 F3600 E-4
;LAYER_COUNT:32
;LAYER:0
M107
M204 S2000
M205 X10 Y10
G0 X105.658 Y75.544 Z0.2
M204 S1000
M205 X8 Y8
;TYPE:SKIRT
G1 F3600 E0
G1 F1200 X106.051 Y75.106 E0.02447
G1 X106.507 Y74.736 E0.04888
G1 X106.945 Y74.476 E0.07006
G1 X107.564 Y74.229 E0.09776
G1 X108.061 Y74.117 E0.11895
G1 X108.649 Y74.064 E0.14349
G1 X120.722 Y74.063 E0.64543
G1 X121.46 Y74.075 E0.67611
G1 X122.043 Y74.136 E0.70048
G1 X122.612 Y74.287 E0.72496
G1 X123.149 Y74.525 E0.74938
G1 X123.642 Y74.844 E0.77379
G1 X124.025 Y75.18 E0.79498
G1 X124.405 Y75.628 E0.8194
G1 X124.711 Y76.131 E0.84388
G1 X124.958 Y76.749 E0.87155
G1 X125.07 Y77.246 E0.89273
G1 X125.124 Y77.835 E0.91732
G1 X125.125 Y145.118 E3.71462
G1 X125.107 Y146.397 E3.7678
G1 X125.027 Y147.164 E3.79986
G1 X124.871 Y148.084 E3.83866
G1 X124.665 Y148.802 E3.86971
G1 X124.318 Y149.801 E3.91368
G1 X123.686 Y150.996 E3.96988
G1 X123.196 Y151.741 E4.00696
G1 X122.655 Y152.43 E4.04338
G1 X122.065 Y153.058 E4.0792
G1 X121.492 Y153.575 E4.11129
G1 X120.99 Y153.967 E4.13777
G1 X120.495 Y154.309 E4.16278
G1 X119.96 Y154.636 E4.18885
G1 X119.421 Y154.913 E4.21404
G1 X118.853 Y155.162 E4.23983
G1 X118.078 Y155.448 E4.27417
G1 X117.408 Y155.637 E4.30311
G1 X116.859 Y155.755 E4.32646
G1 X116.365 Y155.835 E4.34727
G1 X115.488 Y155.925 E4.38392
G1 X114.542 Y155.929 E4.42325
G1 X113.488 Y155.825 E4.46728
G1 X112.53 Y155.623 E4.50799
G1 X111.894 Y155.441 E4.53549
G1 X111.221 Y155.199 E4.56522
G1 X110.5 Y154.878 E4.59804
G1 X109.641 Y154.39 E4.63911
G1 X108.776 Y153.803 E4.68257
G1 X108.255 Y153.354 E4.71117
G1 X107.563 Y152.682 E4.75127
G1 X106.972 Y151.962 E4.79
G1 X106.653 Y151.526 E4.81246
G1 X106.295 Y150.962 E4.84023
G1 X105.841 Y150.131 E4.8796
G1 X105.611 Y149.581 E4.90439
G1 X105.427 Y149.089 E4.92622
G1 X105.202 Y148.385 E4.95695
G1 X105.038 Y147.585 E4.9909
G1 X104.919 Y146.798 E5.02399
G1 X104.875 Y144.793 E5.10737
G1 X104.875 Y78.43 E7.86643
G1 X104.887 Y77.726 E7.8957
G1 X104.935 Y77.219 E7.91687
G1 X105.1 Y76.574 E7.94455
G1 X105.339 Y76.036 E7.96903
G1 X105.658 Y75.544 E7.9934
M204 S2000
M205 X10 Y10
G0 F3600 X106.034 Y75.874
M204 S1000
M205 X8 Y8
G1 F1200 X106.37 Y75.491 E8.01459
G1 X106.762 Y75.166 E8.03576
G1 X107.2 Y74.906 E8.05693
G1 X107.674 Y74.717 E8.07815
G1 X108.171 Y74.605 E8.09933
G1 X108.649 Y74.564 E8.11928
G1 X120.715 Y74.563 E8.62092
G1 X121.413 Y74.573 E8.64994
G1 X121.92 Y74.621 E8.67112
G1 X122.414 Y74.746 E8.6923
G1 X122.882 Y74.948 E8.7135
G1 X123.312 Y75.22 E8.73465
G1 X123.695 Y75.556 E8.75583
G1 X124.021 Y75.948 E8.77703
G1 X124.281 Y76.386 E8.7982
G1 X124.47 Y76.859 E8.81938
G1 X124.582 Y77.356 E8.84056
G1 X124.624 Y77.835 E8.86055
G1 X124.625 Y145.111 E11.65756
G1 X124.607 Y146.39 E11.71074
G1 X124.534 Y147.082 E11.73967
G1 X124.39 Y147.946 E11.77609
G1 X124.184 Y148.664 E11.80715
G1 X123.876 Y149.568 E11.84685
G1 X123.268 Y150.721 E11.90104
G1 X122.778 Y151.466 E11.93812
G1 X122.262 Y152.121 E11.97278
G1 X121.73 Y152.687 E12.00508
G1 X121.184 Y153.181 E12.03569
G1 X120.705 Y153.556 E12.06098
G1 X120.234 Y153.882 E12.0848
G1 X119.699 Y154.209 E12.11086
G1 X119.22 Y154.455 E12.13325
G1 X118.679 Y154.693 E12.15782
G1 X117.942 Y154.967 E12.19051
G1 X117.302 Y155.148 E12.21817
G1 X116.779 Y155.261 E12.24041
G1 X116.285 Y155.341 E12.26122
G1 X115.485 Y155.425 E12.29466
G1 X114.591 Y155.431 E12.33183
G1 X113.537 Y155.327 E12.37586
G1 X112.667 Y155.142 E12.41284
G1 X112.063 Y154.97 E12.43895
G1 X111.39 Y154.728 E12.46869
G1 X110.746 Y154.443 E12.49796
G1 X109.92 Y153.975 E12.53743
G1 X109.102 Y153.424 E12.57844
G1 X108.603 Y152.995 E12.6058
G1 X107.911 Y152.323 E12.6459
G1 X107.376 Y151.667 E12.68109
G1 X107.057 Y151.231 E12.70356
G1 X106.733 Y150.721 E12.72868
G1 X106.302 Y149.937 E12.76587
G1 X106.079 Y149.406 E12.78982
G1 X105.903 Y148.935 E12.81072
G1 X105.692 Y148.284 E12.83917
G1 X105.532 Y147.508 E12.87211
G1 X105.419 Y146.787 E12.90245
G1 X105.375 Y144.782 E12.98583
G1 X105.375 Y78.438 E15.7441
G1 X105.385 Y77.773 E15.77175
G1 X105.433 Y77.266 E15.79292
G1 X105.559 Y76.772 E15.81411
G1 X105.761 Y76.304 E15.83531
G1 X106.034 Y75.874 E15.85648
M204 S2000
M205 X10 Y10
G1 F3600 E11.85648
;MESH:ballista-pU.stl
G0 X107.96 Y78.337
G0 X115.514 Y149.145
M204 S1000
M205 X8 Y8
;TYPE:WALL-OUTER
G1 F3600 E15.85648
G1 F1200 X115.103 Y149.248 E15.8741
G1 X114.729 Y149.221 E15.88969
G1 X114.269 Y149.028 E15.91043
G1 X113.933 Y148.701 E15.92992
G1 X113.715 Y148.208 E15.95233
G1 X113.691 Y147.817 E15.96862
G1 X113.753 Y147.53 E15.98083
G1 X113.949 Y147.147 E15.99871
G1 X114.261 Y146.853 E16.01654
G1 X114.649 Y146.669 E16.03439
G1 X115.094 Y146.623 E16.05299
G1 X115.646 Y146.795 E16.07703
G1 X115.995 Y147.085 E16.09589
G1 X116.222 Y147.457 E16.11401
G1 X116.308 Y147.857 E16.13102
G1 X116.284 Y148.186 E16.14473
G1 X116.183 Y148.511 E16.15888
G1 X115.968 Y148.821 E16.17457
G1 X115.514 Y149.145 E16.19776
M204 S2000
M205 X10 Y10
G0 F3600 X115.272 Y149.205
G0 X115.468 Y150.045
G0 X116.201 Y150.939
G0 X116.398 Y151.776
M204 S1000
M205 X8 Y8
G1 F1200 X116.89 Y151.634 E16.21905
G1 X117.363 Y151.461 E16.23999
G1 X117.951 Y151.184 E16.26701
G1 X118.493 Y150.842 E16.29365
G1 X118.896 Y150.535 E16.31472
G1 X119.277 Y150.192 E16.33603
G1 X119.638 Y149.812 E16.35782
G1 X119.953 Y149.409 E16.37909
G1 X120.242 Y148.977 E16.4007
G1 X120.487 Y148.532 E16.42181
G1 X120.691 Y148.072 E16.44274
G1 X120.864 Y147.575 E16.46461
G1 X121.053 Y146.856 E16.49552
G1 X121.118 Y146.061 E16.52869
G1 X121.121 Y78.063 E19.35571
G1 X108.875 Y78.063 E19.86484
G1 X108.874 Y145.806 E22.68127
G1 X108.902 Y146.454 E22.70824
G1 X109.005 Y147.079 E22.73457
G1 X109.136 Y147.575 E22.7559
G1 X109.305 Y148.072 E22.77772
G1 X109.513 Y148.532 E22.79871
G1 X109.755 Y148.978 E22.81981
G1 X110.043 Y149.408 E22.84133
G1 X110.362 Y149.812 E22.86273
G1 X110.72 Y150.193 E22.88446
G1 X111.18 Y150.607 E22.91019
G1 X111.921 Y151.125 E22.94778
G1 X112.626 Y151.457 E22.98018
G1 X113.098 Y151.634 E23.00114
G1 X113.594 Y151.772 E23.02254
G1 X114.097 Y151.868 E23.04383
G1 X114.744 Y151.937 E23.07088
G1 X115.372 Y151.926 E23.097
G1 X115.895 Y151.868 E23.11887
G1 X116.398 Y151.776 E23.14013
M204 S2000
M205 X10 Y10
G0 F3600 X116.638 Y151.707
G0 X116.284 Y151.289
M204 S1000
M205 X8 Y8
;TYPE:WALL-INNER
G1 F1200 X117.171 Y150.999 E23.17893
G1 X117.71 Y150.745 E23.2037
G1 X118.207 Y150.431 E23.22814
G1 X118.928 Y149.834 E23.26706
G1 X119.259 Y149.485 E23.28706
G1 X119.814 Y148.717 E23.32645
G1 X120.039 Y148.31 E23.34579
G1 X120.385 Y147.429 E23.38514
G1 X120.505 Y146.972 E23.40478
G1 X120.618 Y146.041 E23.44377
G1 X120.621 Y78.563 E26.24918
G1 X109.375 Y78.563 E26.71674
G1 X109.374 Y145.796 E29.51196
G1 X109.4 Y146.402 E29.53718
G1 X109.495 Y146.974 E29.56129
G1 X109.771 Y147.888 E29.60098
G1 X110.183 Y148.719 E29.63954
G1 X110.855 Y149.641 E29.68698
G1 X111.492 Y150.215 E29.72262
G1 X111.987 Y150.562 E29.74776
G1 X112.82 Y150.996 E29.78681
G1 X113.253 Y151.158 E29.80603
G1 X114.171 Y151.373 E29.84523
G1 X114.766 Y151.437 E29.87011
G1 X115.34 Y151.426 E29.89398
G1 X116.284 Y151.289 E29.93363
M204 S2000
M205 X10 Y10
G0 F3600 X116.201 Y150.939
G0 X115.801 Y149.966
G0 X115.717 Y149.602
M204 S1000
M205 X8 Y8
G1 F1200 X115.171 Y149.743 E29.95708
G1 X114.543 Y149.692 E29.98327
G1 X113.948 Y149.429 E30.01032
G1 X113.493 Y148.955 E30.03764
G1 X113.249 Y148.391 E30.06318
G1 X113.198 Y148.15 E30.07343
G1 X113.195 Y147.757 E30.08977
G1 X113.293 Y147.335 E30.10778
G1 X113.519 Y146.891 E30.12849
G1 X113.928 Y146.48 E30.1526
G1 X114.119 Y146.356 E30.16206
G1 X114.524 Y146.185 E30.18034
G1 X115.055 Y146.126 E30.20255
G1 X115.281 Y146.157 E30.21204
G1 X115.88 Y146.353 E30.23824
G1 X116.32 Y146.705 E30.26167
G1 X116.483 Y146.902 E30.2723
G1 X116.723 Y147.394 E30.29506
G1 X116.81 Y147.886 E30.31583
G1 X116.779 Y148.264 E30.3316
G1 X116.643 Y148.707 E30.35086
G1 X116.308 Y149.208 E30.37592
G1 X115.717 Y149.602 E30.40545
M204 S2000
M205 X10 Y10
G0 F3600 X115.974 Y150.102
M204 S1000
M205 X8 Y8
;TYPE:SKIN
G1 F944.9 X115.243 Y150.272 E30.44508
G1 F961.5 X114.422 Y150.239 E30.48771
G1 F906.3 X113.758 Y149.968 E30.52719
G1 F1003.3 X113.542 Y149.692 E30.54461
G1 F1200 X113.098 Y149.22 E30.57156
G1 X112.79 Y148.522 E30.60327
G1 X112.722 Y148.156 E30.61875
G1 X112.726 Y147.682 E30.63846
G1 X112.822 Y147.243 E30.65714
G1 X113.119 Y146.627 E30.68557
G1 X113.596 Y146.137 E30.714
G1 X113.934 Y145.917 E30.73077
G1 X114.44 Y145.715 E30.75342
G1 X115.157 Y145.643 E30.78338
G1 X116.047 Y145.891 E30.82179
G1 X116.619 Y146.335 E30.8519
G1 X116.9 Y146.679 E30.87036
G1 X117.162 Y147.201 E30.89465
G1 X117.273 Y147.72 E30.91671
G1 X117.266 Y148.216 E30.93734
G1 X117.08 Y148.895 E30.96661
G1 F1117.3 X116.691 Y149.483 E30.99809
G1 F980.4 X115.974 Y150.102 E31.04629
M204 S2000
M205 X10 Y10
G0 F3600 X116.277 Y150.695
M204 S1000
M205 X8 Y8
G1 F1018.7 X116.948 Y150.576 E31.07966
G1 F1200 X117.488 Y150.32 E31.10451
G1 X117.929 Y150.045 E31.12612
G1 X118.604 Y149.481 E31.16269
G1 X118.895 Y149.176 E31.18021
G1 X119.404 Y148.469 E31.21643
G1 X119.613 Y148.093 E31.23432
G1 X119.933 Y147.279 E31.27068
G1 X120.033 Y146.885 E31.28758
G1 X120.142 Y146.008 E31.32432
G1 X120.145 Y79.039 E34.10857
G1 X109.851 Y79.039 E34.53655
G1 X109.847 Y145.786 E37.31156
G1 X109.874 Y146.357 E37.33533
G1 X109.956 Y146.863 E37.35664
G1 X110.218 Y147.719 E37.39386
G1 X110.587 Y148.47 E37.42865
G1 X111.207 Y149.32 E37.47239
G1 X111.78 Y149.836 E37.50445
G1 X112.238 Y150.158 E37.52772
G1 F1190.5 X113.007 Y150.556 E37.56401
G1 F996.7 X113.505 Y150.615 E37.58911
G1 F879.8 X113.99 Y150.787 E37.61829
G1 F923.1 X114.795 Y150.893 E37.66218
G1 F958.5 X115.307 Y150.89 E37.68883
G1 F930.2 X116.151 Y150.741 E37.73479
G1 F890.2 X116.277 Y150.695 E37.74231
M204 S2000
M205 X10 Y10
G0 F3600 X114.267 Y149.883
G0 X110.743 Y148.219
M204 S1000
M205 X8 Y8
G1 F1200 X112.573 Y150.049 E37.84991
M204 S2000
M205 X10 Y10
G0 F3600 X113.52 Y150.289
M204 S1000
M205 X8 Y8
G1 F1200 X110.273 Y147.042 E38.04082
M204 S2000
M205 X10 Y10
G0 F3600 X110.115 Y146.177
M204 S1000
M205 X8 Y8
G1 F1200 X112.553 Y148.615 E38.18417
M204 S2000
M205 X10 Y10
G0 F3600 X112.478 Y147.833
M204 S1000
M205 X8 Y8
G1 F1200 X110.097 Y145.452 E38.32416
M204 S2000
M205 X10 Y10
G0 F3600 X110.097 Y144.745
M204 S1000
M205 X8 Y8
G1 F1200 X112.576 Y147.225 E38.46994
M204 S2000
M205 X10 Y10
G0 F3600 X112.792 Y146.733
M204 S1000
M205 X8 Y8
G1 F1200 X110.097 Y144.038 E38.6284
M204 S2000
M205 X10 Y10
G0 F3600 X110.097 Y143.331
M204 S1000
M205 X8 Y8
G1 F1200 X113.078 Y146.312 E38.80367
M204 S2000
M205 X10 Y10
G0 F3600 X113.428 Y145.955
M204 S1000
M205 X8 Y8
G1 F1200 X110.097 Y142.623 E38.99955
M204 S2000
M205 X10 Y10
G0 F3600 X110.097 Y141.916
M204 S1000
M205 X8 Y8
G1 F1200 X113.862 Y145.682 E39.22095
M204 S2000
M205 X10 Y10
G0 F3600 X114.359 Y145.472
M204 S1000
M205 X8 Y8
G1 F1200 X110.097 Y141.209 E39.47157
M204 S2000
M205 X10 Y10
G0 F3600 X110.097 Y140.502
M204 S1000
M205 X8 Y8
G1 F1200 X114.998 Y145.404 E39.75976
M204 S2000
M205 X10 Y10
G0 F3600 X115.884 Y145.583
M204 S1000
M205 X8 Y8
G1 F1200 X110.097 Y139.795 E40.10004
M204 S2000
M205 X10 Y10
G0 F3600 X110.097 Y139.088
M204 S1000
M205 X8 Y8
G1 F1200 X119.247 Y148.239 E40.63805
M204 S2000
M205 X10 Y10
G0 F3600 X118.96 Y148.659
M204 S1000
M205 X8 Y8
G1 F1200 X117.379 Y147.078 E40.73101
M204 S2000
M205 X10 Y10
G0 F3600 X117.518 Y147.924
M204 S1000
M205 X8 Y8
G1 F1200 X118.657 Y149.063 E40.79798
M204 S2000
M205 X10 Y10
G0 F3600 X118.298 Y149.41
M204 S1000
M205 X8 Y8
G1 F1200 X117.434 Y148.547 E40.84875
M204 S2000
M205 X10 Y10
G0 F3600 X117.258 Y149.078
M204 S1000
M205 X8 Y8
G1 F1200 X117.913 Y149.733 E40.88726
M204 S2000
M205 X10 Y10
G0 F3600 X117.494 Y150.02
M204 S1000
M205 X8 Y8
G1 F1200 X116.976 Y149.503 E40.91769
M204 S2000
M205 X10 Y10
G0 F3600 X116.628 Y149.862
M204 S1000
M205 X8 Y8
G1 F1200 X117.028 Y150.262 E40.94121
M204 S2000
M205 X10 Y10
G0 F3600 X116.42 Y150.361
M204 S1000
M205 X8 Y8
G1 F1200 X116.294 Y150.235 E40.94861
M204 S2000
M205 X10 Y10
G0 F3600 X119.476 Y147.761
M204 S1000
M205 X8 Y8
G1 F1200 X110.097 Y138.381 E41.50009
M204 S2000
M205 X10 Y10
G0 F3600 X110.097 Y137.674
M204 S1000
M205 X8 Y8
G1 F1200 X119.676 Y147.253 E42.0633
M204 S2000
M205 X10 Y10
G0 F3600 X119.807 Y146.677
M204 S1000
M205 X8 Y8
G1 F1200 X110.097 Y136.967 E42.63421
M204 S2000
M205 X10 Y10
G0 F3600 X110.097 Y136.259
M204 S1000
M205 X8 Y8
G1 F1200 X119.886 Y146.049 E43.2098
M204 S2000
M205 X10 Y10
G0 F3600 X119.893 Y145.349
M204 S1000
M205 X8 Y8
G1 F1200 X110.097 Y135.552 E43.78579
M204 S2000
M205 X10 Y10
G0 F3600 X110.097 Y134.845
M204 S1000
M205 X8 Y8
G1 F1200 X119.893 Y144.642 E44.36179
M204 S2000
M205 X10 Y10
G0 F3600 X119.893 Y143.934
M204 S1000
M205 X8 Y8
G1 F1200 X110.097 Y134.139 E44.93773
M204 S2000
M205 X10 Y10
G0 F3600 X110.097 Y133.432
M204 S1000
M205 X8 Y8
G1 F1200 X119.893 Y143.227 E45.51367
M204 S2000
M205 X10 Y10
G0 F3600 X119.893 Y142.52
M204 S1000
M205 X8 Y8
G1 F1200 X110.097 Y132.725 E46.0896
M204 S2000
M205 X10 Y10
G0 F3600 X110.097 Y132.018
M204 S1000
M205 X8 Y8
G1 F1200 X119.893 Y141.813 E46.66554
M204 S2000
M205 X10 Y10
G0 F3600 X119.893 Y141.106
M204 S1000
M205 X8 Y8
G1 F1200 X110.097 Y131.31 E47.24151
M204 S2000
M205 X10 Y10
G0 F3600 X110.097 Y130.603
M204 S1000
M205 X8 Y8
G1 F1200 X119.893 Y140.399 E47.81748
M204 S2000
M205 X10 Y10
G0 F3600 X119.893 Y139.692
M204 S1000
M205 X8 Y8
G1 F1200 X110.097 Y129.896 E48.39344
M204 S2000
M205 X10 Y10
G0 F3600 X110.097 Y129.189
M204 S1000
M205 X8 Y8
G1 F1200 X119.893 Y138.985 E48.96941
M204 S2000
M205 X10 Y10
G0 F3600 X119.893 Y138.278
M204 S1000
M205 X8 Y8
G1 F1200 X110.097 Y128.482 E49.54538
M204 S2000
M205 X10 Y10
G0 F3600 X110.097 Y127.775
M204 S1000
M205 X8 Y8
G1 F1200 X119.893 Y137.57 E50.12132
M204 S2000
M205 X10 Y10
G0 F3600 X119.893 Y136.863
M204 S1000
M205 X8 Y8
G1 F1200 X110.097 Y127.068 E50.69725
M204 S2000
M205 X10 Y10
G0 F3600 X110.097 Y126.361
M204 S1000
M205 X8 Y8
G1 F1200 X119.893 Y136.156 E51.27319
M204 S2000
M205 X10 Y10
G0 F3600 X119.893 Y135.449
M204 S1000
M205 X8 Y8
G1 F1200 X110.097 Y125.654 E51.84913
M204 S2000
M205 X10 Y10
G0 F3600 X110.097 Y124.946
M204 S1000
M205 X8 Y8
G1 F1200 X119.893 Y134.742 E52.4251
M204 S2000
M205 X10 Y10
G0 F3600 X119.893 Y134.035
M204 S1000
M205 X8 Y8
G1 F1200 X110.097 Y124.239 E53.00106
M204 S2000
M205 X10 Y10
G0 F3600 X110.098 Y123.533
M204 S1000
M205 X8 Y8
G1 F1200 X119.893 Y133.328 E53.57697
M204 S2000
M205 X10 Y10
G0 F3600 X119.893 Y132.621
M204 S1000
M205 X8 Y8
G1 F1200 X110.098 Y122.826 E54.15288
M204 S2000
M205 X10 Y10
G0 F3600 X110.098 Y122.119
M204 S1000
M205 X8 Y8
G1 F1200 X119.893 Y131.914 E54.72879
M204 S2000
M205 X10 Y10
G0 F3600 X119.893 Y131.206
M204 S1000
M205 X8 Y8
