;FLAVOR:Marlin
;TIME:892
;Filament used: 0.907909m
;Layer height: 0.2
;MINX:79.408
;MINY:108.062
;MINZ:0.2
;MAXX:150.59
;MAXY:121.938
;MAXZ:6.4
;TARGET_MACHINE.NAME:Anycubic Kobra
;Generated with Cura_SteamEngine 5.10.1
M140 S60
M105
M190 S60
M104 S200
M105
M109 S200
G21 ;metric values
G90 ;absolute positioning
M82 ;set extruder to absolute mode
M107 ;start with the fan off
M117 Homing X/Y ...
G28 X0 Y0 ;move X/Y to min endstops
M117 Homing Z ...
G28 Z0 ;move Z to min endstops
G1 Z15.0 F240 ;move the platform down 15mm
M117 Heating ...
M104 S[first_layer_temperature]
; set extruder temp
M109 S[first_layer_temperature]
; wait for extruder temp
M117 Start cleaning ...
M420 S1 ; Enable Bed Levelling Mesh
G92 E0 ;zero the extruded length
M413 S0 ; disable power loss recovery - may reduce blobbing and avoid unexpected recovery
; M500 ; store eeprom settings
M117 Intro line ...
G1 Z2.0 F3000 ; Move Z Axis up little to prevent scratching of Heat Bed
G1 X0.1 Y20 Z[first_layer_height] F5000.0 ; Move to start position
G1 X0.1 Y200.0 Z[first_layer_height] F1500.0 E15 ; Draw the first line
G1 X0.4 Y200.0 Z[first_layer_height] F5000.0 ; Move to side a little
G1 X0.4 Y20 Z0.3[first_layer_height] F1500.0 E30 ; Draw the second line
G92 E0 ; Reset Extruder
G1 X5 Y20 Z0.3 F240 ; Move over to prevent blob squish
G92 E0 ; Reset Extruder
M420 S1 ; Enable Bed Levelling Mesh
M117 Printing...
M82 ;absolute extrusion mode
G92 E0
G92 E0
G1 F3600 E-4
;LAYER_COUNT:32
;LAYER:0
M107
M204 S2000
M205 X10 Y10
G0 X80.96 Y108.791 Z0.2
M204 S1000
M205 X8 Y8
;TYPE:SKIRT
G1 F3600 E0
G1 F1200 X81.463 Y108.485 E0.02448
G1 X82.08 Y108.238 E0.05211
G1 X82.747 Y108.086 E0.08055
G1 X84.046 Y108.062 E0.13457
G1 X146.223 Y108.062 E2.71959
G1 X146.937 Y108.074 E2.74927
G1 X147.445 Y108.122 E2.77049
G1 X148.089 Y108.287 E2.79813
G1 X148.626 Y108.525 E2.82255
G1 X149.121 Y108.845 E2.84705
G1 X149.503 Y109.182 E2.86823
G1 X149.908 Y109.66 E2.89428
G1 X150.223 Y110.202 E2.92034
G1 X150.434 Y110.749 E2.94472
G1 X150.558 Y111.325 E2.96921
G1 X150.59 Y111.911 E2.99361
G1 X150.53 Y112.496 E3.01806
G1 X150.379 Y113.065 E3.04254
G1 X150.141 Y113.601 E3.06692
G1 X149.777 Y114.181 E3.09539
G1 X148.876 Y115.116 E3.14937
G1 X143.65 Y120.341 E3.45661
G1 X142.825 Y121.137 E3.50427
G1 X142.172 Y121.532 E3.536
G1 X141.628 Y121.752 E3.5604
G1 X140.955 Y121.917 E3.58921
G1 X139.994 Y121.938 E3.62917
G1 X90.153 Y121.938 E5.70132
G1 X89.079 Y121.922 E5.74598
G1 X88.31 Y121.731 E5.77892
G1 X87.769 Y121.5 E5.80337
G1 X87.161 Y121.127 E5.83303
G1 X86.455 Y120.446 E5.87381
G1 X80.939 Y114.928 E6.19819
G1 X80.441 Y114.413 E6.22797
G1 X80.069 Y113.956 E6.25247
G1 X79.774 Y113.447 E6.27693
G1 X79.563 Y112.899 E6.30135
G1 X79.44 Y112.324 E6.32579
G1 X79.408 Y111.738 E6.35019
G1 X79.455 Y111.231 E6.37136
G1 X79.595 Y110.659 E6.39584
G1 X79.857 Y110.048 E6.42348
G1 X80.176 Y109.554 E6.44793
G1 X80.512 Y109.171 E6.46911
G1 X80.96 Y108.791 E6.49354
M204 S2000
M205 X10 Y10
G0 F3600 X81.28 Y109.175
M204 S1000
M205 X8 Y8
G1 F1200 X81.718 Y108.915 E6.51471
G1 X82.191 Y108.726 E6.53589
G1 X82.81 Y108.585 E6.56229
G1 X84.055 Y108.562 E6.61406
G1 X146.216 Y108.562 E9.19841
G1 X146.89 Y108.572 E9.22643
G1 X147.398 Y108.62 E9.24765
G1 X147.891 Y108.746 E9.2688
G1 X148.359 Y108.948 E9.29
G1 X148.79 Y109.22 E9.31118
G1 X149.172 Y109.557 E9.33236
G1 X149.498 Y109.949 E9.35356
G1 X149.758 Y110.387 E9.37474
G1 X149.946 Y110.86 E9.3959
G1 X150.059 Y111.357 E9.41709
G1 X150.092 Y111.865 E9.43825
G1 X150.045 Y112.373 E9.45946
G1 X149.92 Y112.867 E9.48065
G1 X149.718 Y113.335 E9.50184
G1 X149.382 Y113.87 E9.52811
G1 X148.522 Y114.762 E9.57962
G1 X143.303 Y119.981 E9.88648
G1 X142.519 Y120.738 E9.93179
G1 X141.98 Y121.07 E9.95811
G1 X141.509 Y121.266 E9.97932
G1 X140.888 Y121.418 E10.0059
G1 X139.983 Y121.438 E10.04353
G1 X90.16 Y121.438 E12.11493
G1 X89.143 Y121.423 E12.15722
G1 X88.501 Y121.269 E12.18467
G1 X88.03 Y121.074 E12.20586
G1 X87.47 Y120.731 E12.23316
G1 X86.809 Y120.093 E12.27136
G1 X81.298 Y114.58 E12.59544
G1 X80.825 Y114.093 E12.62367
G1 X80.499 Y113.701 E12.64486
G1 X80.239 Y113.263 E12.66604
G1 X80.051 Y112.789 E12.68724
G1 X79.939 Y112.292 E12.70842
G1 X79.906 Y111.784 E12.72958
G1 X79.953 Y111.277 E12.75075
G1 X80.079 Y110.783 E12.77195
G1 X80.28 Y110.315 E12.79312
G1 X80.552 Y109.884 E12.81431
G1 X80.888 Y109.501 E12.8355
G1 X81.28 Y109.175 E12.85669
M204 S2000
M205 X10 Y10
G1 F3600 E8.85669
;MESH:ballista-pV.stl
G0 X84.375 Y111.147
G0 X140.396 Y117.938
M204 S1000
M205 X8 Y8
;TYPE:WALL-OUTER
G1 F3600 E12.85669
G1 F1200 X146.27 Y112.062 E13.20212
G1 X83.729 Y112.062 E15.80227
G1 X89.6 Y117.938 E16.14761
G1 X140.396 Y117.938 E18.25946
M204 S2000
M205 X10 Y10
G0 F3600 X140.572 Y117.762
G0 X140.189 Y117.438
M204 S1000
M205 X8 Y8
;TYPE:WALL-INNER
G1 F1200 X145.063 Y112.562 E18.5461
G1 X84.935 Y112.562 E21.04593
G1 X89.807 Y117.438 E21.3325
G1 X140.189 Y117.438 E23.42714
M204 S2000
M205 X10 Y10
G0 F3600 X139.992 Y116.962
M204 S1000
M205 X8 Y8
;TYPE:SKIN
G1 F1200 X143.917 Y113.034 E23.658
G1 X86.08 Y113.034 E26.06259
G1 X90.004 Y116.962 E26.29342
G1 X139.992 Y116.962 E28.37168
M204 S2000
M205 X10 Y10
G0 F3600 X143.149 Y113.45
M204 S1000
M205 X8 Y8
G1 F1200 X142.983 Y113.284 E28.38144
M204 S2000
M205 X10 Y10
G0 F3600 X142.795 Y113.804
M204 S1000
M205 X8 Y8
G1 F1200 X142.276 Y113.284 E28.41198
M204 S2000
M205 X10 Y10
G0 F3600 X141.568 Y113.284
M204 S1000
M205 X8 Y8
G1 F1200 X142.442 Y114.157 E28.46334
M204 S2000
M205 X10 Y10
G0 F3600 X142.088 Y114.511
M204 S1000
M205 X8 Y8
G1 F1200 X140.861 Y113.284 E28.53549
M204 S2000
M205 X10 Y10
G0 F3600 X140.154 Y113.284
M204 S1000
M205 X8 Y8
G1 F1200 X141.735 Y114.865 E28.62844
M204 S2000
M205 X10 Y10
G0 F3600 X141.382 Y115.219
M204 S1000
M205 X8 Y8
G1 F1200 X139.447 Y113.284 E28.74221
M204 S2000
M205 X10 Y10
G0 F3600 X138.74 Y113.284
M204 S1000
M205 X8 Y8
G1 F1200 X141.028 Y115.572 E28.87674
M204 S2000
M205 X10 Y10
G0 F3600 X140.675 Y115.926
M204 S1000
M205 X8 Y8
G1 F1200 X138.033 Y113.284 E29.03208
M204 S2000
M205 X10 Y10
G0 F3600 X137.326 Y113.284
M204 S1000
M205 X8 Y8
G1 F1200 X140.321 Y116.279 E29.20817
M204 S2000
M205 X10 Y10
G0 F3600 X139.968 Y116.633
M204 S1000
M205 X8 Y8
G1 F1200 X136.619 Y113.284 E29.40508
M204 S2000
M205 X10 Y10
G0 F3600 X135.912 Y113.284
M204 S1000
M205 X8 Y8
G1 F1200 X139.34 Y116.712 E29.60663
M204 S2000
M205 X10 Y10
G0 F3600 X138.633 Y116.712
M204 S1000
M205 X8 Y8
G1 F1200 X135.204 Y113.284 E29.80822
M204 S2000
M205 X10 Y10
G0 F3600 X134.497 Y113.284
M204 S1000
M205 X8 Y8
G1 F1200 X137.925 Y116.712 E30.00977
M204 S2000
M205 X10 Y10
G0 F3600 X137.218 Y116.712
M204 S1000
M205 X8 Y8
G1 F1200 X133.79 Y113.284 E30.21132
M204 S2000
M205 X10 Y10
G0 F3600 X133.083 Y113.284
M204 S1000
M205 X8 Y8
G1 F1200 X136.511 Y116.712 E30.41288
M204 S2000
M205 X10 Y10
G0 F3600 X135.804 Y116.712
M204 S1000
M205 X8 Y8
G1 F1200 X132.376 Y113.284 E30.61443
M204 S2000
M205 X10 Y10
G0 F3600 X131.669 Y113.284
M204 S1000
M205 X8 Y8
G1 F1200 X135.097 Y116.712 E30.81598
M204 S2000
M205 X10 Y10
G0 F3600 X134.39 Y116.712
M204 S1000
M205 X8 Y8
G1 F1200 X130.962 Y113.284 E31.01754
M204 S2000
M205 X10 Y10
G0 F3600 X130.255 Y113.284
M204 S1000
M205 X8 Y8
G1 F1200 X133.683 Y116.712 E31.21909
M204 S2000
M205 X10 Y10
G0 F3600 X132.976 Y116.712
M204 S1000
M205 X8 Y8
G1 F1200 X129.548 Y113.284 E31.42064
M204 S2000
M205 X10 Y10
G0 F3600 X128.841 Y113.284
M204 S1000
M205 X8 Y8
G1 F1200 X132.269 Y116.712 E31.6222
M204 S2000
M205 X10 Y10
G0 F3600 X131.561 Y116.712
M204 S1000
M205 X8 Y8
G1 F1200 X128.133 Y113.284 E31.82375
M204 S2000
M205 X10 Y10
G0 F3600 X127.426 Y113.284
M204 S1000
M205 X8 Y8
G1 F1200 X130.854 Y116.712 E32.0253
M204 S2000
M205 X10 Y10
G0 F3600 X130.147 Y116.712
M204 S1000
M205 X8 Y8
G1 F1200 X126.719 Y113.284 E32.22686
M204 S2000
M205 X10 Y10
G0 F3600 X126.012 Y113.284
M204 S1000
M205 X8 Y8
G1 F1200 X129.44 Y116.712 E32.42841
M204 S2000
M205 X10 Y10
G0 F3600 X128.733 Y116.712
M204 S1000
M205 X8 Y8
G1 F1200 X125.305 Y113.284 E32.62996
M204 S2000
M205 X10 Y10
G0 F3600 X124.598 Y113.284
M204 S1000
M205 X8 Y8
G1 F1200 X128.026 Y116.712 E32.83152
M204 S2000
M205 X10 Y10
G0 F3600 X127.319 Y116.712
M204 S1000
M205 X8 Y8
G1 F1200 X123.891 Y113.284 E33.03307
M204 S2000
M205 X10 Y10
G0 F3600 X123.184 Y113.284
M204 S1000
M205 X8 Y8
G1 F1200 X126.612 Y116.712 E33.23462
M204 S2000
M205 X10 Y10
G0 F3600 X125.905 Y116.712
M204 S1000
M205 X8 Y8
G1 F1200 X122.477 Y113.284 E33.43618
M204 S2000
M205 X10 Y10
G0 F3600 X121.769 Y113.284
M204 S1000
M205 X8 Y8
G1 F1200 X125.197 Y116.712 E33.63773
M204 S2000
M205 X10 Y10
G0 F3600 X124.49 Y116.712
M204 S1000
M205 X8 Y8
G1 F1200 X121.062 Y113.284 E33.83928
M204 S2000
M205 X10 Y10
G0 F3600 X120.355 Y113.284
M204 S1000
M205 X8 Y8
G1 F1200 X123.783 Y116.712 E34.04084
M204 S2000
M205 X10 Y10
G0 F3600 X123.076 Y116.712
M204 S1000
M205 X8 Y8
G1 F1200 X119.648 Y113.284 E34.24239
M204 S2000
M205 X10 Y10
G0 F3600 X118.941 Y113.284
M204 S1000
M205 X8 Y8
G1 F1200 X122.369 Y116.712 E34.44394
M204 S2000
M205 X10 Y10
G0 F3600 X121.662 Y116.712
M204 S1000
M205 X8 Y8
G1 F1200 X118.234 Y113.284 E34.6455
M204 S2000
M205 X10 Y10
G0 F3600 X117.527 Y113.284
M204 S1000
M205 X8 Y8
G1 F1200 X120.955 Y116.712 E34.84705
M204 S2000
M205 X10 Y10
G0 F3600 X120.248 Y116.712
M204 S1000
M205 X8 Y8
G1 F1200 X116.82 Y113.284 E35.0486
M204 S2000
M205 X10 Y10
G0 F3600 X116.113 Y113.284
M204 S1000
M205 X8 Y8
G1 F1200 X119.541 Y116.712 E35.25016
M204 S2000
M205 X10 Y10
G0 F3600 X118.834 Y116.712
M204 S1000
M205 X8 Y8
G1 F1200 X115.405 Y113.284 E35.45174
M204 S2000
M205 X10 Y10
G0 F3600 X114.698 Y113.284
M204 S1000
M205 X8 Y8
G1 F1200 X118.126 Y116.712 E35.65329
M204 S2000
M205 X10 Y10
G0 F3600 X117.419 Y116.712
M204 S1000
M205 X8 Y8
G1 F1200 X113.991 Y113.284 E35.85484
M204 S2000
M205 X10 Y10
G0 F3600 X113.284 Y113.284
M204 S1000
M205 X8 Y8
G1 F1200 X116.712 Y116.712 E36.0564
M204 S2000
M205 X10 Y10
G0 F3600 X116.005 Y116.712
M204 S1000
M205 X8 Y8
G1 F1200 X112.577 Y113.284 E36.25795
M204 S2000
M205 X10 Y10
G0 F3600 X111.87 Y113.284
M204 S1000
M205 X8 Y8
G1 F1200 X115.298 Y116.712 E36.4595
M204 S2000
M205 X10 Y10
G0 F3600 X114.591 Y116.712
M204 S1000
M205 X8 Y8
G1 F1200 X111.163 Y113.284 E36.66106
M204 S2000
M205 X10 Y10
G0 F3600 X110.456 Y113.284
M204 S1000
M205 X8 Y8
G1 F1200 X113.884 Y116.712 E36.86261
M204 S2000
M205 X10 Y10
G0 F3600 X113.177 Y116.712
M204 S1000
M205 X8 Y8
G1 F1200 X109.749 Y113.284 E37.06416
M204 S2000
M205 X10 Y10
G0 F3600 X109.042 Y113.284
M204 S1000
M205 X8 Y8
G1 F1200 X112.47 Y116.712 E37.26572
M204 S2000
M205 X10 Y10
G0 F3600 X111.762 Y116.712
M204 S1000
M205 X8 Y8
G1 F1200 X108.334 Y113.284 E37.46727
M204 S2000
M205 X10 Y10
G0 F3600 X107.627 Y113.284
M204 S1000
M205 X8 Y8
G1 F1200 X111.055 Y116.712 E37.66882
M204 S2000
M205 X10 Y10
G0 F3600 X110.348 Y116.712
M204 S1000
M205 X8 Y8
G1 F1200 X106.92 Y113.284 E37.87038
M204 S2000
M205 X10 Y10
G0 F3600 X106.213 Y113.284
M204 S1000
M205 X8 Y8
G1 F1200 X109.641 Y116.712 E38.07193
M204 S2000
M205 X10 Y10
G0 F3600 X108.934 Y116.712
M204 S1000
M205 X8 Y8
G1 F1200 X105.506 Y113.284 E38.27348
M204 S2000
M205 X10 Y10
G0 F3600 X104.799 Y113.284
M204 S1000
M205 X8 Y8
G1 F1200 X108.227 Y116.712 E38.47504
M204 S2000
M205 X10 Y10
G0 F3600 X107.52 Y116.712
M204 S1000
M205 X8 Y8
G1 F1200 X104.092 Y113.284 E38.67659
M204 S2000
M205 X10 Y10
G0 F3600 X103.385 Y113.284
M204 S1000
M205 X8 Y8
G1 F1200 X106.813 Y116.712 E38.87814
M204 S2000
M205 X10 Y10
G0 F3600 X106.106 Y116.712
M204 S1000
M205 X8 Y8
G1 F1200 X102.678 Y113.284 E39.0797
M204 S2000
M205 X10 Y10
G0 F3600 X101.97 Y113.284
M204 S1000
M205 X8 Y8
G1 F1200 X105.399 Y116.712 E39.28128
M204 S2000
M205 X10 Y10
G0 F3600 X104.691 Y116.712
M204 S1000
M205 X8 Y8
G1 F1200 X101.263 Y113.284 E39.48283
M204 S2000
M205 X10 Y10
G0 F3600 X100.556 Y113.284
M204 S1000
M205 X8 Y8
G1 F1200 X103.984 Y116.712 E39.68439
M204 S2000
M205 X10 Y10
G0 F3600 X103.277 Y116.712
M204 S1000
M205 X8 Y8
G1 F1200 X99.849 Y113.284 E39.88594
M204 S2000
M205 X10 Y10
G0 F3600 X99.142 Y113.284
M204 S1000
M205 X8 Y8
G1 F1200 X102.57 Y116.712 E40.08749
M204 S2000
M205 X10 Y10
G0 F3600 X101.863 Y116.712
M204 S1000
M205 X8 Y8
G1 F1200 X98.435 Y113.284 E40.28905
M204 S2000
M205 X10 Y10
G0 F3600 X97.728 Y113.284
M204 S1000
M205 X8 Y8
G1 F1200 X101.156 Y116.712 E40.4906
M204 S2000
M205 X10 Y10
G0 F3600 X100.449 Y116.712
M204 S1000
M205 X8 Y8
G1 F1200 X97.021 Y113.284 E40.69215
M204 S2000
M205 X10 Y10
G0 F3600 X96.314 Y113.284
M204 S1000
M205 X8 Y8
G1 F1200 X99.742 Y116.712 E40.89371
M204 S2000
M205 X10 Y10
G0 F3600 X99.035 Y116.712
M204 S1000
M205 X8 Y8
G1 F1200 X95.606 Y113.284 E41.09529
M204 S2000
M205 X10 Y10
G0 F3600 X94.899 Y113.284
M204 S1000
M205 X8 Y8
G1 F1200 X98.327 Y116.712 E41.29684
M204 S2000
M205 X10 Y10
G0 F3600 X97.62 Y116.712
M204 S1000
M205 X8 Y8
G1 F1200 X94.192 Y113.284 E41.49839
M204 S2000
M205 X10 Y10
G0 F3600 X93.485 Y113.284
M204 S1000
M205 X8 Y8
G1 F1200 X96.913 Y116.712 E41.69995
M204 S2000
M205 X10 Y10
G0 F3600 X96.206 Y116.712
M204 S1000
M205 X8 Y8
G1 F1200 X92.778 Y113.284 E41.9015
M204 S2000
M205 X10 Y10
G0 F3600 X92.071 Y113.284
M204 S1000
M205 X8 Y8
G1 F1200 X95.499 Y116.712 E42.10305
M204 S2000
M205 X10 Y10
G0 F3600 X94.792 Y116.712
M204 S1000
M205 X8 Y8
G1 F1200 X91.364 Y113.284 E42.30461
M204 S2000
M205 X10 Y10
G0 F3600 X90.657 Y113.284
M204 S1000
M205 X8 Y8
G1 F1200 X94.085 Y116.712 E42.50616
M204 S2000
M205 X10 Y10
G0 F3600 X93.378 Y116.712
M204 S1000
M205 X8 Y8
G1 F1200 X89.95 Y113.284 E42.70771
M204 S2000
M205 X10 Y10
G0 F3600 X89.243 Y113.284
M204 S1000
M205 X8 Y8
G1 F1200 X92.671 Y116.712 E42.90927
M204 S2000
M205 X10 Y10
G0 F3600 X91.963 Y116.712
M204 S1000
M205 X8 Y8
G1 F1200 X88.535 Y113.284 E43.11082
M204 S2000
M205 X10 Y10
G0 F3600 X87.828 Y113.284
M204 S1000
M205 X8 Y8
G1 F1200 X91.256 Y116.712 E43.31237
M204 S2000
M205 X10 Y10
G0 F3600 X90.549 Y116.712
M204 S1000
M205 X8 Y8
G1 F1200 X87.121 Y113.284 E43.51393
G1 X87.033 Y113.196
M204 S2000
M205 X10 Y10
G0 F3600 X87.033 Y113.322
G1 F3600 E39.51393
;MESH:NONMESH
G0 F600 X87.033 Y113.322 Z0.4
G0 F3600 X84.375 Y112.329
G0 X84.375 Y111.147
G0 X81.28 Y109.175
;TIME_ELAPSED:61.455745
;LAYER:1
M106 S255
M204 S1000
M205 X8 Y8
;TYPE:SKIRT
G1 F3600 E43.51393
G1 F1200 X81.718 Y108.915 E43.5351
G1 X82.191 Y108.726 E43.55628
G1 X82.81 Y108.585 E43.58268
G1 X84.055 Y108.562 E43.63445
G1 X146.216 Y108.562 E46.2188
G1 X146.89 Y108.572 E46.24682
G1 X147.398 Y108.62 E46.26804
G1 X147.891 Y108.746 E46.28919
G1 X148.359 Y108.948 E46.31039
G1 X148.79 Y109.22 E46.33157
G1 X149.172 Y109.557 E46.35275
G1 X149.498 Y109.949 E46.37395
G1 X149.758 Y110.387 E46.39513
G1 X149.946 Y110.86 E46.41629
G1 X150.059 Y111.357 E46.43748
G1 X150.092 Y111.865 E46.45864
G1 X150.045 Y112.373 E46.47985
G1 X149.92 Y112.867 E46.50104
G1 X149.718 Y113.335 E46.52223
G1 X149.382 Y113.87 E46.5485
G1 X148.522 Y114.762 E46.60001
G1 X143.303 Y119.981 E46.90687
G1 X142.519 Y120.738 E46.95218
G1 X141.98 Y121.07 E46.9785
G1 X141.509 Y121.266 E46.99971
G1 X140.888 Y121.418 E47.02629
G1 X139.983 Y121.438 E47.06392
G1 X90.16 Y121.438 E49.13532
G1 X89.143 Y121.423 E49.17761
G1 X88.501 Y121.269 E49.20506
G1 X88.03 Y121.074 E49.22625
G1 X87.47 Y120.731 E49.25355
G1 X86.809 Y120.093 E49.29175
G1 X81.298 Y114.58 E49.61583
G1 X80.825 Y114.093 E49.64406
G1 X80.499 Y113.701 E49.66525
G1 X80.239 Y113.263 E49.68643
G1 X80.051 Y112.789 E49.70763
G1 X79.939 Y112.292 E49.72881
G1 X79.906 Y111.784 E49.74997
G1 X79.953 Y111.277 E49.77114
G1 X80.079 Y110.783 E49.79234
G1 X80.28 Y110.315 E49.81351
G1 X80.552 Y109.884 E49.8347
G1 X80.888 Y109.501 E49.85589
G1 X81.28 Y109.175 E49.87708
M204 S3500
M205 X10 Y10
G1 F3600 E45.87708
;MESH:ballista-pV.stl
G0 F5400 X84.375 Y111.147
G0 X84.375 Y112.329
G0 X86.246 Y112.922
G0 X86.246 Y112.762
M204 S1000
M205 X8 Y8
;TYPE:FILL
G1 F3600 E49.87708
G1 F1800 X90.722 Y117.238 E50.14025
M204 S3500
M205 X10 Y10
G0 F5400 X91.548 Y117.238
M204 S1000
M205 X8 Y8
G1 F1800 X96.024 Y112.762 E50.40343
M204 S3500
M205 X10 Y10
G0 F5400 X96.852 Y112.762
M204 S1000
M205 X8 Y8
G1 F1800 X101.328 Y117.238 E50.6666
M204 S3500
M205 X10 Y10
