;FLAVOR:Marlin
;TIME:3385
;Filament used: 3.95473m
;Layer height: 0.2
;MINX:68.75
;MINY:100.625
;MINZ:0.2
;MAXX:161.25
;MAXY:129.375
;MAXZ:6.4
;TARGET_MACHINE.NAME:Anycubic Kobra
;Generated with Cura_SteamEngine 5.10.1
M140 S60
M105
M190 S60
M104 S200
M105
M109 S200
G21 ;metric values
G90 ;absolute positioning
M82 ;set extruder to absolute mode
M107 ;start with the fan off
M117 Homing X/Y ...
G28 X0 Y0 ;move X/Y to min endstops
M117 Homing Z ...
G28 Z0 ;move Z to min endstops
G1 Z15.0 F240 ;move the platform down 15mm
M117 Heating ...
M104 S[first_layer_temperature]
; set extruder temp
M109 S[first_layer_temperature]
; wait for extruder temp
M117 Start cleaning ...
M420 S1 ; Enable Bed Levelling Mesh
G92 E0 ;zero the extruded length
M413 S0 ; disable power loss recovery - may reduce blobbing and avoid unexpected recovery
; M500 ; store eeprom settings
M117 Intro line ...
G1 Z2.0 F3000 ; Move Z Axis up little to prevent scratching of Heat Bed
G1 X0.1 Y20 Z[first_layer_height] F5000.0 ; Move to start position
G1 X0.1 Y200.0 Z[first_layer_height] F1500.0 E15 ; Draw the first line
G1 X0.4 Y200.0 Z[first_layer_height] F5000.0 ; Move to side a little
G1 X0.4 Y20 Z0.3[first_layer_height] F1500.0 E30 ; Draw the second line
G92 E0 ; Reset Extruder
G1 X5 Y20 Z0.3 F240 ; Move over to prevent blob squish
G92 E0 ; Reset Extruder
M420 S1 ; Enable Bed Levelling Mesh
M117 Printing...
M82 ;absolute extrusion mode
G92 E0
G92 E0
G1 F3600 E-4
;LAYER_COUNT:32
;LAYER:0
M107
M204 S2000
M205 X10 Y10
G0 X70.382 Y101.298 Z0.2
M204 S1000
M205 X8 Y8
;TYPE:SKIRT
G1 F3600 E0
G1 F1200 X70.82 Y101.038 E0.02118
G1 X71.439 Y100.791 E0.04888
G1 X71.936 Y100.679 E0.07007
G1 X72.524 Y100.626 E0.09461
G1 X156.847 Y100.625 E3.60035
G1 X157.585 Y100.637 E3.63104
G1 X158.168 Y100.698 E3.65541
G1 X158.737 Y100.849 E3.67989
G1 X159.274 Y101.087 E3.70431
G1 X159.767 Y101.406 E3.72872
G1 X160.15 Y101.742 E3.7499
G1 X160.53 Y102.19 E3.77433
G1 X160.836 Y102.693 E3.7988
G1 X161.083 Y103.311 E3.82647
G1 X161.195 Y103.808 E3.84765
G1 X161.249 Y104.396 E3.8722
G1 X161.25 Y124.941 E4.72637
G1 X161.238 Y125.707 E4.75822
G1 X161.191 Y126.214 E4.77938
G1 X161.051 Y126.786 E4.80387
G1 X160.789 Y127.397 E4.83151
G1 X160.47 Y127.891 E4.85596
G1 X160.134 Y128.274 E4.87714
G1 X159.686 Y128.654 E4.90156
G1 X159.183 Y128.96 E4.92604
G1 X158.566 Y129.207 E4.95367
G1 X158.069 Y129.32 E4.97486
G1 X157.478 Y129.374 E4.99953
G1 X73.153 Y129.375 E8.50536
G1 X72.415 Y129.363 E8.53605
G1 X71.832 Y129.302 E8.56042
G1 X71.263 Y129.151 E8.58489
G1 X70.726 Y128.913 E8.60931
G1 X70.233 Y128.594 E8.63373
G1 X69.85 Y128.258 E8.65491
G1 X69.47 Y127.81 E8.67933
G1 X69.164 Y127.307 E8.70381
G1 X68.917 Y126.689 E8.73148
G1 X68.805 Y126.192 E8.75266
G1 X68.751 Y125.6 E8.77737
G1 X68.75 Y104.992 E9.63416
G1 X68.762 Y104.288 E9.66343
G1 X68.81 Y103.781 E9.6846
G1 X68.975 Y103.136 E9.71228
G1 X69.214 Y102.598 E9.73676
G1 X69.533 Y102.106 E9.76113
G1 X69.926 Y101.668 E9.7856
G1 X70.382 Y101.298 E9.81001
M204 S2000
M205 X10 Y10
G0 F3600 X70.637 Y101.728
M204 S1000
M205 X8 Y8
G1 F1200 X71.075 Y101.468 E9.83119
G1 X71.549 Y101.279 E9.85241
G1 X72.046 Y101.167 E9.87359
G1 X72.524 Y101.126 E9.89353
G1 X156.84 Y101.125 E13.39899
G1 X157.538 Y101.135 E13.42801
G1 X158.045 Y101.183 E13.44918
G1 X158.539 Y101.308 E13.47037
G1 X159.007 Y101.51 E13.49156
G1 X159.437 Y101.782 E13.51271
G1 X159.82 Y102.118 E13.53389
G1 X160.146 Y102.51 E13.55509
G1 X160.406 Y102.948 E13.57627
G1 X160.595 Y103.421 E13.59744
G1 X160.707 Y103.918 E13.61863
G1 X160.749 Y104.396 E13.63858
G1 X160.75 Y124.934 E14.49245
G1 X160.74 Y125.661 E14.52267
G1 X160.693 Y126.168 E14.54384
G1 X160.567 Y126.662 E14.56504
G1 X160.366 Y127.13 E14.58621
G1 X160.094 Y127.561 E14.6074
G1 X159.758 Y127.944 E14.62859
G1 X159.366 Y128.27 E14.64978
G1 X158.928 Y128.53 E14.67096
G1 X158.455 Y128.719 E14.69214
G1 X157.958 Y128.832 E14.71333
G1 X157.478 Y128.874 E14.73336
G1 X73.16 Y128.875 E18.23889
G1 X72.462 Y128.865 E18.26792
G1 X71.955 Y128.817 E18.28909
G1 X71.461 Y128.692 E18.31027
G1 X70.993 Y128.49 E18.33147
G1 X70.563 Y128.218 E18.35262
G1 X70.18 Y127.882 E18.3738
G1 X69.854 Y127.49 E18.395
G1 X69.594 Y127.052 E18.41618
G1 X69.405 Y126.579 E18.43735
G1 X69.293 Y126.082 E18.45853
G1 X69.251 Y125.6 E18.47865
G1 X69.25 Y105 E19.3351
G1 X69.26 Y104.335 E19.36275
G1 X69.308 Y103.828 E19.38392
G1 X69.434 Y103.334 E19.40512
G1 X69.636 Y102.866 E19.42631
G1 X69.909 Y102.436 E19.44748
G1 X70.245 Y102.053 E19.46867
G1 X70.637 Y101.728 E19.48984
M204 S2000
M205 X10 Y10
G1 F3600 E15.48984
;MESH:ballista-pA.stl
G0 X73.024 Y103.71
G0 X90.678 Y119.355
M204 S1000
M205 X8 Y8
;TYPE:WALL-OUTER
G1 F3600 E19.48984
G1 F1200 X89.954 Y119.474 E19.52034
G1 X89.232 Y119.49 E19.55037
G1 X88.638 Y119.415 E19.57526
G1 X88.099 Y119.277 E19.59839
G1 X87.566 Y119.061 E19.6223
G1 X86.95 Y118.705 E19.65188
G1 X86.365 Y118.23 E19.68321
G1 X85.831 Y117.633 E19.71651
G1 X85.457 Y116.978 E19.74787
G1 X85.251 Y116.489 E19.76993
G1 X85.093 Y115.928 E19.79416
G1 X85.016 Y115.388 E19.81684
G1 X85.014 Y114.644 E19.84777
G1 X85.092 Y114.08 E19.87144
G1 X85.301 Y113.325 E19.90401
G1 X85.829 Y112.359 E19.94978
G1 X86.364 Y111.771 E19.98283
G1 X86.946 Y111.291 E20.0142
G1 X87.562 Y110.935 E20.04377
G1 X88.318 Y110.641 E20.0775
G1 X89.042 Y110.522 E20.108
G1 X89.796 Y110.508 E20.13936
G1 X90.359 Y110.581 E20.16296
G1 X90.871 Y110.713 E20.18494
G1 X91.429 Y110.935 E20.20991
G1 X92.084 Y111.315 E20.24139
G1 X92.658 Y111.792 E20.27242
G1 X93.165 Y112.363 E20.30417
G1 X93.634 Y113.181 E20.34337
G1 X93.901 Y114.058 E20.38148
G1 X93.982 Y114.626 E20.40534
G1 X93.982 Y115.37 E20.43627
G1 X93.904 Y115.92 E20.45936
G1 X93.692 Y116.678 E20.49209
G1 X93.18 Y117.613 E20.53641
G1 X92.636 Y118.225 E20.57045
G1 X92.053 Y118.705 E20.60185
G1 X91.4 Y119.077 E20.63309
G1 X90.678 Y119.355 E20.66526
M204 S2000
M205 X10 Y10
G0 F3600 X90.432 Y119.395
G0 X90.575 Y120.246
G0 X141.046 Y120.274
G0 X141.678 Y119.355
M204 S1000
M205 X8 Y8
G1 F1200 X140.954 Y119.474 E20.69576
G1 X140.232 Y119.49 E20.72578
G1 X139.638 Y119.415 E20.75068
G1 X139.099 Y119.277 E20.77381
G1 X138.566 Y119.061 E20.79772
G1 X137.95 Y118.705 E20.8273
G1 X137.365 Y118.23 E20.85863
G1 X136.831 Y117.633 E20.89193
G1 X136.457 Y116.978 E20.92329
G1 X136.253 Y116.494 E20.94512
G1 X136.092 Y115.92 E20.96991
G1 X136.014 Y115.37 E20.993
G1 X136.014 Y114.626 E21.02394
G1 X136.092 Y114.08 E21.04687
G1 X136.304 Y113.318 E21.07975
G1 X136.829 Y112.359 E21.1252
G1 X137.364 Y111.771 E21.15825
G1 X137.946 Y111.291 E21.18962
G1 X138.562 Y110.935 E21.2192
G1 X139.318 Y110.641 E21.25292
G1 X140.042 Y110.522 E21.28343
G1 X140.796 Y110.508 E21.31478
G1 X141.359 Y110.581 E21.33838
G1 X141.871 Y110.713 E21.36036
G1 X142.429 Y110.935 E21.38533
G1 X143.084 Y111.315 E21.41682
G1 X143.658 Y111.792 E21.44784
G1 X144.165 Y112.363 E21.47959
G1 X144.644 Y113.207 E21.51994
G1 X144.904 Y114.076 E21.55765
G1 X144.98 Y114.608 E21.57999
G1 X144.98 Y115.388 E21.61242
G1 X144.903 Y115.928 E21.6351
G1 X144.695 Y116.671 E21.66718
G1 X144.18 Y117.613 E21.71181
G1 X143.636 Y118.225 E21.74585
G1 X143.053 Y118.705 E21.77725
G1 X142.4 Y119.077 E21.80849
G1 X141.678 Y119.355 E21.84066
M204 S2000
M205 X10 Y10
G0 F3600 X141.432 Y119.395
G0 X141.575 Y120.246
G0 X156.92 Y125.045
G0 X157.25 Y125.374
M204 S1000
M205 X8 Y8
G1 F1200 X157.25 Y104.622 E22.70343
G1 X72.751 Y104.623 E26.21649
G1 X72.75 Y125.374 E27.07921
G1 X157.25 Y125.374 E30.59232
M204 S2000
M205 X10 Y10
G0 F3600 X157.25 Y125.124
G0 X156.75 Y124.874
M204 S1000
M205 X8 Y8
;TYPE:WALL-INNER
G1 F1200 X156.75 Y105.122 E31.41351
G1 X73.251 Y105.123 E34.88499
G1 X73.25 Y124.874 E35.70615
G1 X156.75 Y124.874 E39.17767
M204 S2000
M205 X10 Y10
G0 F3600 X156.42 Y124.545
G0 X144.893 Y118.103
G0 X144.577 Y117.928
M204 S1000
M205 X8 Y8
G1 F1200 X143.999 Y118.573 E39.21368
G1 X143.357 Y119.107 E39.2484
G1 X142.631 Y119.524 E39.28321
G1 X141.836 Y119.835 E39.3187
G1 X141.021 Y119.973 E39.35306
G1 X140.187 Y119.991 E39.38774
G1 X139.516 Y119.9 E39.4159
G1 X138.913 Y119.741 E39.44182
G1 X138.362 Y119.521 E39.46649
G1 X137.646 Y119.107 E39.50088
G1 X137.003 Y118.58 E39.53544
G1 X136.434 Y117.948 E39.5708
G1 X135.996 Y117.172 E39.60784
G1 X135.761 Y116.6 E39.63355
G1 X135.597 Y115.991 E39.65977
G1 X135.515 Y115.404 E39.68442
G1 X135.515 Y114.592 E39.71817
G1 X135.617 Y113.914 E39.74668
G1 X135.84 Y113.131 E39.78053
G1 X136.418 Y112.069 E39.8308
G1 X137.003 Y111.421 E39.86709
G1 X137.643 Y110.889 E39.90169
G1 X138.363 Y110.473 E39.93626
G1 X139.16 Y110.161 E39.97185
G1 X139.975 Y110.023 E40.00621
G1 X140.809 Y110.005 E40.04089
G1 X141.484 Y110.097 E40.06922
G1 X141.996 Y110.229 E40.0912
G1 X142.629 Y110.473 E40.1194
G1 X143.353 Y110.889 E40.15412
G1 X143.995 Y111.418 E40.1887
G1 X144.56 Y112.046 E40.22383
G1 X145.088 Y112.972 E40.26814
G1 X145.391 Y113.949 E40.31067
G1 X145.482 Y114.586 E40.33742
G1 X145.482 Y115.413 E40.37181
G1 X145.379 Y116.087 E40.40015
G1 X145.156 Y116.875 E40.4342
G1 X144.577 Y117.928 E40.48416
M204 S2000
M205 X10 Y10
G0 F3600 X144.893 Y118.103
G0 X143.529 Y119.353
G0 X141.925 Y120.125
G0 X140.346 Y120.288
G0 X94.845 Y115.404
G0 X94.481 Y115.404
M204 S1000
M205 X8 Y8
G1 F1200 X94.379 Y116.087 E40.51287
G1 X94.156 Y116.865 E40.54652
G1 X93.578 Y117.927 E40.59679
G1 X92.999 Y118.573 E40.63285
G1 X92.357 Y119.107 E40.66757
G1 X91.631 Y119.524 E40.70238
G1 X90.836 Y119.835 E40.73787
G1 X90.021 Y119.973 E40.77224
G1 X89.187 Y119.991 E40.80692
G1 X88.516 Y119.9 E40.83507
G1 X87.913 Y119.741 E40.861
G1 X87.362 Y119.521 E40.88566
G1 X86.646 Y119.107 E40.92005
G1 X86.003 Y118.58 E40.95461
G1 X85.434 Y117.948 E40.98997
G1 X84.996 Y117.172 E41.02702
G1 X84.787 Y116.675 E41.04943
G1 X84.617 Y116.088 E41.07484
G1 X84.514 Y115.413 E41.10323
G1 X84.514 Y114.582 E41.13778
G1 X84.617 Y113.914 E41.16588
G1 X84.84 Y113.121 E41.20013
G1 X85.419 Y112.067 E41.25012
G1 X86.003 Y111.421 E41.28633
G1 X86.643 Y110.889 E41.32093
G1 X87.363 Y110.473 E41.3555
G1 X88.16 Y110.161 E41.39108
G1 X88.975 Y110.023 E41.42545
G1 X89.809 Y110.005 E41.46013
G1 X90.484 Y110.097 E41.48845
G1 X90.996 Y110.229 E41.51044
G1 X91.629 Y110.473 E41.53864
G1 X92.353 Y110.889 E41.57336
G1 X92.995 Y111.418 E41.60794
G1 X93.56 Y112.046 E41.64306
G1 X94.094 Y112.985 E41.68797
G1 X94.389 Y113.951 E41.72997
G1 X94.481 Y114.592 E41.75689
G1 X94.481 Y115.404 E41.79065
M204 S2000
M205 X10 Y10
G0 F3600 X94.845 Y115.404
G0 X94.441 Y116.985
G0 X93.822 Y118.107
G0 X92.657 Y119.247
G0 X90.938 Y120.299
M204 S1000
M205 X8 Y8
;TYPE:SKIN
G1 F1200 X90.042 Y120.446 E41.8284
G1 X89.137 Y120.464 E41.86603
G1 X88.398 Y120.359 E41.89706
G1 X87.795 Y120.205 E41.92294
G1 X87.143 Y119.941 E41.95218
G1 X86.387 Y119.505 E41.98846
G1 X85.666 Y118.912 E42.02728
G1 X85.034 Y118.205 E42.0667
G1 X84.577 Y117.402 E42.10512
G1 X84.335 Y116.825 E42.13113
G1 X84.128 Y116.087 E42.163
G1 X84.04 Y115.459 E42.18936
G1 X84.038 Y114.576 E42.22607
G1 X84.143 Y113.831 E42.25735
G1 X84.396 Y112.943 E42.29574
G1 X85.045 Y111.773 E42.35136
G1 X85.684 Y111.063 E42.39108
G1 X86.383 Y110.487 E42.42873
G1 X87.172 Y110.035 E42.46654
G1 X88.058 Y109.693 E42.50602
G1 X88.906 Y109.549 E42.54178
G1 X89.855 Y109.532 E42.58124
G1 X90.607 Y109.637 E42.61281
G1 X91.133 Y109.774 E42.63541
G1 X91.853 Y110.051 E42.66748
G1 X92.644 Y110.511 E42.70552
G1 X93.33 Y111.08 E42.74258
G1 X93.934 Y111.748 E42.78002
G1 X94.539 Y112.822 E42.83127
G1 X94.856 Y113.857 E42.87627
G1 X94.954 Y114.559 E42.90574
G1 X94.952 Y115.451 E42.94283
G1 X94.853 Y116.149 E42.97214
G1 X94.596 Y117.046 E43.01093
G1 X93.97 Y118.198 E43.06544
G1 X93.316 Y118.925 E43.1061
G1 X92.613 Y119.505 E43.14399
G1 X91.824 Y119.957 E43.18179
G1 X90.938 Y120.299 E43.22127
M204 S2000
M205 X10 Y10
G0 F3600 X141.938 Y120.299
M204 S1000
M205 X8 Y8
G1 F1200 X141.042 Y120.446 E43.25902
G1 X140.137 Y120.464 E43.29666
G1 X139.398 Y120.359 E43.32769
G1 X138.795 Y120.205 E43.35356
G1 X138.143 Y119.941 E43.38281
G1 X137.387 Y119.505 E43.41909
G1 X136.666 Y118.912 E43.4579
G1 X136.035 Y118.205 E43.4973
G1 X135.577 Y117.406 E43.53559
G1 X135.318 Y116.791 E43.56333
G1 X135.142 Y116.151 E43.59093
G1 X135.038 Y115.434 E43.62105
G1 X135.038 Y114.558 E43.65747
G1 X135.143 Y113.834 E43.68789
G1 X135.408 Y112.921 E43.72741
G1 X136.012 Y111.819 E43.77966
G1 X136.684 Y111.063 E43.82171
G1 X137.383 Y110.487 E43.85937
G1 X138.172 Y110.035 E43.89717
G1 X139.058 Y109.693 E43.93666
G1 X139.906 Y109.549 E43.97242
G1 X140.855 Y109.532 E44.01188
G1 X141.606 Y109.637 E44.0434
G1 X142.133 Y109.774 E44.06604
G1 X142.853 Y110.051 E44.09812
G1 X143.644 Y110.511 E44.13616
G1 X144.33 Y111.08 E44.17321
G1 X144.931 Y111.748 E44.21057
G1 X145.544 Y112.812 E44.26162
G1 X145.856 Y113.86 E44.30708
G1 X145.952 Y114.528 E44.33514
G1 X145.952 Y115.459 E44.37385
G1 X145.863 Y116.096 E44.40059
G1 X145.6 Y117.045 E44.44153
G1 X144.984 Y118.173 E44.49497
G1 X144.316 Y118.925 E44.53678
G1 X143.613 Y119.505 E44.57467
G1 X142.824 Y119.957 E44.61248
G1 X141.938 Y120.299 E44.65196
M204 S2000
M205 X10 Y10
G0 F3600 X156.274 Y124.398
M204 S1000
M205 X8 Y8
G1 F1200 X156.274 Y105.594 E45.43374
G1 X73.726 Y105.598 E48.86569
G1 X73.723 Y124.398 E49.6473
G1 X156.274 Y124.398 E53.07937
M204 S2000
M205 X10 Y10
G0 F3600 X156.025 Y106.527
M204 S1000
M205 X8 Y8
G1 F1200 X155.342 Y105.845 E53.1195
M204 S2000
M205 X10 Y10
G0 F3600 X154.635 Y105.845
M204 S1000
M205 X8 Y8
G1 F1200 X156.025 Y107.234 E53.2012
M204 S2000
M205 X10 Y10
G0 F3600 X156.025 Y107.941
M204 S1000
M205 X8 Y8
G1 F1200 X153.928 Y105.845 E53.32447
M204 S2000
M205 X10 Y10
G0 F3600 X153.221 Y105.845
M204 S1000
M205 X8 Y8
G1 F1200 X156.025 Y108.648 E53.4893
M204 S2000
M205 X10 Y10
G0 F3600 X156.025 Y109.355
M204 S1000
M205 X8 Y8
G1 F1200 X152.514 Y105.845 E53.69571
M204 S2000
M205 X10 Y10
G0 F3600 X151.807 Y105.845
M204 S1000
M205 X8 Y8
G1 F1200 X156.025 Y110.063 E53.94371
M204 S2000
M205 X10 Y10
G0 F3600 X156.025 Y110.77
M204 S1000
M205 X8 Y8
G1 F1200 X151.1 Y105.845 E54.23328
M204 S2000
M205 X10 Y10
G0 F3600 X150.392 Y105.845
M204 S1000
M205 X8 Y8
G1 F1200 X156.025 Y111.477 E54.56445
M204 S2000
M205 X10 Y10
G0 F3600 X156.025 Y112.184
M204 S1000
M205 X8 Y8
G1 F1200 X149.685 Y105.845 E54.93719
M204 S2000
M205 X10 Y10
G0 F3600 X148.978 Y105.845
M204 S1000
M205 X8 Y8
G1 F1200 X156.025 Y112.891 E55.35149
M204 S2000
M205 X10 Y10
G0 F3600 X156.025 Y113.598
M204 S1000
M205 X8 Y8
G1 F1200 X148.271 Y105.845 E55.80737
M204 S2000
M205 X10 Y10
G0 F3600 X147.564 Y105.845
M204 S1000
M205 X8 Y8
G1 F1200 X156.025 Y114.305 E56.30481
M204 S2000
M205 X10 Y10
G0 F3600 X156.025 Y115.012
M204 S1000
M205 X8 Y8
G1 F1200 X146.857 Y105.845 E56.84383
M204 S2000
M205 X10 Y10
G0 F3600 X146.15 Y105.845
M204 S1000
M205 X8 Y8
G1 F1200 X156.025 Y115.719 E57.42441
M204 S2000
M205 X10 Y10
G0 F3600 X156.025 Y116.427
M204 S1000
M205 X8 Y8
G1 F1200 X145.443 Y105.845 E58.04659
M204 S2000
M205 X10 Y10
G0 F3600 X144.736 Y105.845
M204 S1000
M205 X8 Y8
G1 F1200 X156.025 Y117.134 E58.71034
M204 S2000
M205 X10 Y10
G0 F3600 X156.025 Y117.841
M204 S1000
M205 X8 Y8
G1 F1200 X144.028 Y105.845 E59.41569
M204 S2000
M205 X10 Y10
G0 F3600 X143.321 Y105.845
M204 S1000
M205 X8 Y8
G1 F1200 X156.025 Y118.548 E60.16261
M204 S2000
M205 X10 Y10
G0 F3600 X156.025 Y119.255
M204 S1000
M205 X8 Y8
G1 F1200 X142.614 Y105.845 E60.95109
M204 S2000
M205 X10 Y10
G0 F3600 X141.908 Y105.845
M204 S1000
M205 X8 Y8
G1 F1200 X156.025 Y119.962 E61.78112
M204 S2000
M205 X10 Y10
G0 F3600 X156.025 Y120.669
M204 S1000
M205 X8 Y8
G1 F1200 X141.201 Y105.845 E62.65271
M204 S2000
M205 X10 Y10
G0 F3600 X140.494 Y105.845
M204 S1000
M205 X8 Y8
G1 F1200 X156.025 Y121.376 E63.56588
M204 S2000
M205 X10 Y10
G0 F3600 X156.025 Y122.083
M204 S1000
M205 X8 Y8
G1 F1200 X139.787 Y105.845 E64.52061
M204 S2000
M205 X10 Y10
G0 F3600 X139.079 Y105.845
M204 S1000
M205 X8 Y8
G1 F1200 X143.191 Y109.957 E64.76238
G1 X143.279 Y110.045
M204 S2000
M205 X10 Y10
G0 F3600 X142.013 Y109.486
M204 S1000
M205 X8 Y8
G1 F1200 X138.372 Y105.845 E64.97646
M204 S2000
M205 X10 Y10
G0 F3600 X137.665 Y105.845
M204 S1000
M205 X8 Y8
G1 F1200 X141.138 Y109.318 E65.18065
M204 S2000
M205 X10 Y10
