;FLAVOR:Marlin
;TIME:789
;Filament used: 0.752232m
;Layer height: 0.2
;MINX:103.375
;MINY:106.563
;MINZ:0.2
;MAXX:126.605
;MAXY:123.438
;MAXZ:25.4
;TARGET_MACHINE.NAME:Anycubic Kobra
;Generated with Cura_SteamEngine 5.10.1
M140 S60
M105
M190 S60
M104 S200
M105
M109 S200
G21 ;metric values
G90 ;absolute positioning
M82 ;set extruder to absolute mode
M107 ;start with the fan off
M117 Homing X/Y ...
G28 X0 Y0 ;move X/Y to min endstops
M117 Homing Z ...
G28 Z0 ;move Z to min endstops
G1 Z15.0 F240 ;move the platform down 15mm
M117 Heating ...
M104 S[first_layer_temperature]
; set extruder temp
M109 S[first_layer_temperature]
; wait for extruder temp
M117 Start cleaning ...
M420 S1 ; Enable Bed Levelling Mesh
G92 E0 ;zero the extruded length
M413 S0 ; disable power loss recovery - may reduce blobbing and avoid unexpected recovery
; M500 ; store eeprom settings
M117 Intro line ...
G1 Z2.0 F3000 ; Move Z Axis up little to prevent scratching of Heat Bed
G1 X0.1 Y20 Z[first_layer_height] F5000.0 ; Move to start position
G1 X0.1 Y200.0 Z[first_layer_height] F1500.0 E15 ; Draw the first line
G1 X0.4 Y200.0 Z[first_layer_height] F5000.0 ; Move to side a little
G1 X0.4 Y20 Z0.3[first_layer_height] F1500.0 E30 ; Draw the second line
G92 E0 ; Reset Extruder
G1 X5 Y20 Z0.3 F240 ; Move over to prevent blob squish
G92 E0 ; Reset Extruder
M420 S1 ; Enable Bed Levelling Mesh
M117 Printing...
M82 ;absolute extrusion mode
G92 E0
G92 E0
G1 F3600 E-4
;LAYER_COUNT:127
;LAYER:0
M107
M204 S2000
M205 X10 Y10
G0 X105.009 Y108.017 Z0.2
M204 S1000
M205 X8 Y8
;TYPE:SKIRT
G1 F3600 E0
G1 F1200 X105.765 Y107.431 E0.03977
G1 X106.484 Y107.037 E0.07385
G1 X107.229 Y106.765 E0.10683
G1 X107.788 Y106.642 E0.13062
G1 X108.565 Y106.566 E0.16308
G1 X117.638 Y106.563 E0.54029
G1 X118.718 Y106.588 E0.58521
G1 X119.672 Y106.7 E0.62514
G1 X121.066 Y107.077 E0.68518
G1 X122.246 Y107.587 E0.73862
G1 X123.49 Y108.409 E0.80061
G1 X124.344 Y109.246 E0.85033
G1 X124.961 Y109.95 E0.88925
G1 X125.586 Y110.973 E0.93909
G1 X125.877 Y111.565 E0.96651
G1 X126.343 Y112.799 E1.02135
G1 X126.544 Y113.951 E1.06997
G1 X126.605 Y115.108 E1.11814
G1 X126.54 Y116.175 E1.16258
G1 X126.328 Y117.215 E1.20671
G1 X126.058 Y118.037 E1.24268
G1 X125.569 Y119.081 E1.29061
G1 X124.71 Y120.346 E1.35419
G1 X123.841 Y121.274 E1.40704
G1 X122.618 Y122.195 E1.47069
G1 X121.503 Y122.743 E1.52235
G1 X120.826 Y123 E1.55245
G1 X119.738 Y123.286 E1.59922
G1 X118.367 Y123.434 E1.65655
G1 X109.258 Y123.438 E2.03526
G1 X108.471 Y123.424 E2.06799
G1 X107.721 Y123.343 E2.09935
G1 X106.835 Y123.114 E2.1374
G1 X106.024 Y122.732 E2.17467
G1 X105.405 Y122.317 E2.20565
G1 X104.752 Y121.715 E2.24257
G1 X104.347 Y121.211 E2.26946
G1 X103.908 Y120.499 E2.30423
G1 X103.566 Y119.559 E2.34582
G1 X103.424 Y118.849 E2.37592
G1 X103.381 Y118.273 E2.39994
G1 X103.375 Y112.414 E2.64352
G1 X103.393 Y111.585 E2.678
G1 X103.453 Y111.007 E2.70216
G1 X103.678 Y110.075 E2.74202
G1 X104.072 Y109.232 E2.78071
G1 X104.431 Y108.683 E2.80798
G1 X105.009 Y108.017 E2.84464
M204 S2000
M205 X10 Y10
G0 F3600 X105.356 Y108.38
M204 S1000
M205 X8 Y8
G1 F1200 X106.009 Y107.868 E2.87914
G1 X106.658 Y107.506 E2.91003
G1 X107.34 Y107.253 E2.94028
G1 X107.837 Y107.14 E2.96147
G1 X108.614 Y107.064 E2.99393
G1 X117.627 Y107.063 E3.36864
G1 X118.66 Y107.085 E3.4116
G1 X119.614 Y107.197 E3.45153
G1 X120.934 Y107.559 E3.50844
G1 X122.006 Y108.028 E3.55709
G1 X123.175 Y108.8 E3.61533
G1 X123.968 Y109.576 E3.66146
G1 X124.556 Y110.247 E3.69855
G1 X125.159 Y111.234 E3.74664
G1 X125.409 Y111.742 E3.77018
G1 X125.858 Y112.931 E3.82302
G1 X126.051 Y114.037 E3.86969
G1 X126.106 Y115.08 E3.91312
G1 X126.05 Y116.076 E3.95459
G1 X125.852 Y117.061 E3.99636
G1 X125.605 Y117.825 E4.02974
G1 X125.116 Y118.869 E4.07767
G1 X124.298 Y120.063 E4.13785
G1 X123.508 Y120.899 E4.18567
G1 X122.358 Y121.765 E4.24552
G1 X121.282 Y122.294 E4.29537
G1 X120.699 Y122.516 E4.3213
G1 X119.611 Y122.802 E4.36808
G1 X118.367 Y122.934 E4.42008
G1 X109.267 Y122.938 E4.79842
G1 X108.48 Y122.924 E4.83114
G1 X107.776 Y122.846 E4.86059
G1 X107.008 Y122.643 E4.89362
G1 X106.299 Y122.314 E4.92611
G1 X105.742 Y121.947 E4.95385
G1 X105.14 Y121.399 E4.98769
G1 X104.773 Y120.948 E5.01187
G1 X104.359 Y120.277 E5.04464
G1 X104.056 Y119.458 E5.08095
G1 X103.923 Y118.812 E5.10837
G1 X103.88 Y118.236 E5.13239
G1 X103.875 Y112.424 E5.37402
G1 X103.891 Y111.632 E5.40695
G1 X103.939 Y111.125 E5.42813
G1 X104.153 Y110.24 E5.46598
G1 X104.492 Y109.503 E5.49971
G1 X104.809 Y109.011 E5.52404
G1 X105.356 Y108.38 E5.55876
M204 S2000
M205 X10 Y10
G0 F3600 X105.704 Y108.743
M204 S1000
M205 X8 Y8
G1 F1200 X106.256 Y108.303 E5.58811
G1 X106.835 Y107.974 E5.6158
G1 X107.451 Y107.741 E5.64318
G1 X107.948 Y107.628 E5.66437
G1 X108.66 Y107.562 E5.6941
G1 X117.617 Y107.563 E6.06648
G1 X118.602 Y107.582 E6.10744
G1 X119.556 Y107.694 E6.14738
G1 X120.733 Y108.017 E6.19812
G1 X121.77 Y108.471 E6.24519
G1 X122.858 Y109.189 E6.29938
G1 X123.592 Y109.906 E6.34204
G1 X124.154 Y110.547 E6.37748
G1 X124.71 Y111.455 E6.42175
G1 X124.96 Y111.963 E6.44529
G1 X125.373 Y113.061 E6.49406
G1 X125.558 Y114.123 E6.53888
G1 X125.607 Y115.055 E6.57768
G1 X125.56 Y115.979 E6.61614
G1 X125.376 Y116.907 E6.65548
G1 X125.129 Y117.671 E6.68886
G1 X124.664 Y118.655 E6.73411
G1 X123.935 Y119.719 E6.78773
G1 X123.172 Y120.526 E6.8339
G1 X122.098 Y121.335 E6.88981
G1 X121.061 Y121.845 E6.93785
G1 X120.569 Y122.033 E6.95975
G1 X119.557 Y122.305 E7.00332
G1 X118.367 Y122.434 E7.05308
G1 X109.276 Y122.438 E7.43104
G1 X108.489 Y122.424 E7.46376
G1 X107.904 Y122.363 E7.48822
G1 X107.179 Y122.171 E7.5194
G1 X106.574 Y121.896 E7.54703
G1 X106.017 Y121.529 E7.57476
G1 X105.528 Y121.083 E7.60228
G1 X105.161 Y120.632 E7.62645
G1 X104.812 Y120.059 E7.65434
G1 X104.546 Y119.357 E7.68555
G1 X104.413 Y118.711 E7.71298
G1 X104.379 Y118.203 E7.73414
G1 X104.375 Y112.433 E7.97403
G1 X104.389 Y111.679 E8.00538
G1 X104.437 Y111.172 E8.02656
G1 X104.627 Y110.407 E8.05933
G1 X104.915 Y109.77 E8.08839
G1 X105.187 Y109.339 E8.10958
G1 X105.704 Y108.743 E8.14238
M204 S2000
M205 X10 Y10
G0 F3600 X106.05 Y109.106
M204 S1000
M205 X8 Y8
G1 F1200 X106.507 Y108.735 E8.16686
G1 X107.015 Y108.44 E8.19128
G1 X107.562 Y108.229 E8.21566
G1 X108.059 Y108.116 E8.23685
G1 X108.66 Y108.062 E8.26193
G1 X117.608 Y108.063 E8.63395
G1 X118.544 Y108.079 E8.67287
G1 X119.498 Y108.191 E8.7128
G1 X120.532 Y108.475 E8.75738
G1 X121.534 Y108.914 E8.80286
G1 X122.541 Y109.578 E8.85301
G1 X123.216 Y110.236 E8.8922
G1 X123.75 Y110.845 E8.92588
G1 X124.261 Y111.676 E8.96644
G1 X124.511 Y112.184 E8.98998
G1 X124.887 Y113.189 E9.03459
G1 X125.065 Y114.209 E9.07763
G1 X125.108 Y115.032 E9.1119
G1 X125.069 Y115.883 E9.14732
G1 X124.899 Y116.756 E9.18429
G1 X124.677 Y117.457 E9.21486
G1 X124.212 Y118.441 E9.26011
G1 X123.572 Y119.375 E9.30718
G1 X122.836 Y120.153 E9.35171
G1 X121.838 Y120.905 E9.40366
G1 X120.84 Y121.396 E9.4499
G1 X120.439 Y121.55 E9.46776
G1 X119.427 Y121.822 E9.51133
G1 X118.367 Y121.934 E9.55564
G1 X109.284 Y121.938 E9.93327
G1 X108.535 Y121.926 E9.96442
G1 X108.028 Y121.879 E9.98558
G1 X107.382 Y121.714 E10.0133
G1 X106.845 Y121.476 E10.03772
G1 X106.351 Y121.157 E10.06217
G1 X105.913 Y120.764 E10.08664
G1 X105.588 Y120.372 E10.10781
G1 X105.263 Y119.838 E10.1338
G1 X105.035 Y119.252 E10.15994
G1 X104.912 Y118.678 E10.18435
G1 X104.878 Y118.17 E10.20551
G1 X104.875 Y112.441 E10.4437
G1 X104.887 Y111.726 E10.47343
G1 X104.935 Y111.219 E10.4946
G1 X105.1 Y110.574 E10.52228
G1 X105.338 Y110.037 E10.5467
G1 X105.61 Y109.606 E10.56789
G1 X106.05 Y109.106 E10.59558
M204 S2000
M205 X10 Y10
G0 F3600 X106.369 Y109.491
M204 S1000
M205 X8 Y8
G1 F1200 X106.762 Y109.165 E10.61681
G1 X107.2 Y108.905 E10.63799
G1 X107.673 Y108.717 E10.65915
G1 X108.17 Y108.604 E10.68034
G1 X108.66 Y108.562 E10.70078
G1 X117.601 Y108.563 E11.07251
G1 X118.489 Y108.576 E11.10943
G1 X119.368 Y108.674 E11.1462
G1 X120.331 Y108.933 E11.18766
G1 X121.293 Y109.355 E11.23134
G1 X122.228 Y109.971 E11.27789
G1 X122.84 Y110.566 E11.31337
G1 X123.347 Y111.144 E11.34534
G1 X123.835 Y111.938 E11.38409
G1 X124.043 Y112.359 E11.40361
G1 X124.402 Y113.32 E11.44626
G1 X124.566 Y114.236 E11.48495
G1 X124.608 Y115.013 E11.5173
G1 X124.578 Y115.787 E11.5495
G1 X124.408 Y116.66 E11.58648
G1 X124.225 Y117.243 E11.61188
G1 X123.76 Y118.227 E11.65713
G1 X123.209 Y119.031 E11.69765
G1 X122.5 Y119.78 E11.74053
G1 X121.574 Y120.478 E11.78874
G1 X120.661 Y120.929 E11.83108
G1 X120.26 Y121.083 E11.84894
G1 X119.373 Y121.325 E11.88716
G1 X118.367 Y121.434 E11.92923
G1 X109.291 Y121.438 E12.30657
G1 X108.581 Y121.428 E12.33609
G1 X108.074 Y121.381 E12.35726
G1 X107.58 Y121.255 E12.37845
G1 X107.112 Y121.053 E12.39965
G1 X106.681 Y120.781 E12.42084
G1 X106.298 Y120.445 E12.44202
G1 X105.973 Y120.053 E12.46319
G1 X105.712 Y119.616 E12.48435
G1 X105.523 Y119.142 E12.50557
G1 X105.411 Y118.645 E12.52675
G1 X105.377 Y118.137 E12.54791
G1 X105.375 Y112.448 E12.78444
G1 X105.385 Y111.773 E12.8125
G1 X105.433 Y111.266 E12.83367
G1 X105.559 Y110.772 E12.85487
G1 X105.761 Y110.304 E12.87606
G1 X106.033 Y109.873 E12.89725
G1 X106.369 Y109.491 E12.9184
M204 S2000
M205 X10 Y10
G1 F3600 E8.9184
;MESH:ballista-pC.stl
G0 X109.149 Y111.147
G0 X119.209 Y117.749
M204 S1000
M205 X8 Y8
;TYPE:WALL-OUTER
G1 F3600 E12.9184
G1 F1200 X119.764 Y117.474 E12.94415
G1 X120.144 Y117.189 E12.9639
G1 X120.49 Y116.82 E12.98493
G1 X120.759 Y116.411 E13.00529
G1 X121.01 Y115.85 E13.03084
G1 X121.114 Y115.246 E13.05632
G1 X121.114 Y114.749 E13.07698
G1 X121.033 Y114.27 E13.09718
G1 X120.819 Y113.701 E13.12245
G1 X120.485 Y113.174 E13.14839
G1 X120.063 Y112.723 E13.17407
G1 X119.541 Y112.394 E13.19972
G1 X119.214 Y112.248 E13.21461
G1 X118.74 Y112.115 E13.23508
G1 X118.235 Y112.063 E13.25619
G1 X108.874 Y112.062 E13.64537
G1 X108.874 Y117.937 E13.88963
G1 X118.219 Y117.934 E14.27815
G1 X118.741 Y117.881 E14.29996
G1 X119.209 Y117.749 E14.32018
M204 S2000
M205 X10 Y10
G0 F3600 X119.433 Y117.638
G0 X119.029 Y117.281
M204 S1000
M205 X8 Y8
;TYPE:WALL-INNER
G1 F1200 X119.5 Y117.046 E14.34206
G1 X119.809 Y116.815 E14.3581
G1 X120.096 Y116.509 E14.37554
G1 X120.319 Y116.17 E14.39241
G1 X120.528 Y115.704 E14.41365
G1 X120.614 Y115.204 E14.43474
G1 X120.614 Y114.791 E14.45191
G1 X120.548 Y114.401 E14.46835
G1 X120.369 Y113.925 E14.4895
G1 X120.088 Y113.481 E14.51134
G1 X119.742 Y113.111 E14.5324
G1 X119.305 Y112.836 E14.55387
G1 X118.646 Y112.608 E14.58286
G1 X118.209 Y112.563 E14.60112
G1 X109.374 Y112.562 E14.96844
G1 X109.374 Y117.437 E15.17112
G1 X118.194 Y117.434 E15.53781
G1 X118.647 Y117.388 E15.55674
G1 X119.029 Y117.281 E15.57324
M204 S2000
M205 X10 Y10
G0 F3600 X118.861 Y116.833
M204 S1000
M205 X8 Y8
;TYPE:SKIN
G1 F1200 X119.244 Y116.642 E15.59103
G1 X119.488 Y116.461 E15.60366
G1 X119.718 Y116.213 E15.61772
G1 X119.903 Y115.931 E15.63175
G1 X120.067 Y115.562 E15.64853
G1 X120.138 Y115.161 E15.66546
G1 X120.138 Y114.826 E15.67939
G1 X120.085 Y114.523 E15.69218
G1 X119.939 Y114.136 E15.70938
G1 X119.716 Y113.781 E15.72681
G1 X119.431 Y113.475 E15.74419
G1 X119.095 Y113.263 E15.76071
G1 X118.55 Y113.075 E15.78468
G1 X118.175 Y113.039 E15.80034
G1 X109.846 Y113.035 E16.14662
G1 X109.846 Y116.961 E16.30984
G1 X118.163 Y116.958 E16.65562
G1 X118.557 Y116.917 E16.67209
G1 X118.861 Y116.833 E16.68521
M204 S2000
M205 X10 Y10
G0 F3600 X118.247 Y113.298
M204 S1000
M205 X8 Y8
G1 F1200 X119.87 Y114.92 E16.7806
M204 S2000
M205 X10 Y10
G0 F3600 X119.797 Y115.555
M204 S1000
M205 X8 Y8
G1 F1200 X117.532 Y113.289 E16.91381
M204 S2000
M205 X10 Y10
G0 F3600 X116.825 Y113.289
M204 S1000
M205 X8 Y8
G1 F1200 X119.535 Y115.999 E17.07314
M204 S2000
M205 X10 Y10
G0 F3600 X119.195 Y116.366
M204 S1000
M205 X8 Y8
G1 F1200 X116.117 Y113.288 E17.25412
M204 S2000
M205 X10 Y10
G0 F3600 X115.409 Y113.288
M204 S1000
M205 X8 Y8
G1 F1200 X118.727 Y116.606 E17.4492
M204 S2000
M205 X10 Y10
G0 F3600 X118.122 Y116.708
M204 S1000
M205 X8 Y8
G1 F1200 X114.702 Y113.288 E17.65029
M204 S2000
M205 X10 Y10
G0 F3600 X113.994 Y113.287
M204 S1000
M205 X8 Y8
G1 F1200 X117.415 Y116.708 E17.85143
M204 S2000
M205 X10 Y10
G0 F3600 X116.708 Y116.708
M204 S1000
M205 X8 Y8
G1 F1200 X113.287 Y113.287 E18.05257
M204 S2000
M205 X10 Y10
G0 F3600 X112.579 Y113.286
M204 S1000
M205 X8 Y8
G1 F1200 X116.002 Y116.709 E18.25383
M204 S2000
M205 X10 Y10
G0 F3600 X115.294 Y116.709
M204 S1000
M205 X8 Y8
G1 F1200 X111.872 Y113.286 E18.45506
M204 S2000
M205 X10 Y10
G0 F3600 X111.164 Y113.286
M204 S1000
M205 X8 Y8
G1 F1200 X114.588 Y116.709 E18.65635
M204 S2000
M205 X10 Y10
G0 F3600 X113.881 Y116.709
M204 S1000
M205 X8 Y8
G1 F1200 X110.457 Y113.286 E18.85764
M204 S2000
M205 X10 Y10
G0 F3600 X110.096 Y113.631
M204 S1000
M205 X8 Y8
G1 F1200 X113.175 Y116.71 E19.03867
M204 S2000
M205 X10 Y10
G0 F3600 X112.467 Y116.71
M204 S1000
M205 X8 Y8
G1 F1200 X110.096 Y114.338 E19.17811
M204 S2000
M205 X10 Y10
G0 F3600 X110.096 Y115.046
M204 S1000
M205 X8 Y8
G1 F1200 X111.76 Y116.71 E19.27594
M204 S2000
M205 X10 Y10
G0 F3600 X111.054 Y116.711
M204 S1000
M205 X8 Y8
G1 F1200 X110.096 Y115.753 E19.33227
M204 S2000
M205 X10 Y10
G0 F3600 X110.096 Y116.46
M204 S1000
M205 X8 Y8
G1 F1200 X110.347 Y116.711 E19.34703
M204 S2000
M205 X10 Y10
G0 F3600 X110.348 Y116.677
G1 F3600 E15.34703
;MESH:NONMESH
G0 F600 X110.348 Y116.677 Z0.4
G0 F3600 X109.149 Y112.336
G0 X109.149 Y111.147
G0 X106.369 Y109.491
;TIME_ELAPSED:29.315084
;LAYER:1
M106 S255
M204 S1000
M205 X8 Y8
;TYPE:SKIRT
G1 F3600 E19.34703
G1 F1200 X106.762 Y109.165 E19.36826
G1 X107.2 Y108.905 E19.38943
G1 X107.673 Y108.717 E19.41059
G1 X108.17 Y108.604 E19.43178
G1 X108.66 Y108.562 E19.45223
G1 X117.601 Y108.563 E19.82395
G1 X118.489 Y108.576 E19.86088
G1 X119.368 Y108.674 E19.89765
G1 X120.331 Y108.933 E19.93911
G1 X121.293 Y109.355 E19.98278
G1 X122.228 Y109.971 E20.02933
G1 X122.84 Y110.566 E20.06482
G1 X123.347 Y111.144 E20.09678
G1 X123.835 Y111.938 E20.13553
G1 X124.043 Y112.359 E20.15505
G1 X124.402 Y113.32 E20.1977
G1 X124.566 Y114.236 E20.23639
G1 X124.608 Y115.013 E20.26874
G1 X124.578 Y115.787 E20.30095
G1 X124.408 Y116.66 E20.33792
G1 X124.225 Y117.243 E20.36333
G1 X123.76 Y118.227 E20.40858
G1 X123.209 Y119.031 E20.4491
G1 X122.5 Y119.78 E20.49198
G1 X121.574 Y120.478 E20.54019
G1 X120.661 Y120.929 E20.58253
G1 X120.26 Y121.083 E20.60038
G1 X119.373 Y121.325 E20.63861
G1 X118.367 Y121.434 E20.68068
G1 X109.291 Y121.438 E21.05801
G1 X108.581 Y121.428 E21.08754
G1 X108.074 Y121.381 E21.10871
G1 X107.58 Y121.255 E21.1299
G1 X107.112 Y121.053 E21.15109
G1 X106.681 Y120.781 E21.17228
G1 X106.298 Y120.445 E21.19346
G1 X105.973 Y120.053 E21.21463
G1 X105.712 Y119.616 E21.2358
G1 X105.523 Y119.142 E21.25701
G1 X105.411 Y118.645 E21.27819
G1 X105.377 Y118.137 E21.29936
G1 X105.375 Y112.448 E21.53588
G1 X105.385 Y111.773 E21.56395
G1 X105.433 Y111.266 E21.58512
G1 X105.559 Y110.772 E21.60632
G1 X105.761 Y110.304 E21.62751
G1 X106.033 Y109.873 E21.6487
G1 X106.369 Y109.491 E21.66985
M204 S3500
M205 X10 Y10
G1 F3600 E17.66985
;MESH:ballista-pC.stl
G0 F5400 X109.149 Y111.147
G0 X109.149 Y112.336
G0 X109.574 Y113.11
M204 S1000
M205 X8 Y8
;TYPE:FILL
G1 F3600 E21.66985
G1 F1800 X113.7 Y117.235 E21.91241
M204 S3500
M205 X10 Y10
G0 F5400 X114.531 Y117.236
M204 S1000
M205 X8 Y8
G1 F1800 X118.872 Y112.895 E22.16765
M204 S3500
M205 X10 Y10
G0 F5400 X118.065 Y112.762
M204 S1000
M205 X8 Y8
G1 F1800 X120.414 Y115.111 E22.30576
G1 X120.414 Y114.889
G1 X118.068 Y117.235 E22.44369
M204 S3500
M205 X10 Y10
G0 F5400 X118.883 Y117.115
M204 S1000
M205 X8 Y8
G1 F1800 X114.529 Y112.762 E22.69966
M204 S3500
M205 X10 Y10
G0 F5400 X113.702 Y112.762
M204 S1000
M205 X8 Y8
G1 F1800 X109.574 Y116.89 E22.94237
G1 X109.574 Y116.645
G1 X110.166 Y117.237 E22.97718
M204 S3500
M205 X10 Y10
G0 F5400 X110.994 Y117.238
M204 S1000
M205 X8 Y8
G1 F1800 X115.47 Y112.762 E23.24035
M204 S3500
M205 X10 Y10
G0 F5400 X116.297 Y112.762
M204 S1000
M205 X8 Y8
G1 F1800 X119.913 Y116.378 E23.45296
G1 X120.001 Y116.466
M204 S3500
M205 X10 Y10
G0 F5400 X119.814 Y116.289
G0 X119.807 Y113.707
G0 X119.923 Y113.612
M204 S1000
M205 X8 Y8
